; ### Klipper Pressure Advance Calibration Pattern ###
;
; Original Marlin linear advance calibration tool by Sineos [https://github.com/Sineos]
; Heavily modified/rewritten by Andrew Ellis [https://github.com/AndrewEllis93]
;
; -------------------------------------------
; Generated: Fri Dec 09 2022 09:52:14 GMT-0800 (Pacific Standard Time)
; -------------------------------------------
;
; Expert mode: false
;
; Printer:
;  - Firmware: klipper
;  - Bed Shape: Rect
;  - Bed Size X: 160 mm
;  - Bed Size Y: 160 mm
;  - Origin Bed Center: false
;  - Travel Speed: 120 mm/s
;  - Nozzle Diameter: 0.4 mm
;  - Filament Diameter: 1.75 mm
;  - Extrusion Multiplier: 0.93
;
; Retraction / Z Hop:
;  - Retraction Distance: 0.4 mm
;  - Retract Speed: 35 mm/s
;  - Unretract Speed: 35 mm/s
;  - Z Hop Enable: true
;  - Z Hop Height: 0.4mm
;
; First Layer Settings:
;  - First Layer Height: 0.25 mm
;  - First Layer Printing Speed: 30 mm/s
;  - First Layer Fan Speed: 0%
;  - Anchor Option: anchor_frame
;
; Print Settings:
;  - Layer Height: 0.2 mm
;  - Print Speed: 100 mm/s
;  - Acceleration: Disabled
;  - Fan Speed: 100%
;
; Pressure Advance Stepping:
;  - PA Start Value: 0
;  - PA End Value: 0.08
;  - PA Increment: 0.005
;
; Start / End G-code:
;  - Start G-code Type: standalone
;  - Hotend Temp: 255C
;  - Bed Temp: 110C
;
; Calculated Values:
;  - Print Size X: 100.59 mm
;  - Print Size Y: 53.99 mm
;  - Number of Patterns to Print: 17
;  - PA Values: 0, 0.005, 0.01, 0.015, 0.02, 0.025, 0.03, 0.035, 0.04, 0.045, 0.05, 0.055, 0.06, 0.065, 0.07, 0.075, 0.08
;
; Prepare printing
; 
M190 S110    ; Set & wait for bed temp. !Don't modify/delete, only move!
M109 S255 ; Set & wait for hotend temp. !Don't modify/delete, only move!
PRINT_START         ; Start macro
;
; Make sure this macro name matches your own! 
; (For example, some may use START_PRINT instead.)
G21 ; Millimeter units
G90 ; Absolute XYZ
M83 ; Relative E
G92 E0 ; Reset extruder distance
;
;  Begin printing
;
M106 S0 ; Set fan speed
G1 E-0.4 F2100 ; Retract
G0 Z5 F7200 ; Z raise
G0 X29.7043 Y53.0068 F7200 ; Move to start position
G0 Z0.25 F7200 ; Move to start layer height
G1 E0.4 F2100 ; Un-retract
G1 X29.7043 Y95.4332 E2.07656 F1800 ; Draw perimeter (up)
G1 X130.2957 Y95.4332 E4.92343 F1800 ; Draw perimeter (right)
G1 X130.2957 Y53.0068 E2.07656 F1800 ; Draw perimeter (down)
G1 X29.7043 Y53.0068 E4.92343 F1800 ; Draw perimeter (left)
G0 X30.2107 Y53.5131 F7200 ; Step inwards to print next perimeter
G1 X30.2107 Y94.9269 E2.02699 F1800 ; Draw perimeter (up)
G1 X129.7893 Y94.9269 E4.87387 F1800 ; Draw perimeter (right)
G1 X129.7893 Y53.5131 E2.02699 F1800 ; Draw perimeter (down)
G1 X30.2107 Y53.5131 E4.87387 F1800 ; Draw perimeter (left)
G0 X30.717 Y54.0195 F7200 ; Step inwards to print next perimeter
G1 X30.717 Y94.4205 E1.97742 F1800 ; Draw perimeter (up)
G1 X129.283 Y94.4205 E4.8243 F1800 ; Draw perimeter (right)
G1 X129.283 Y54.0195 E1.97742 F1800 ; Draw perimeter (down)
G1 X30.717 Y54.0195 E4.8243 F1800 ; Draw perimeter (left)
G0 X31.2234 Y54.5258 F7200 ; Step inwards to print next perimeter
G1 X31.2234 Y93.9142 E1.92786 F1800 ; Draw perimeter (up)
G1 X128.7766 Y93.9142 E4.77473 F1800 ; Draw perimeter (right)
G1 X128.7766 Y54.5258 E1.92786 F1800 ; Draw perimeter (down)
G1 X31.2234 Y54.5258 E4.77473 F1800 ; Draw perimeter (left)
G1 E-0.4 F2100 ; Retract
G1 Z0.65 F7200 ; Z hop
G0 X29.7043 Y95.9396 F7200 ; Move to box start
G1 Z0.25 F7200 ; Z hop return
G1 E0.4 F2100 ; Un-retract
G1 X29.7043 Y107.4459 E0.56318 F1800 ; Draw perimeter (up)
G1 X109.8377 Y107.4459 E3.92212 F1800 ; Draw perimeter (right)
G1 X109.8377 Y95.9396 E0.56318 F1800 ; Draw perimeter (down)
G1 X29.7043 Y95.9396 E3.92212 F1800 ; Draw perimeter (left)
G0 X30.2107 Y96.4459 F7200 ; Step inwards to print next perimeter
G1 X30.2107 Y106.9396 E0.51361 F1800 ; Draw perimeter (up)
G1 X109.3314 Y106.9396 E3.87255 F1800 ; Draw perimeter (right)
G1 X109.3314 Y96.4459 E0.51361 F1800 ; Draw perimeter (down)
G1 X30.2107 Y96.4459 E3.87255 F1800 ; Draw perimeter (left)
G0 X30.717 Y96.9523 F7200 ; Step inwards to print next perimeter
G1 X30.717 Y106.4332 E0.46404 F1800 ; Draw perimeter (up)
G1 X108.825 Y106.4332 E3.82299 F1800 ; Draw perimeter (right)
G1 X108.825 Y96.9523 E0.46404 F1800 ; Draw perimeter (down)
G1 X30.717 Y96.9523 E3.82299 F1800 ; Draw perimeter (left)
G0 X31.2234 Y97.4586 F7200 ; Step inwards to print next perimeter
G1 X31.2234 Y105.9269 E0.41448 F1800 ; Draw perimeter (up)
G1 X108.3187 Y105.9269 E3.77342 F1800 ; Draw perimeter (right)
G1 X108.3187 Y97.4586 E0.41448 F1800 ; Draw perimeter (down)
G1 X31.2234 Y97.4586 E3.77342 F1800 ; Draw perimeter (left)
G0 X31.5967 Y97.8319 F7200 ; Move to fill start
G0 X32.3128 Y97.8319 F7200 ; Move
G1 X31.5967 Y98.548 E0.04957 F1800 ; Fill
G0 X31.5967 Y99.2641 F7200 ; Move
G1 X33.0289 Y97.8319 E0.09913 F1800 ; Fill
G0 X33.745 Y97.8319 F7200 ; Move
G1 X31.5967 Y99.9802 E0.1487 F1800 ; Fill
G0 X31.5967 Y100.6963 F7200 ; Move
G1 X34.4611 Y97.8319 E0.19827 F1800 ; Fill
G0 X35.1771 Y97.8319 F7200 ; Move
G1 X31.5967 Y101.4124 E0.24783 F1800 ; Fill
G0 X31.5967 Y102.1285 F7200 ; Move
G1 X35.8932 Y97.8319 E0.2974 F1800 ; Fill
G0 X36.6093 Y97.8319 F7200 ; Move
G1 X31.5967 Y102.8445 E0.34697 F1800 ; Fill
G0 X31.5967 Y103.5606 F7200 ; Move
G1 X37.3254 Y97.8319 E0.39653 F1800 ; Fill
G0 X38.0415 Y97.8319 F7200 ; Move
G1 X31.5967 Y104.2767 E0.4461 F1800 ; Fill
G0 X31.5967 Y104.9928 F7200 ; Move
G1 X38.7576 Y97.8319 E0.49566 F1800 ; Fill
G0 X39.4737 Y97.8319 F7200 ; Move
G1 X31.7521 Y105.5535 E0.53448 F1800 ; Fill
G0 X32.4682 Y105.5535 F7200 ; Move
G1 X40.1898 Y97.8319 E0.53448 F1800 ; Fill
G0 X40.9058 Y97.8319 F7200 ; Move
G1 X33.1843 Y105.5535 E0.53448 F1800 ; Fill
G0 X33.9003 Y105.5535 F7200 ; Move
G1 X41.6219 Y97.8319 E0.53448 F1800 ; Fill
G0 X42.338 Y97.8319 F7200 ; Move
G1 X34.6164 Y105.5535 E0.53448 F1800 ; Fill
G0 X35.3325 Y105.5535 F7200 ; Move
G1 X43.0541 Y97.8319 E0.53448 F1800 ; Fill
G0 X43.7702 Y97.8319 F7200 ; Move
G1 X36.0486 Y105.5535 E0.53448 F1800 ; Fill
G0 X36.7647 Y105.5535 F7200 ; Move
G1 X44.4863 Y97.8319 E0.53448 F1800 ; Fill
G0 X45.2024 Y97.8319 F7200 ; Move
G1 X37.4808 Y105.5535 E0.53448 F1800 ; Fill
G0 X38.1969 Y105.5535 F7200 ; Move
G1 X45.9184 Y97.8319 E0.53448 F1800 ; Fill
G0 X46.6345 Y97.8319 F7200 ; Move
G1 X38.9129 Y105.5535 E0.53448 F1800 ; Fill
G0 X39.629 Y105.5535 F7200 ; Move
G1 X47.3506 Y97.8319 E0.53448 F1800 ; Fill
G0 X48.0667 Y97.8319 F7200 ; Move
G1 X40.3451 Y105.5535 E0.53448 F1800 ; Fill
G0 X41.0612 Y105.5535 F7200 ; Move
G1 X48.7828 Y97.8319 E0.53448 F1800 ; Fill
G0 X49.4989 Y97.8319 F7200 ; Move
G1 X41.7773 Y105.5535 E0.53448 F1800 ; Fill
G0 X42.4934 Y105.5535 F7200 ; Move
G1 X50.215 Y97.8319 E0.53448 F1800 ; Fill
G0 X50.931 Y97.8319 F7200 ; Move
G1 X43.2095 Y105.5535 E0.53448 F1800 ; Fill
G0 X43.9256 Y105.5535 F7200 ; Move
G1 X51.6471 Y97.8319 E0.53448 F1800 ; Fill
G0 X52.3632 Y97.8319 F7200 ; Move
G1 X44.6416 Y105.5535 E0.53448 F1800 ; Fill
G0 X45.3577 Y105.5535 F7200 ; Move
G1 X53.0793 Y97.8319 E0.53448 F1800 ; Fill
G0 X53.7954 Y97.8319 F7200 ; Move
G1 X46.0738 Y105.5535 E0.53448 F1800 ; Fill
G0 X46.7899 Y105.5535 F7200 ; Move
G1 X54.5115 Y97.8319 E0.53448 F1800 ; Fill
G0 X55.2276 Y97.8319 F7200 ; Move
G1 X47.506 Y105.5535 E0.53448 F1800 ; Fill
G0 X48.2221 Y105.5535 F7200 ; Move
G1 X55.9437 Y97.8319 E0.53448 F1800 ; Fill
G0 X56.6597 Y97.8319 F7200 ; Move
G1 X48.9382 Y105.5535 E0.53448 F1800 ; Fill
G0 X49.6542 Y105.5535 F7200 ; Move
G1 X57.3758 Y97.8319 E0.53448 F1800 ; Fill
G0 X58.0919 Y97.8319 F7200 ; Move
G1 X50.3703 Y105.5535 E0.53448 F1800 ; Fill
G0 X51.0864 Y105.5535 F7200 ; Move
G1 X58.808 Y97.8319 E0.53448 F1800 ; Fill
G0 X59.5241 Y97.8319 F7200 ; Move
G1 X51.8025 Y105.5535 E0.53448 F1800 ; Fill
G0 X52.5186 Y105.5535 F7200 ; Move
G1 X60.2402 Y97.8319 E0.53448 F1800 ; Fill
G0 X60.9563 Y97.8319 F7200 ; Move
G1 X53.2347 Y105.5535 E0.53448 F1800 ; Fill
G0 X53.9508 Y105.5535 F7200 ; Move
G1 X61.6723 Y97.8319 E0.53448 F1800 ; Fill
G0 X62.3884 Y97.8319 F7200 ; Move
G1 X54.6668 Y105.5535 E0.53448 F1800 ; Fill
G0 X55.3829 Y105.5535 F7200 ; Move
G1 X63.1045 Y97.8319 E0.53448 F1800 ; Fill
G0 X63.8206 Y97.8319 F7200 ; Move
G1 X56.099 Y105.5535 E0.53448 F1800 ; Fill
G0 X56.8151 Y105.5535 F7200 ; Move
G1 X64.5367 Y97.8319 E0.53448 F1800 ; Fill
G0 X65.2528 Y97.8319 F7200 ; Move
G1 X57.5312 Y105.5535 E0.53448 F1800 ; Fill
G0 X58.2473 Y105.5535 F7200 ; Move
G1 X65.9689 Y97.8319 E0.53448 F1800 ; Fill
G0 X66.685 Y97.8319 F7200 ; Move
G1 X58.9634 Y105.5535 E0.53448 F1800 ; Fill
G0 X59.6795 Y105.5535 F7200 ; Move
G1 X67.401 Y97.8319 E0.53448 F1800 ; Fill
G0 X68.1171 Y97.8319 F7200 ; Move
G1 X60.3955 Y105.5535 E0.53448 F1800 ; Fill
G0 X61.1116 Y105.5535 F7200 ; Move
G1 X68.8332 Y97.8319 E0.53448 F1800 ; Fill
G0 X69.5493 Y97.8319 F7200 ; Move
G1 X61.8277 Y105.5535 E0.53448 F1800 ; Fill
G0 X62.5438 Y105.5535 F7200 ; Move
G1 X70.2654 Y97.8319 E0.53448 F1800 ; Fill
G0 X70.9815 Y97.8319 F7200 ; Move
G1 X63.2599 Y105.5535 E0.53448 F1800 ; Fill
G0 X63.976 Y105.5535 F7200 ; Move
G1 X71.6976 Y97.8319 E0.53448 F1800 ; Fill
G0 X72.4136 Y97.8319 F7200 ; Move
G1 X64.6921 Y105.5535 E0.53448 F1800 ; Fill
G0 X65.4081 Y105.5535 F7200 ; Move
G1 X73.1297 Y97.8319 E0.53448 F1800 ; Fill
G0 X73.8458 Y97.8319 F7200 ; Move
G1 X66.1242 Y105.5535 E0.53448 F1800 ; Fill
G0 X66.8403 Y105.5535 F7200 ; Move
G1 X74.5619 Y97.8319 E0.53448 F1800 ; Fill
G0 X75.278 Y97.8319 F7200 ; Move
G1 X67.5564 Y105.5535 E0.53448 F1800 ; Fill
G0 X68.2725 Y105.5535 F7200 ; Move
G1 X75.9941 Y97.8319 E0.53448 F1800 ; Fill
G0 X76.7102 Y97.8319 F7200 ; Move
G1 X68.9886 Y105.5535 E0.53448 F1800 ; Fill
G0 X69.7047 Y105.5535 F7200 ; Move
G1 X77.4262 Y97.8319 E0.53448 F1800 ; Fill
G0 X78.1423 Y97.8319 F7200 ; Move
G1 X70.4207 Y105.5535 E0.53448 F1800 ; Fill
G0 X71.1368 Y105.5535 F7200 ; Move
G1 X78.8584 Y97.8319 E0.53448 F1800 ; Fill
G0 X79.5745 Y97.8319 F7200 ; Move
G1 X71.8529 Y105.5535 E0.53448 F1800 ; Fill
G0 X72.569 Y105.5535 F7200 ; Move
G1 X80.2906 Y97.8319 E0.53448 F1800 ; Fill
G0 X81.0067 Y97.8319 F7200 ; Move
G1 X73.2851 Y105.5535 E0.53448 F1800 ; Fill
G0 X74.0012 Y105.5535 F7200 ; Move
G1 X81.7228 Y97.8319 E0.53448 F1800 ; Fill
G0 X82.4389 Y97.8319 F7200 ; Move
G1 X74.7173 Y105.5535 E0.53448 F1800 ; Fill
G0 X75.4334 Y105.5535 F7200 ; Move
G1 X83.1549 Y97.8319 E0.53448 F1800 ; Fill
G0 X83.871 Y97.8319 F7200 ; Move
G1 X76.1494 Y105.5535 E0.53448 F1800 ; Fill
G0 X76.8655 Y105.5535 F7200 ; Move
G1 X84.5871 Y97.8319 E0.53448 F1800 ; Fill
G0 X85.3032 Y97.8319 F7200 ; Move
G1 X77.5816 Y105.5535 E0.53448 F1800 ; Fill
G0 X78.2977 Y105.5535 F7200 ; Move
G1 X86.0193 Y97.8319 E0.53448 F1800 ; Fill
G0 X86.7354 Y97.8319 F7200 ; Move
G1 X79.0138 Y105.5535 E0.53448 F1800 ; Fill
G0 X79.7299 Y105.5535 F7200 ; Move
G1 X87.4515 Y97.8319 E0.53448 F1800 ; Fill
G0 X88.1675 Y97.8319 F7200 ; Move
G1 X80.446 Y105.5535 E0.53448 F1800 ; Fill
G0 X81.162 Y105.5535 F7200 ; Move
G1 X88.8836 Y97.8319 E0.53448 F1800 ; Fill
G0 X89.5997 Y97.8319 F7200 ; Move
G1 X81.8781 Y105.5535 E0.53448 F1800 ; Fill
G0 X82.5942 Y105.5535 F7200 ; Move
G1 X90.3158 Y97.8319 E0.53448 F1800 ; Fill
G0 X91.0319 Y97.8319 F7200 ; Move
G1 X83.3103 Y105.5535 E0.53448 F1800 ; Fill
G0 X84.0264 Y105.5535 F7200 ; Move
G1 X91.748 Y97.8319 E0.53448 F1800 ; Fill
G0 X92.4641 Y97.8319 F7200 ; Move
G1 X84.7425 Y105.5535 E0.53448 F1800 ; Fill
G0 X85.4586 Y105.5535 F7200 ; Move
G1 X93.1801 Y97.8319 E0.53448 F1800 ; Fill
G0 X93.8962 Y97.8319 F7200 ; Move
G1 X86.1746 Y105.5535 E0.53448 F1800 ; Fill
G0 X86.8907 Y105.5535 F7200 ; Move
G1 X94.6123 Y97.8319 E0.53448 F1800 ; Fill
G0 X95.3284 Y97.8319 F7200 ; Move
G1 X87.6068 Y105.5535 E0.53448 F1800 ; Fill
G0 X88.3229 Y105.5535 F7200 ; Move
G1 X96.0445 Y97.8319 E0.53448 F1800 ; Fill
G0 X96.7606 Y97.8319 F7200 ; Move
G1 X89.039 Y105.5535 E0.53448 F1800 ; Fill
G0 X89.7551 Y105.5535 F7200 ; Move
G1 X97.4767 Y97.8319 E0.53448 F1800 ; Fill
G0 X98.1928 Y97.8319 F7200 ; Move
G1 X90.4712 Y105.5535 E0.53448 F1800 ; Fill
G0 X91.1873 Y105.5535 F7200 ; Move
G1 X98.9088 Y97.8319 E0.53448 F1800 ; Fill
G0 X99.6249 Y97.8319 F7200 ; Move
G1 X91.9033 Y105.5535 E0.53448 F1800 ; Fill
G0 X92.6194 Y105.5535 F7200 ; Move
G1 X100.341 Y97.8319 E0.53448 F1800 ; Fill
G0 X101.0571 Y97.8319 F7200 ; Move
G1 X93.3355 Y105.5535 E0.53448 F1800 ; Fill
G0 X94.0516 Y105.5535 F7200 ; Move
G1 X101.7732 Y97.8319 E0.53448 F1800 ; Fill
G0 X102.4893 Y97.8319 F7200 ; Move
G1 X94.7677 Y105.5535 E0.53448 F1800 ; Fill
G0 X95.4838 Y105.5535 F7200 ; Move
G1 X103.2054 Y97.8319 E0.53448 F1800 ; Fill
G0 X103.9214 Y97.8319 F7200 ; Move
G1 X96.1999 Y105.5535 E0.53448 F1800 ; Fill
G0 X96.9159 Y105.5535 F7200 ; Move
G1 X104.6375 Y97.8319 E0.53448 F1800 ; Fill
G0 X105.3536 Y97.8319 F7200 ; Move
G1 X97.632 Y105.5535 E0.53448 F1800 ; Fill
G0 X98.3481 Y105.5535 F7200 ; Move
G1 X106.0697 Y97.8319 E0.53448 F1800 ; Fill
G0 X106.7858 Y97.8319 F7200 ; Move
G1 X99.0642 Y105.5535 E0.53448 F1800 ; Fill
G0 X99.7803 Y105.5535 F7200 ; Move
G1 X107.5019 Y97.8319 E0.53448 F1800 ; Fill
G0 X107.9453 Y98.1046 F7200 ; Move
G1 X100.4964 Y105.5535 E0.51561 F1800 ; Fill
G0 X101.2125 Y105.5535 F7200 ; Move
G1 X107.9453 Y98.8207 E0.46604 F1800 ; Fill
G0 X107.9453 Y99.5367 F7200 ; Move
G1 X101.9285 Y105.5535 E0.41647 F1800 ; Fill
G0 X102.6446 Y105.5535 F7200 ; Move
G1 X107.9453 Y100.2528 E0.36691 F1800 ; Fill
G0 X107.9453 Y100.9689 F7200 ; Move
G1 X103.3607 Y105.5535 E0.31734 F1800 ; Fill
G0 X104.0768 Y105.5535 F7200 ; Move
G1 X107.9453 Y101.685 E0.26777 F1800 ; Fill
G0 X107.9453 Y102.4011 F7200 ; Move
G1 X104.7929 Y105.5535 E0.21821 F1800 ; Fill
G0 X105.509 Y105.5535 F7200 ; Move
G1 X107.9453 Y103.1172 E0.16864 F1800 ; Fill
G0 X107.9453 Y103.8333 F7200 ; Move
G1 X106.2251 Y105.5535 E0.11907 F1800 ; Fill
G0 X106.9412 Y105.5535 F7200 ; Move
G1 X107.9453 Y104.5493 E0.06951 F1800 ; Fill
G0 X107.9453 Y105.2654 F7200 ; Move
G1 X107.6572 Y105.5535 E0.01994 F1800 ; Fill
G0 Z0.25 F7200 ; Move to layer height
G1 E-0.4 F2100 ; Retract
G1 Z0.65 F7200 ; Z hop
G0 X34.3038 Y54.8992 F7200 ; Move to pattern start

G1 Z0.25 F7200 ; Z hop return
G1 E0.4 F2100 ; Un-retract
G1 X53.6247 Y74.22 E1.04155 F1800 ; Print pattern wall
G1 X34.3038 Y93.5408 E1.04155 F1800 ; Print pattern wall
G1 E-0.4 F2100 ; Retract
G1 Z0.65 F7200 ; Z hop
G0 X34.8767 Y54.8992 F7200 ; Move to start next pattern wall
G1 Z0.25 F7200 ; Z hop return
G1 E0.4 F2100 ; Un-retract
G1 X54.1975 Y74.22 E1.04155 F1800 ; Print pattern wall
G1 X34.8767 Y93.5408 E1.04155 F1800 ; Print pattern wall
G1 E-0.4 F2100 ; Retract
G1 Z0.65 F7200 ; Z hop
G0 X35.4496 Y54.8992 F7200 ; Move to start next pattern wall
G1 Z0.25 F7200 ; Z hop return
G1 E0.4 F2100 ; Un-retract
G1 X54.7704 Y74.22 E1.04155 F1800 ; Print pattern wall
G1 X35.4496 Y93.5408 E1.04155 F1800 ; Print pattern wall
G1 E-0.4 F2100 ; Retract
G1 Z0.65 F7200 ; Z hop
G0 X38.8976 Y54.8992 F7200 ; Move to next pattern
G1 Z0.25 F7200 ; Z hop return
G1 E0.4 F2100 ; Un-retract
G1 X58.2184 Y74.22 E1.04155 F1800 ; Print pattern wall
G1 X38.8976 Y93.5408 E1.04155 F1800 ; Print pattern wall
G1 E-0.4 F2100 ; Retract
G1 Z0.65 F7200 ; Z hop
G0 X39.4705 Y54.8992 F7200 ; Move to start next pattern wall
G1 Z0.25 F7200 ; Z hop return
G1 E0.4 F2100 ; Un-retract
G1 X58.7913 Y74.22 E1.04155 F1800 ; Print pattern wall
G1 X39.4705 Y93.5408 E1.04155 F1800 ; Print pattern wall
G1 E-0.4 F2100 ; Retract
G1 Z0.65 F7200 ; Z hop
G0 X40.0433 Y54.8992 F7200 ; Move to start next pattern wall
G1 Z0.25 F7200 ; Z hop return
G1 E0.4 F2100 ; Un-retract
G1 X59.3641 Y74.22 E1.04155 F1800 ; Print pattern wall
G1 X40.0433 Y93.5408 E1.04155 F1800 ; Print pattern wall
G1 E-0.4 F2100 ; Retract
G1 Z0.65 F7200 ; Z hop
G0 X43.4913 Y54.8992 F7200 ; Move to next pattern
G1 Z0.25 F7200 ; Z hop return
G1 E0.4 F2100 ; Un-retract
G1 X62.8121 Y74.22 E1.04155 F1800 ; Print pattern wall
G1 X43.4913 Y93.5408 E1.04155 F1800 ; Print pattern wall
G1 E-0.4 F2100 ; Retract
G1 Z0.65 F7200 ; Z hop
G0 X44.0642 Y54.8992 F7200 ; Move to start next pattern wall
G1 Z0.25 F7200 ; Z hop return
G1 E0.4 F2100 ; Un-retract
G1 X63.385 Y74.22 E1.04155 F1800 ; Print pattern wall
G1 X44.0642 Y93.5408 E1.04155 F1800 ; Print pattern wall
G1 E-0.4 F2100 ; Retract
G1 Z0.65 F7200 ; Z hop
G0 X44.6371 Y54.8992 F7200 ; Move to start next pattern wall
G1 Z0.25 F7200 ; Z hop return
G1 E0.4 F2100 ; Un-retract
G1 X63.9579 Y74.22 E1.04155 F1800 ; Print pattern wall
G1 X44.6371 Y93.5408 E1.04155 F1800 ; Print pattern wall
G1 E-0.4 F2100 ; Retract
G1 Z0.65 F7200 ; Z hop
G0 X48.0851 Y54.8992 F7200 ; Move to next pattern
G1 Z0.25 F7200 ; Z hop return
G1 E0.4 F2100 ; Un-retract
G1 X67.4059 Y74.22 E1.04155 F1800 ; Print pattern wall
G1 X48.0851 Y93.5408 E1.04155 F1800 ; Print pattern wall
G1 E-0.4 F2100 ; Retract
G1 Z0.65 F7200 ; Z hop
G0 X48.6579 Y54.8992 F7200 ; Move to start next pattern wall
G1 Z0.25 F7200 ; Z hop return
G1 E0.4 F2100 ; Un-retract
G1 X67.9788 Y74.22 E1.04155 F1800 ; Print pattern wall
G1 X48.6579 Y93.5408 E1.04155 F1800 ; Print pattern wall
G1 E-0.4 F2100 ; Retract
G1 Z0.65 F7200 ; Z hop
G0 X49.2308 Y54.8992 F7200 ; Move to start next pattern wall
G1 Z0.25 F7200 ; Z hop return
G1 E0.4 F2100 ; Un-retract
G1 X68.5516 Y74.22 E1.04155 F1800 ; Print pattern wall
G1 X49.2308 Y93.5408 E1.04155 F1800 ; Print pattern wall
G1 E-0.4 F2100 ; Retract
G1 Z0.65 F7200 ; Z hop
G0 X52.6788 Y54.8992 F7200 ; Move to next pattern
G1 Z0.25 F7200 ; Z hop return
G1 E0.4 F2100 ; Un-retract
G1 X71.9996 Y74.22 E1.04155 F1800 ; Print pattern wall
G1 X52.6788 Y93.5408 E1.04155 F1800 ; Print pattern wall
G1 E-0.4 F2100 ; Retract
G1 Z0.65 F7200 ; Z hop
G0 X53.2517 Y54.8992 F7200 ; Move to start next pattern wall
G1 Z0.25 F7200 ; Z hop return
G1 E0.4 F2100 ; Un-retract
G1 X72.5725 Y74.22 E1.04155 F1800 ; Print pattern wall
G1 X53.2517 Y93.5408 E1.04155 F1800 ; Print pattern wall
G1 E-0.4 F2100 ; Retract
G1 Z0.65 F7200 ; Z hop
G0 X53.8245 Y54.8992 F7200 ; Move to start next pattern wall
G1 Z0.25 F7200 ; Z hop return
G1 E0.4 F2100 ; Un-retract
G1 X73.1454 Y74.22 E1.04155 F1800 ; Print pattern wall
G1 X53.8245 Y93.5408 E1.04155 F1800 ; Print pattern wall
G1 E-0.4 F2100 ; Retract
G1 Z0.65 F7200 ; Z hop
G0 X57.2725 Y54.8992 F7200 ; Move to next pattern
G1 Z0.25 F7200 ; Z hop return
G1 E0.4 F2100 ; Un-retract
G1 X76.5934 Y74.22 E1.04155 F1800 ; Print pattern wall
G1 X57.2725 Y93.5408 E1.04155 F1800 ; Print pattern wall
G1 E-0.4 F2100 ; Retract
G1 Z0.65 F7200 ; Z hop
G0 X57.8454 Y54.8992 F7200 ; Move to start next pattern wall
G1 Z0.25 F7200 ; Z hop return
G1 E0.4 F2100 ; Un-retract
G1 X77.1662 Y74.22 E1.04155 F1800 ; Print pattern wall
G1 X57.8454 Y93.5408 E1.04155 F1800 ; Print pattern wall
G1 E-0.4 F2100 ; Retract
G1 Z0.65 F7200 ; Z hop
G0 X58.4183 Y54.8992 F7200 ; Move to start next pattern wall
G1 Z0.25 F7200 ; Z hop return
G1 E0.4 F2100 ; Un-retract
G1 X77.7391 Y74.22 E1.04155 F1800 ; Print pattern wall
G1 X58.4183 Y93.5408 E1.04155 F1800 ; Print pattern wall
G1 E-0.4 F2100 ; Retract
G1 Z0.65 F7200 ; Z hop
G0 X61.8663 Y54.8992 F7200 ; Move to next pattern
G1 Z0.25 F7200 ; Z hop return
G1 E0.4 F2100 ; Un-retract
G1 X81.1871 Y74.22 E1.04155 F1800 ; Print pattern wall
G1 X61.8663 Y93.5408 E1.04155 F1800 ; Print pattern wall
G1 E-0.4 F2100 ; Retract
G1 Z0.65 F7200 ; Z hop
G0 X62.4391 Y54.8992 F7200 ; Move to start next pattern wall
G1 Z0.25 F7200 ; Z hop return
G1 E0.4 F2100 ; Un-retract
G1 X81.76 Y74.22 E1.04155 F1800 ; Print pattern wall
G1 X62.4391 Y93.5408 E1.04155 F1800 ; Print pattern wall
G1 E-0.4 F2100 ; Retract
G1 Z0.65 F7200 ; Z hop
G0 X63.012 Y54.8992 F7200 ; Move to start next pattern wall
G1 Z0.25 F7200 ; Z hop return
G1 E0.4 F2100 ; Un-retract
G1 X82.3328 Y74.22 E1.04155 F1800 ; Print pattern wall
G1 X63.012 Y93.5408 E1.04155 F1800 ; Print pattern wall
G1 E-0.4 F2100 ; Retract
G1 Z0.65 F7200 ; Z hop
G0 X66.46 Y54.8992 F7200 ; Move to next pattern
G1 Z0.25 F7200 ; Z hop return
G1 E0.4 F2100 ; Un-retract
G1 X85.7808 Y74.22 E1.04155 F1800 ; Print pattern wall
G1 X66.46 Y93.5408 E1.04155 F1800 ; Print pattern wall
G1 E-0.4 F2100 ; Retract
G1 Z0.65 F7200 ; Z hop
G0 X67.0329 Y54.8992 F7200 ; Move to start next pattern wall
G1 Z0.25 F7200 ; Z hop return
G1 E0.4 F2100 ; Un-retract
G1 X86.3537 Y74.22 E1.04155 F1800 ; Print pattern wall
G1 X67.0329 Y93.5408 E1.04155 F1800 ; Print pattern wall
G1 E-0.4 F2100 ; Retract
G1 Z0.65 F7200 ; Z hop
G0 X67.6058 Y54.8992 F7200 ; Move to start next pattern wall
G1 Z0.25 F7200 ; Z hop return
G1 E0.4 F2100 ; Un-retract
G1 X86.9266 Y74.22 E1.04155 F1800 ; Print pattern wall
G1 X67.6058 Y93.5408 E1.04155 F1800 ; Print pattern wall
G1 E-0.4 F2100 ; Retract
G1 Z0.65 F7200 ; Z hop
G0 X71.0538 Y54.8992 F7200 ; Move to next pattern
G1 Z0.25 F7200 ; Z hop return
G1 E0.4 F2100 ; Un-retract
G1 X90.3746 Y74.22 E1.04155 F1800 ; Print pattern wall
G1 X71.0538 Y93.5408 E1.04155 F1800 ; Print pattern wall
G1 E-0.4 F2100 ; Retract
G1 Z0.65 F7200 ; Z hop
G0 X71.6266 Y54.8992 F7200 ; Move to start next pattern wall
G1 Z0.25 F7200 ; Z hop return
G1 E0.4 F2100 ; Un-retract
G1 X90.9474 Y74.22 E1.04155 F1800 ; Print pattern wall
G1 X71.6266 Y93.5408 E1.04155 F1800 ; Print pattern wall
G1 E-0.4 F2100 ; Retract
G1 Z0.65 F7200 ; Z hop
G0 X72.1995 Y54.8992 F7200 ; Move to start next pattern wall
G1 Z0.25 F7200 ; Z hop return
G1 E0.4 F2100 ; Un-retract
G1 X91.5203 Y74.22 E1.04155 F1800 ; Print pattern wall
G1 X72.1995 Y93.5408 E1.04155 F1800 ; Print pattern wall
G1 E-0.4 F2100 ; Retract
G1 Z0.65 F7200 ; Z hop
G0 X75.6475 Y54.8992 F7200 ; Move to next pattern
G1 Z0.25 F7200 ; Z hop return
G1 E0.4 F2100 ; Un-retract
G1 X94.9683 Y74.22 E1.04155 F1800 ; Print pattern wall
G1 X75.6475 Y93.5408 E1.04155 F1800 ; Print pattern wall
G1 E-0.4 F2100 ; Retract
G1 Z0.65 F7200 ; Z hop
G0 X76.2204 Y54.8992 F7200 ; Move to start next pattern wall
G1 Z0.25 F7200 ; Z hop return
G1 E0.4 F2100 ; Un-retract
G1 X95.5412 Y74.22 E1.04155 F1800 ; Print pattern wall
G1 X76.2204 Y93.5408 E1.04155 F1800 ; Print pattern wall
G1 E-0.4 F2100 ; Retract
G1 Z0.65 F7200 ; Z hop
G0 X76.7932 Y54.8992 F7200 ; Move to start next pattern wall
G1 Z0.25 F7200 ; Z hop return
G1 E0.4 F2100 ; Un-retract
G1 X96.1141 Y74.22 E1.04155 F1800 ; Print pattern wall
G1 X76.7932 Y93.5408 E1.04155 F1800 ; Print pattern wall
G1 E-0.4 F2100 ; Retract
G1 Z0.65 F7200 ; Z hop
G0 X80.2412 Y54.8992 F7200 ; Move to next pattern
G1 Z0.25 F7200 ; Z hop return
G1 E0.4 F2100 ; Un-retract
G1 X99.5621 Y74.22 E1.04155 F1800 ; Print pattern wall
G1 X80.2412 Y93.5408 E1.04155 F1800 ; Print pattern wall
G1 E-0.4 F2100 ; Retract
G1 Z0.65 F7200 ; Z hop
G0 X80.8141 Y54.8992 F7200 ; Move to start next pattern wall
G1 Z0.25 F7200 ; Z hop return
G1 E0.4 F2100 ; Un-retract
G1 X100.1349 Y74.22 E1.04155 F1800 ; Print pattern wall
G1 X80.8141 Y93.5408 E1.04155 F1800 ; Print pattern wall
G1 E-0.4 F2100 ; Retract
G1 Z0.65 F7200 ; Z hop
G0 X81.387 Y54.8992 F7200 ; Move to start next pattern wall
G1 Z0.25 F7200 ; Z hop return
G1 E0.4 F2100 ; Un-retract
G1 X100.7078 Y74.22 E1.04155 F1800 ; Print pattern wall
G1 X81.387 Y93.5408 E1.04155 F1800 ; Print pattern wall
G1 E-0.4 F2100 ; Retract
G1 Z0.65 F7200 ; Z hop
G0 X84.835 Y54.8992 F7200 ; Move to next pattern
G1 Z0.25 F7200 ; Z hop return
G1 E0.4 F2100 ; Un-retract
G1 X104.1558 Y74.22 E1.04155 F1800 ; Print pattern wall
G1 X84.835 Y93.5408 E1.04155 F1800 ; Print pattern wall
G1 E-0.4 F2100 ; Retract
G1 Z0.65 F7200 ; Z hop
G0 X85.4078 Y54.8992 F7200 ; Move to start next pattern wall
G1 Z0.25 F7200 ; Z hop return
G1 E0.4 F2100 ; Un-retract
G1 X104.7287 Y74.22 E1.04155 F1800 ; Print pattern wall
G1 X85.4078 Y93.5408 E1.04155 F1800 ; Print pattern wall
G1 E-0.4 F2100 ; Retract
G1 Z0.65 F7200 ; Z hop
G0 X85.9807 Y54.8992 F7200 ; Move to start next pattern wall
G1 Z0.25 F7200 ; Z hop return
G1 E0.4 F2100 ; Un-retract
G1 X105.3015 Y74.22 E1.04155 F1800 ; Print pattern wall
G1 X85.9807 Y93.5408 E1.04155 F1800 ; Print pattern wall
G1 E-0.4 F2100 ; Retract
G1 Z0.65 F7200 ; Z hop
G0 X89.4287 Y54.8992 F7200 ; Move to next pattern
G1 Z0.25 F7200 ; Z hop return
G1 E0.4 F2100 ; Un-retract
G1 X108.7495 Y74.22 E1.04155 F1800 ; Print pattern wall
G1 X89.4287 Y93.5408 E1.04155 F1800 ; Print pattern wall
G1 E-0.4 F2100 ; Retract
G1 Z0.65 F7200 ; Z hop
G0 X90.0016 Y54.8992 F7200 ; Move to start next pattern wall
G1 Z0.25 F7200 ; Z hop return
G1 E0.4 F2100 ; Un-retract
G1 X109.3224 Y74.22 E1.04155 F1800 ; Print pattern wall
G1 X90.0016 Y93.5408 E1.04155 F1800 ; Print pattern wall
G1 E-0.4 F2100 ; Retract
G1 Z0.65 F7200 ; Z hop
G0 X90.5744 Y54.8992 F7200 ; Move to start next pattern wall
G1 Z0.25 F7200 ; Z hop return
G1 E0.4 F2100 ; Un-retract
G1 X109.8953 Y74.22 E1.04155 F1800 ; Print pattern wall
G1 X90.5744 Y93.5408 E1.04155 F1800 ; Print pattern wall
G1 E-0.4 F2100 ; Retract
G1 Z0.65 F7200 ; Z hop
G0 X94.0224 Y54.8992 F7200 ; Move to next pattern
G1 Z0.25 F7200 ; Z hop return
G1 E0.4 F2100 ; Un-retract
G1 X113.3433 Y74.22 E1.04155 F1800 ; Print pattern wall
G1 X94.0224 Y93.5408 E1.04155 F1800 ; Print pattern wall
G1 E-0.4 F2100 ; Retract
G1 Z0.65 F7200 ; Z hop
G0 X94.5953 Y54.8992 F7200 ; Move to start next pattern wall
G1 Z0.25 F7200 ; Z hop return
G1 E0.4 F2100 ; Un-retract
G1 X113.9161 Y74.22 E1.04155 F1800 ; Print pattern wall
G1 X94.5953 Y93.5408 E1.04155 F1800 ; Print pattern wall
G1 E-0.4 F2100 ; Retract
G1 Z0.65 F7200 ; Z hop
G0 X95.1682 Y54.8992 F7200 ; Move to start next pattern wall
G1 Z0.25 F7200 ; Z hop return
G1 E0.4 F2100 ; Un-retract
G1 X114.489 Y74.22 E1.04155 F1800 ; Print pattern wall
G1 X95.1682 Y93.5408 E1.04155 F1800 ; Print pattern wall
G1 E-0.4 F2100 ; Retract
G1 Z0.65 F7200 ; Z hop
G0 X98.6162 Y54.8992 F7200 ; Move to next pattern
G1 Z0.25 F7200 ; Z hop return
G1 E0.4 F2100 ; Un-retract
G1 X117.937 Y74.22 E1.04155 F1800 ; Print pattern wall
G1 X98.6162 Y93.5408 E1.04155 F1800 ; Print pattern wall
G1 E-0.4 F2100 ; Retract
G1 Z0.65 F7200 ; Z hop
G0 X99.1891 Y54.8992 F7200 ; Move to start next pattern wall
G1 Z0.25 F7200 ; Z hop return
G1 E0.4 F2100 ; Un-retract
G1 X118.5099 Y74.22 E1.04155 F1800 ; Print pattern wall
G1 X99.1891 Y93.5408 E1.04155 F1800 ; Print pattern wall
G1 E-0.4 F2100 ; Retract
G1 Z0.65 F7200 ; Z hop
G0 X99.7619 Y54.8992 F7200 ; Move to start next pattern wall
G1 Z0.25 F7200 ; Z hop return
G1 E0.4 F2100 ; Un-retract
G1 X119.0827 Y74.22 E1.04155 F1800 ; Print pattern wall
G1 X99.7619 Y93.5408 E1.04155 F1800 ; Print pattern wall
G1 E-0.4 F2100 ; Retract
G1 Z0.65 F7200 ; Z hop
G0 X103.2099 Y54.8992 F7200 ; Move to next pattern
G1 Z0.25 F7200 ; Z hop return
G1 E0.4 F2100 ; Un-retract
G1 X122.5307 Y74.22 E1.04155 F1800 ; Print pattern wall
G1 X103.2099 Y93.5408 E1.04155 F1800 ; Print pattern wall
G1 E-0.4 F2100 ; Retract
G1 Z0.65 F7200 ; Z hop
G0 X103.7828 Y54.8992 F7200 ; Move to start next pattern wall
G1 Z0.25 F7200 ; Z hop return
G1 E0.4 F2100 ; Un-retract
G1 X123.1036 Y74.22 E1.04155 F1800 ; Print pattern wall
G1 X103.7828 Y93.5408 E1.04155 F1800 ; Print pattern wall
G1 E-0.4 F2100 ; Retract
G1 Z0.65 F7200 ; Z hop
G0 X104.3557 Y54.8992 F7200 ; Move to start next pattern wall
G1 Z0.25 F7200 ; Z hop return
G1 E0.4 F2100 ; Un-retract
G1 X123.6765 Y74.22 E1.04155 F1800 ; Print pattern wall
G1 X104.3557 Y93.5408 E1.04155 F1800 ; Print pattern wall
G1 E-0.4 F2100 ; Retract
G1 Z0.65 F7200 ; Z hop
G0 X107.8037 Y54.8992 F7200 ; Move to next pattern
G1 Z0.25 F7200 ; Z hop return
G1 E0.4 F2100 ; Un-retract
G1 X127.1245 Y74.22 E1.04155 F1800 ; Print pattern wall
G1 X107.8037 Y93.5408 E1.04155 F1800 ; Print pattern wall
G1 E-0.4 F2100 ; Retract
G1 Z0.65 F7200 ; Z hop
G0 X108.3765 Y54.8992 F7200 ; Move to start next pattern wall
G1 Z0.25 F7200 ; Z hop return
G1 E0.4 F2100 ; Un-retract
G1 X127.6974 Y74.22 E1.04155 F1800 ; Print pattern wall
G1 X108.3765 Y93.5408 E1.04155 F1800 ; Print pattern wall
G1 E-0.4 F2100 ; Retract
G1 Z0.65 F7200 ; Z hop
G0 X108.9494 Y54.8992 F7200 ; Move to start next pattern wall
G1 Z0.25 F7200 ; Z hop return
G1 E0.4 F2100 ; Un-retract
G1 X128.2702 Y74.22 E1.04155 F1800 ; Print pattern wall
G1 X108.9494 Y93.5408 E1.04155 F1800 ; Print pattern wall
G1 E-0.4 F2100 ; Retract
G1 Z0.65 F7200 ; Z hop
G0 X34.3038 Y54.8992 F7200 ; Move back to start position
G1 Z0.25 F7200 ; Z hop return
G1 E0.4 F2100 ; Un-retract
M106 S255 ; Set fan speed
G0 Z0.45 F7200 ; Move to layer height
G1 E-0.4 F2100 ; Retract
G1 Z0.85 F7200 ; Z hop
G0 X30.9843 Y96.8812 F7200 ; Move
G1 Z0.45 F7200 ; Z hop return
G1 E0.4 F2100 ; Un-retract
G1 X32.9843 Y96.8812 E0.06265 F1800 ; Glyph: 0
G1 X34.9843 Y96.8812 E0.06265 F1800 ; Glyph: 0
G1 X34.9843 Y98.8812 E0.06265 F1800 ; Glyph: 0
G1 X32.9843 Y98.8812 E0.06265 F1800 ; Glyph: 0
G1 X30.9843 Y98.8812 E0.06265 F1800 ; Glyph: 0
G1 X30.9843 Y96.8812 E0.06265 F1800 ; Glyph: 0
G1 E-0.4 F2100 ; Retract
G1 Z0.85 F7200 ; Z hop
G0 X40.1718 Y96.8812 F7200 ; Move
G1 Z0.45 F7200 ; Z hop return
G1 E0.4 F2100 ; Un-retract
G1 X42.1718 Y96.8812 E0.06265 F1800 ; Glyph: 0
G1 X44.1718 Y96.8812 E0.06265 F1800 ; Glyph: 0
G1 X44.1718 Y98.8812 E0.06265 F1800 ; Glyph: 0
G1 X42.1718 Y98.8812 E0.06265 F1800 ; Glyph: 0
G1 X40.1718 Y98.8812 E0.06265 F1800 ; Glyph: 0
G1 X40.1718 Y96.8812 E0.06265 F1800 ; Glyph: 0
G1 E-0.4 F2100 ; Retract
G1 Z0.85 F7200 ; Z hop
G0 X44.1718 Y99.8812 F7200 ; Move
G1 Z0.45 F7200 ; Z hop return
G1 E0.4 F2100 ; Un-retract
G1 X43.4218 Y99.8812 E0.02349 F1800 ; Glyph: .
G1 E-0.4 F2100 ; Retract
G1 Z0.85 F7200 ; Z hop
G0 X40.1718 Y100.8812 F7200 ; Move
G1 Z0.45 F7200 ; Z hop return
G1 E0.4 F2100 ; Un-retract
G1 X42.1718 Y100.8812 E0.06265 F1800 ; Glyph: 0
G1 X44.1718 Y100.8812 E0.06265 F1800 ; Glyph: 0
G1 X44.1718 Y102.8812 E0.06265 F1800 ; Glyph: 0
G1 X42.1718 Y102.8812 E0.06265 F1800 ; Glyph: 0
G1 X40.1718 Y102.8812 E0.06265 F1800 ; Glyph: 0
G1 X40.1718 Y100.8812 E0.06265 F1800 ; Glyph: 0
G1 E-0.4 F2100 ; Retract
G1 Z0.85 F7200 ; Z hop
G0 X40.1718 Y103.8812 F7200 ; Move
G1 Z0.45 F7200 ; Z hop return
G1 E0.4 F2100 ; Un-retract
G1 X42.1718 Y103.8812 E0.06265 F1800 ; Glyph: 1
G1 X44.1718 Y103.8812 E0.06265 F1800 ; Glyph: 1
G1 E-0.4 F2100 ; Retract
G1 Z0.85 F7200 ; Z hop
G0 X49.3593 Y96.8812 F7200 ; Move
G1 Z0.45 F7200 ; Z hop return
G1 E0.4 F2100 ; Un-retract
G1 X51.3593 Y96.8812 E0.06265 F1800 ; Glyph: 0
G1 X53.3593 Y96.8812 E0.06265 F1800 ; Glyph: 0
G1 X53.3593 Y98.8812 E0.06265 F1800 ; Glyph: 0
G1 X51.3593 Y98.8812 E0.06265 F1800 ; Glyph: 0
G1 X49.3593 Y98.8812 E0.06265 F1800 ; Glyph: 0
G1 X49.3593 Y96.8812 E0.06265 F1800 ; Glyph: 0
G1 E-0.4 F2100 ; Retract
G1 Z0.85 F7200 ; Z hop
G0 X53.3593 Y99.8812 F7200 ; Move
G1 Z0.45 F7200 ; Z hop return
G1 E0.4 F2100 ; Un-retract
G1 X52.6093 Y99.8812 E0.02349 F1800 ; Glyph: .
G1 E-0.4 F2100 ; Retract
G1 Z0.85 F7200 ; Z hop
G0 X49.3593 Y100.8812 F7200 ; Move
G1 Z0.45 F7200 ; Z hop return
G1 E0.4 F2100 ; Un-retract
G1 X51.3593 Y100.8812 E0.06265 F1800 ; Glyph: 0
G1 X53.3593 Y100.8812 E0.06265 F1800 ; Glyph: 0
G1 X53.3593 Y102.8812 E0.06265 F1800 ; Glyph: 0
G1 X51.3593 Y102.8812 E0.06265 F1800 ; Glyph: 0
G1 X49.3593 Y102.8812 E0.06265 F1800 ; Glyph: 0
G1 X49.3593 Y100.8812 E0.06265 F1800 ; Glyph: 0
G1 E-0.4 F2100 ; Retract
G1 Z0.85 F7200 ; Z hop
G0 X49.3593 Y103.8812 F7200 ; Move
G1 Z0.45 F7200 ; Z hop return
G1 E0.4 F2100 ; Un-retract
G1 X49.3593 Y105.8812 E0.06265 F1800 ; Glyph: 2
G1 X51.3593 Y105.8812 E0.06265 F1800 ; Glyph: 2
G1 X51.3593 Y103.8812 E0.06265 F1800 ; Glyph: 2
G1 X53.3593 Y103.8812 E0.06265 F1800 ; Glyph: 2
G1 X53.3593 Y105.8812 E0.06265 F1800 ; Glyph: 2
G1 E-0.4 F2100 ; Retract
G1 Z0.85 F7200 ; Z hop
G0 X58.5468 Y96.8812 F7200 ; Move
G1 Z0.45 F7200 ; Z hop return
G1 E0.4 F2100 ; Un-retract
G1 X60.5468 Y96.8812 E0.06265 F1800 ; Glyph: 0
G1 X62.5468 Y96.8812 E0.06265 F1800 ; Glyph: 0
G1 X62.5468 Y98.8812 E0.06265 F1800 ; Glyph: 0
G1 X60.5468 Y98.8812 E0.06265 F1800 ; Glyph: 0
G1 X58.5468 Y98.8812 E0.06265 F1800 ; Glyph: 0
G1 X58.5468 Y96.8812 E0.06265 F1800 ; Glyph: 0
G1 E-0.4 F2100 ; Retract
G1 Z0.85 F7200 ; Z hop
G0 X62.5468 Y99.8812 F7200 ; Move
G1 Z0.45 F7200 ; Z hop return
G1 E0.4 F2100 ; Un-retract
G1 X61.7968 Y99.8812 E0.02349 F1800 ; Glyph: .
G1 E-0.4 F2100 ; Retract
G1 Z0.85 F7200 ; Z hop
G0 X58.5468 Y100.8812 F7200 ; Move
G1 Z0.45 F7200 ; Z hop return
G1 E0.4 F2100 ; Un-retract
G1 X60.5468 Y100.8812 E0.06265 F1800 ; Glyph: 0
G1 X62.5468 Y100.8812 E0.06265 F1800 ; Glyph: 0
G1 X62.5468 Y102.8812 E0.06265 F1800 ; Glyph: 0
G1 X60.5468 Y102.8812 E0.06265 F1800 ; Glyph: 0
G1 X58.5468 Y102.8812 E0.06265 F1800 ; Glyph: 0
G1 X58.5468 Y100.8812 E0.06265 F1800 ; Glyph: 0
G1 E-0.4 F2100 ; Retract
G1 Z0.85 F7200 ; Z hop
G0 X58.5468 Y103.8812 F7200 ; Move
G1 Z0.45 F7200 ; Z hop return
G1 E0.4 F2100 ; Un-retract
G1 X58.5468 Y105.8812 E0.06265 F1800 ; Glyph: 3
G1 X60.5468 Y105.8812 E0.06265 F1800 ; Glyph: 3
G1 X60.5468 Y103.8812 E0.06265 F1800 ; Glyph: 3
G0 X60.5468 Y105.8812 F7200 ; Move
G1 X62.5468 Y105.8812 E0.06265 F1800 ; Glyph: 3
G1 X62.5468 Y103.8812 E0.06265 F1800 ; Glyph: 3
G1 E-0.4 F2100 ; Retract
G1 Z0.85 F7200 ; Z hop
G0 X67.7342 Y96.8812 F7200 ; Move
G1 Z0.45 F7200 ; Z hop return
G1 E0.4 F2100 ; Un-retract
G1 X69.7342 Y96.8812 E0.06265 F1800 ; Glyph: 0
G1 X71.7342 Y96.8812 E0.06265 F1800 ; Glyph: 0
G1 X71.7342 Y98.8812 E0.06265 F1800 ; Glyph: 0
G1 X69.7342 Y98.8812 E0.06265 F1800 ; Glyph: 0
G1 X67.7342 Y98.8812 E0.06265 F1800 ; Glyph: 0
G1 X67.7342 Y96.8812 E0.06265 F1800 ; Glyph: 0
G1 E-0.4 F2100 ; Retract
G1 Z0.85 F7200 ; Z hop
G0 X71.7342 Y99.8812 F7200 ; Move
G1 Z0.45 F7200 ; Z hop return
G1 E0.4 F2100 ; Un-retract
G1 X70.9842 Y99.8812 E0.02349 F1800 ; Glyph: .
G1 E-0.4 F2100 ; Retract
G1 Z0.85 F7200 ; Z hop
G0 X67.7342 Y100.8812 F7200 ; Move
G1 Z0.45 F7200 ; Z hop return
G1 E0.4 F2100 ; Un-retract
G1 X69.7342 Y100.8812 E0.06265 F1800 ; Glyph: 0
G1 X71.7342 Y100.8812 E0.06265 F1800 ; Glyph: 0
G1 X71.7342 Y102.8812 E0.06265 F1800 ; Glyph: 0
G1 X69.7342 Y102.8812 E0.06265 F1800 ; Glyph: 0
G1 X67.7342 Y102.8812 E0.06265 F1800 ; Glyph: 0
G1 X67.7342 Y100.8812 E0.06265 F1800 ; Glyph: 0
G1 E-0.4 F2100 ; Retract
G1 Z0.85 F7200 ; Z hop
G0 X67.7342 Y105.8812 F7200 ; Move
G1 Z0.45 F7200 ; Z hop return
G1 E0.4 F2100 ; Un-retract
G1 X69.7342 Y105.8812 E0.06265 F1800 ; Glyph: 4
G1 X71.7342 Y105.8812 E0.06265 F1800 ; Glyph: 4
G0 X69.7342 Y105.8812 F7200 ; Move
G1 X69.7342 Y103.8812 E0.06265 F1800 ; Glyph: 4
G1 X67.7342 Y103.8812 E0.06265 F1800 ; Glyph: 4
G1 E-0.4 F2100 ; Retract
G1 Z0.85 F7200 ; Z hop
G0 X76.9217 Y96.8812 F7200 ; Move
G1 Z0.45 F7200 ; Z hop return
G1 E0.4 F2100 ; Un-retract
G1 X78.9217 Y96.8812 E0.06265 F1800 ; Glyph: 0
G1 X80.9217 Y96.8812 E0.06265 F1800 ; Glyph: 0
G1 X80.9217 Y98.8812 E0.06265 F1800 ; Glyph: 0
G1 X78.9217 Y98.8812 E0.06265 F1800 ; Glyph: 0
G1 X76.9217 Y98.8812 E0.06265 F1800 ; Glyph: 0
G1 X76.9217 Y96.8812 E0.06265 F1800 ; Glyph: 0
G1 E-0.4 F2100 ; Retract
G1 Z0.85 F7200 ; Z hop
G0 X80.9217 Y99.8812 F7200 ; Move
G1 Z0.45 F7200 ; Z hop return
G1 E0.4 F2100 ; Un-retract
G1 X80.1717 Y99.8812 E0.02349 F1800 ; Glyph: .
G1 E-0.4 F2100 ; Retract
G1 Z0.85 F7200 ; Z hop
G0 X76.9217 Y100.8812 F7200 ; Move
G1 Z0.45 F7200 ; Z hop return
G1 E0.4 F2100 ; Un-retract
G1 X78.9217 Y100.8812 E0.06265 F1800 ; Glyph: 0
G1 X80.9217 Y100.8812 E0.06265 F1800 ; Glyph: 0
G1 X80.9217 Y102.8812 E0.06265 F1800 ; Glyph: 0
G1 X78.9217 Y102.8812 E0.06265 F1800 ; Glyph: 0
G1 X76.9217 Y102.8812 E0.06265 F1800 ; Glyph: 0
G1 X76.9217 Y100.8812 E0.06265 F1800 ; Glyph: 0
G1 E-0.4 F2100 ; Retract
G1 Z0.85 F7200 ; Z hop
G0 X76.9217 Y105.8812 F7200 ; Move
G1 Z0.45 F7200 ; Z hop return
G1 E0.4 F2100 ; Un-retract
G1 X76.9217 Y103.8812 E0.06265 F1800 ; Glyph: 5
G1 X78.9217 Y103.8812 E0.06265 F1800 ; Glyph: 5
G1 X78.9217 Y105.8812 E0.06265 F1800 ; Glyph: 5
G1 X80.9217 Y105.8812 E0.06265 F1800 ; Glyph: 5
G1 X80.9217 Y103.8812 E0.06265 F1800 ; Glyph: 5
G1 E-0.4 F2100 ; Retract
G1 Z0.85 F7200 ; Z hop
G0 X86.1092 Y96.8812 F7200 ; Move
G1 Z0.45 F7200 ; Z hop return
G1 E0.4 F2100 ; Un-retract
G1 X88.1092 Y96.8812 E0.06265 F1800 ; Glyph: 0
G1 X90.1092 Y96.8812 E0.06265 F1800 ; Glyph: 0
G1 X90.1092 Y98.8812 E0.06265 F1800 ; Glyph: 0
G1 X88.1092 Y98.8812 E0.06265 F1800 ; Glyph: 0
G1 X86.1092 Y98.8812 E0.06265 F1800 ; Glyph: 0
G1 X86.1092 Y96.8812 E0.06265 F1800 ; Glyph: 0
G1 E-0.4 F2100 ; Retract
G1 Z0.85 F7200 ; Z hop
G0 X90.1092 Y99.8812 F7200 ; Move
G1 Z0.45 F7200 ; Z hop return
G1 E0.4 F2100 ; Un-retract
G1 X89.3592 Y99.8812 E0.02349 F1800 ; Glyph: .
G1 E-0.4 F2100 ; Retract
G1 Z0.85 F7200 ; Z hop
G0 X86.1092 Y100.8812 F7200 ; Move
G1 Z0.45 F7200 ; Z hop return
G1 E0.4 F2100 ; Un-retract
G1 X88.1092 Y100.8812 E0.06265 F1800 ; Glyph: 0
G1 X90.1092 Y100.8812 E0.06265 F1800 ; Glyph: 0
G1 X90.1092 Y102.8812 E0.06265 F1800 ; Glyph: 0
G1 X88.1092 Y102.8812 E0.06265 F1800 ; Glyph: 0
G1 X86.1092 Y102.8812 E0.06265 F1800 ; Glyph: 0
G1 X86.1092 Y100.8812 E0.06265 F1800 ; Glyph: 0
G1 E-0.4 F2100 ; Retract
G1 Z0.85 F7200 ; Z hop
G0 X86.1092 Y105.8812 F7200 ; Move
G1 Z0.45 F7200 ; Z hop return
G1 E0.4 F2100 ; Un-retract
G1 X86.1092 Y103.8812 E0.06265 F1800 ; Glyph: 6
G1 X88.1092 Y103.8812 E0.06265 F1800 ; Glyph: 6
G1 X90.1092 Y103.8812 E0.06265 F1800 ; Glyph: 6
G1 X90.1092 Y105.8812 E0.06265 F1800 ; Glyph: 6
G1 X88.1092 Y105.8812 E0.06265 F1800 ; Glyph: 6
G1 X88.1092 Y103.8812 E0.06265 F1800 ; Glyph: 6
G1 E-0.4 F2100 ; Retract
G1 Z0.85 F7200 ; Z hop
G0 X95.2967 Y96.8812 F7200 ; Move
G1 Z0.45 F7200 ; Z hop return
G1 E0.4 F2100 ; Un-retract
G1 X97.2967 Y96.8812 E0.06265 F1800 ; Glyph: 0
G1 X99.2967 Y96.8812 E0.06265 F1800 ; Glyph: 0
G1 X99.2967 Y98.8812 E0.06265 F1800 ; Glyph: 0
G1 X97.2967 Y98.8812 E0.06265 F1800 ; Glyph: 0
G1 X95.2967 Y98.8812 E0.06265 F1800 ; Glyph: 0
G1 X95.2967 Y96.8812 E0.06265 F1800 ; Glyph: 0
G1 E-0.4 F2100 ; Retract
G1 Z0.85 F7200 ; Z hop
G0 X99.2967 Y99.8812 F7200 ; Move
G1 Z0.45 F7200 ; Z hop return
G1 E0.4 F2100 ; Un-retract
G1 X98.5467 Y99.8812 E0.02349 F1800 ; Glyph: .
G1 E-0.4 F2100 ; Retract
G1 Z0.85 F7200 ; Z hop
G0 X95.2967 Y100.8812 F7200 ; Move
G1 Z0.45 F7200 ; Z hop return
G1 E0.4 F2100 ; Un-retract
G1 X97.2967 Y100.8812 E0.06265 F1800 ; Glyph: 0
G1 X99.2967 Y100.8812 E0.06265 F1800 ; Glyph: 0
G1 X99.2967 Y102.8812 E0.06265 F1800 ; Glyph: 0
G1 X97.2967 Y102.8812 E0.06265 F1800 ; Glyph: 0
G1 X95.2967 Y102.8812 E0.06265 F1800 ; Glyph: 0
G1 X95.2967 Y100.8812 E0.06265 F1800 ; Glyph: 0
G1 E-0.4 F2100 ; Retract
G1 Z0.85 F7200 ; Z hop
G0 X95.2967 Y103.8812 F7200 ; Move
G1 Z0.45 F7200 ; Z hop return
G1 E0.4 F2100 ; Un-retract
G1 X95.2967 Y105.8812 E0.06265 F1800 ; Glyph: 7
G1 X97.2967 Y105.8812 E0.06265 F1800 ; Glyph: 7
G1 X99.2967 Y105.8812 E0.06265 F1800 ; Glyph: 7
G1 E-0.4 F2100 ; Retract
G1 Z0.85 F7200 ; Z hop
G0 X104.4841 Y96.8812 F7200 ; Move
G1 Z0.45 F7200 ; Z hop return
G1 E0.4 F2100 ; Un-retract
G1 X106.4841 Y96.8812 E0.06265 F1800 ; Glyph: 0
G1 X108.4841 Y96.8812 E0.06265 F1800 ; Glyph: 0
G1 X108.4841 Y98.8812 E0.06265 F1800 ; Glyph: 0
G1 X106.4841 Y98.8812 E0.06265 F1800 ; Glyph: 0
G1 X104.4841 Y98.8812 E0.06265 F1800 ; Glyph: 0
G1 X104.4841 Y96.8812 E0.06265 F1800 ; Glyph: 0
G1 E-0.4 F2100 ; Retract
G1 Z0.85 F7200 ; Z hop
G0 X108.4841 Y99.8812 F7200 ; Move
G1 Z0.45 F7200 ; Z hop return
G1 E0.4 F2100 ; Un-retract
G1 X107.7341 Y99.8812 E0.02349 F1800 ; Glyph: .
G1 E-0.4 F2100 ; Retract
G1 Z0.85 F7200 ; Z hop
G0 X104.4841 Y100.8812 F7200 ; Move
G1 Z0.45 F7200 ; Z hop return
G1 E0.4 F2100 ; Un-retract
G1 X106.4841 Y100.8812 E0.06265 F1800 ; Glyph: 0
G1 X108.4841 Y100.8812 E0.06265 F1800 ; Glyph: 0
G1 X108.4841 Y102.8812 E0.06265 F1800 ; Glyph: 0
G1 X106.4841 Y102.8812 E0.06265 F1800 ; Glyph: 0
G1 X104.4841 Y102.8812 E0.06265 F1800 ; Glyph: 0
G1 X104.4841 Y100.8812 E0.06265 F1800 ; Glyph: 0
G1 E-0.4 F2100 ; Retract
G1 Z0.85 F7200 ; Z hop
G0 X104.4841 Y103.8812 F7200 ; Move
G1 Z0.45 F7200 ; Z hop return
G1 E0.4 F2100 ; Un-retract
G1 X106.4841 Y103.8812 E0.06265 F1800 ; Glyph: 8
G1 X108.4841 Y103.8812 E0.06265 F1800 ; Glyph: 8
G1 X108.4841 Y105.8812 E0.06265 F1800 ; Glyph: 8
G1 X106.4841 Y105.8812 E0.06265 F1800 ; Glyph: 8
G1 X104.4841 Y105.8812 E0.06265 F1800 ; Glyph: 8
G1 X104.4841 Y103.8812 E0.06265 F1800 ; Glyph: 8
G0 X106.4841 Y103.8812 F7200 ; Move
G1 X106.4841 Y105.8812 E0.06265 F1800 ; Glyph: 8
G1 E-0.4 F2100 ; Retract
G1 Z0.85 F7200 ; Z hop
G0 X32.4115 Y53.0068 F7200 ; Move to pattern start

G1 Z0.45 F7200 ; Z hop return
G1 E0.4 F2100 ; Un-retract
SET_PRESSURE_ADVANCE ADVANCE=0 ; Set pressure advance
M117 PA 0
G1 X53.6247 Y74.22 E0.93974 F6000 ; Print pattern wall
G1 X32.4115 Y95.4332 E0.93974 F6000 ; Print pattern wall
G1 E-0.4 F2100 ; Retract
G1 Z0.85 F7200 ; Z hop
G0 X32.9843 Y53.0068 F7200 ; Move to start next pattern wall
G1 Z0.45 F7200 ; Z hop return
G1 E0.4 F2100 ; Un-retract
G1 X54.1975 Y74.22 E0.93974 F6000 ; Print pattern wall
G1 X32.9843 Y95.4332 E0.93974 F6000 ; Print pattern wall
G1 E-0.4 F2100 ; Retract
G1 Z0.85 F7200 ; Z hop
G0 X33.5572 Y53.0068 F7200 ; Move to start next pattern wall
G1 Z0.45 F7200 ; Z hop return
G1 E0.4 F2100 ; Un-retract
G1 X54.7704 Y74.22 E0.93974 F6000 ; Print pattern wall
G1 X33.5572 Y95.4332 E0.93974 F6000 ; Print pattern wall
G1 E-0.4 F2100 ; Retract
G1 Z0.85 F7200 ; Z hop
G0 X37.0052 Y53.0068 F7200 ; Move to next pattern
G1 Z0.45 F7200 ; Z hop return
G1 E0.4 F2100 ; Un-retract
SET_PRESSURE_ADVANCE ADVANCE=0.005 ; Set pressure advance
M117 PA 0.005
G1 X58.2184 Y74.22 E0.93974 F6000 ; Print pattern wall
G1 X37.0052 Y95.4332 E0.93974 F6000 ; Print pattern wall
G1 E-0.4 F2100 ; Retract
G1 Z0.85 F7200 ; Z hop
G0 X37.5781 Y53.0068 F7200 ; Move to start next pattern wall
G1 Z0.45 F7200 ; Z hop return
G1 E0.4 F2100 ; Un-retract
G1 X58.7913 Y74.22 E0.93974 F6000 ; Print pattern wall
G1 X37.5781 Y95.4332 E0.93974 F6000 ; Print pattern wall
G1 E-0.4 F2100 ; Retract
G1 Z0.85 F7200 ; Z hop
G0 X38.1509 Y53.0068 F7200 ; Move to start next pattern wall
G1 Z0.45 F7200 ; Z hop return
G1 E0.4 F2100 ; Un-retract
G1 X59.3641 Y74.22 E0.93974 F6000 ; Print pattern wall
G1 X38.1509 Y95.4332 E0.93974 F6000 ; Print pattern wall
G1 E-0.4 F2100 ; Retract
G1 Z0.85 F7200 ; Z hop
G0 X41.5989 Y53.0068 F7200 ; Move to next pattern
G1 Z0.45 F7200 ; Z hop return
G1 E0.4 F2100 ; Un-retract
SET_PRESSURE_ADVANCE ADVANCE=0.01 ; Set pressure advance
M117 PA 0.01
G1 X62.8121 Y74.22 E0.93974 F6000 ; Print pattern wall
G1 X41.5989 Y95.4332 E0.93974 F6000 ; Print pattern wall
G1 E-0.4 F2100 ; Retract
G1 Z0.85 F7200 ; Z hop
G0 X42.1718 Y53.0068 F7200 ; Move to start next pattern wall
G1 Z0.45 F7200 ; Z hop return
G1 E0.4 F2100 ; Un-retract
G1 X63.385 Y74.22 E0.93974 F6000 ; Print pattern wall
G1 X42.1718 Y95.4332 E0.93974 F6000 ; Print pattern wall
G1 E-0.4 F2100 ; Retract
G1 Z0.85 F7200 ; Z hop
G0 X42.7447 Y53.0068 F7200 ; Move to start next pattern wall
G1 Z0.45 F7200 ; Z hop return
G1 E0.4 F2100 ; Un-retract
G1 X63.9579 Y74.22 E0.93974 F6000 ; Print pattern wall
G1 X42.7447 Y95.4332 E0.93974 F6000 ; Print pattern wall
G1 E-0.4 F2100 ; Retract
G1 Z0.85 F7200 ; Z hop
G0 X46.1927 Y53.0068 F7200 ; Move to next pattern
G1 Z0.45 F7200 ; Z hop return
G1 E0.4 F2100 ; Un-retract
SET_PRESSURE_ADVANCE ADVANCE=0.015 ; Set pressure advance
M117 PA 0.015
G1 X67.4059 Y74.22 E0.93974 F6000 ; Print pattern wall
G1 X46.1927 Y95.4332 E0.93974 F6000 ; Print pattern wall
G1 E-0.4 F2100 ; Retract
G1 Z0.85 F7200 ; Z hop
G0 X46.7656 Y53.0068 F7200 ; Move to start next pattern wall
G1 Z0.45 F7200 ; Z hop return
G1 E0.4 F2100 ; Un-retract
G1 X67.9788 Y74.22 E0.93974 F6000 ; Print pattern wall
G1 X46.7656 Y95.4332 E0.93974 F6000 ; Print pattern wall
G1 E-0.4 F2100 ; Retract
G1 Z0.85 F7200 ; Z hop
G0 X47.3384 Y53.0068 F7200 ; Move to start next pattern wall
G1 Z0.45 F7200 ; Z hop return
G1 E0.4 F2100 ; Un-retract
G1 X68.5516 Y74.22 E0.93974 F6000 ; Print pattern wall
G1 X47.3384 Y95.4332 E0.93974 F6000 ; Print pattern wall
G1 E-0.4 F2100 ; Retract
G1 Z0.85 F7200 ; Z hop
G0 X50.7864 Y53.0068 F7200 ; Move to next pattern
G1 Z0.45 F7200 ; Z hop return
G1 E0.4 F2100 ; Un-retract
SET_PRESSURE_ADVANCE ADVANCE=0.02 ; Set pressure advance
M117 PA 0.02
G1 X71.9996 Y74.22 E0.93974 F6000 ; Print pattern wall
G1 X50.7864 Y95.4332 E0.93974 F6000 ; Print pattern wall
G1 E-0.4 F2100 ; Retract
G1 Z0.85 F7200 ; Z hop
G0 X51.3593 Y53.0068 F7200 ; Move to start next pattern wall
G1 Z0.45 F7200 ; Z hop return
G1 E0.4 F2100 ; Un-retract
G1 X72.5725 Y74.22 E0.93974 F6000 ; Print pattern wall
G1 X51.3593 Y95.4332 E0.93974 F6000 ; Print pattern wall
G1 E-0.4 F2100 ; Retract
G1 Z0.85 F7200 ; Z hop
G0 X51.9322 Y53.0068 F7200 ; Move to start next pattern wall
G1 Z0.45 F7200 ; Z hop return
G1 E0.4 F2100 ; Un-retract
G1 X73.1454 Y74.22 E0.93974 F6000 ; Print pattern wall
G1 X51.9322 Y95.4332 E0.93974 F6000 ; Print pattern wall
G1 E-0.4 F2100 ; Retract
G1 Z0.85 F7200 ; Z hop
G0 X55.3802 Y53.0068 F7200 ; Move to next pattern
G1 Z0.45 F7200 ; Z hop return
G1 E0.4 F2100 ; Un-retract
SET_PRESSURE_ADVANCE ADVANCE=0.025 ; Set pressure advance
M117 PA 0.025
G1 X76.5934 Y74.22 E0.93974 F6000 ; Print pattern wall
G1 X55.3802 Y95.4332 E0.93974 F6000 ; Print pattern wall
G1 E-0.4 F2100 ; Retract
G1 Z0.85 F7200 ; Z hop
G0 X55.953 Y53.0068 F7200 ; Move to start next pattern wall
G1 Z0.45 F7200 ; Z hop return
G1 E0.4 F2100 ; Un-retract
G1 X77.1662 Y74.22 E0.93974 F6000 ; Print pattern wall
G1 X55.953 Y95.4332 E0.93974 F6000 ; Print pattern wall
G1 E-0.4 F2100 ; Retract
G1 Z0.85 F7200 ; Z hop
G0 X56.5259 Y53.0068 F7200 ; Move to start next pattern wall
G1 Z0.45 F7200 ; Z hop return
G1 E0.4 F2100 ; Un-retract
G1 X77.7391 Y74.22 E0.93974 F6000 ; Print pattern wall
G1 X56.5259 Y95.4332 E0.93974 F6000 ; Print pattern wall
G1 E-0.4 F2100 ; Retract
G1 Z0.85 F7200 ; Z hop
G0 X59.9739 Y53.0068 F7200 ; Move to next pattern
G1 Z0.45 F7200 ; Z hop return
G1 E0.4 F2100 ; Un-retract
SET_PRESSURE_ADVANCE ADVANCE=0.03 ; Set pressure advance
M117 PA 0.03
G1 X81.1871 Y74.22 E0.93974 F6000 ; Print pattern wall
G1 X59.9739 Y95.4332 E0.93974 F6000 ; Print pattern wall
G1 E-0.4 F2100 ; Retract
G1 Z0.85 F7200 ; Z hop
G0 X60.5468 Y53.0068 F7200 ; Move to start next pattern wall
G1 Z0.45 F7200 ; Z hop return
G1 E0.4 F2100 ; Un-retract
G1 X81.76 Y74.22 E0.93974 F6000 ; Print pattern wall
G1 X60.5468 Y95.4332 E0.93974 F6000 ; Print pattern wall
G1 E-0.4 F2100 ; Retract
G1 Z0.85 F7200 ; Z hop
G0 X61.1196 Y53.0068 F7200 ; Move to start next pattern wall
G1 Z0.45 F7200 ; Z hop return
G1 E0.4 F2100 ; Un-retract
G1 X82.3328 Y74.22 E0.93974 F6000 ; Print pattern wall
G1 X61.1196 Y95.4332 E0.93974 F6000 ; Print pattern wall
G1 E-0.4 F2100 ; Retract
G1 Z0.85 F7200 ; Z hop
G0 X64.5676 Y53.0068 F7200 ; Move to next pattern
G1 Z0.45 F7200 ; Z hop return
G1 E0.4 F2100 ; Un-retract
SET_PRESSURE_ADVANCE ADVANCE=0.035 ; Set pressure advance
M117 PA 0.035
G1 X85.7808 Y74.22 E0.93974 F6000 ; Print pattern wall
G1 X64.5676 Y95.4332 E0.93974 F6000 ; Print pattern wall
G1 E-0.4 F2100 ; Retract
G1 Z0.85 F7200 ; Z hop
G0 X65.1405 Y53.0068 F7200 ; Move to start next pattern wall
G1 Z0.45 F7200 ; Z hop return
G1 E0.4 F2100 ; Un-retract
G1 X86.3537 Y74.22 E0.93974 F6000 ; Print pattern wall
G1 X65.1405 Y95.4332 E0.93974 F6000 ; Print pattern wall
G1 E-0.4 F2100 ; Retract
G1 Z0.85 F7200 ; Z hop
G0 X65.7134 Y53.0068 F7200 ; Move to start next pattern wall
G1 Z0.45 F7200 ; Z hop return
G1 E0.4 F2100 ; Un-retract
G1 X86.9266 Y74.22 E0.93974 F6000 ; Print pattern wall
G1 X65.7134 Y95.4332 E0.93974 F6000 ; Print pattern wall
G1 E-0.4 F2100 ; Retract
G1 Z0.85 F7200 ; Z hop
G0 X69.1614 Y53.0068 F7200 ; Move to next pattern
G1 Z0.45 F7200 ; Z hop return
G1 E0.4 F2100 ; Un-retract
SET_PRESSURE_ADVANCE ADVANCE=0.04 ; Set pressure advance
M117 PA 0.04
G1 X90.3746 Y74.22 E0.93974 F6000 ; Print pattern wall
G1 X69.1614 Y95.4332 E0.93974 F6000 ; Print pattern wall
G1 E-0.4 F2100 ; Retract
G1 Z0.85 F7200 ; Z hop
G0 X69.7342 Y53.0068 F7200 ; Move to start next pattern wall
G1 Z0.45 F7200 ; Z hop return
G1 E0.4 F2100 ; Un-retract
G1 X90.9474 Y74.22 E0.93974 F6000 ; Print pattern wall
G1 X69.7342 Y95.4332 E0.93974 F6000 ; Print pattern wall
G1 E-0.4 F2100 ; Retract
G1 Z0.85 F7200 ; Z hop
G0 X70.3071 Y53.0068 F7200 ; Move to start next pattern wall
G1 Z0.45 F7200 ; Z hop return
G1 E0.4 F2100 ; Un-retract
G1 X91.5203 Y74.22 E0.93974 F6000 ; Print pattern wall
G1 X70.3071 Y95.4332 E0.93974 F6000 ; Print pattern wall
G1 E-0.4 F2100 ; Retract
G1 Z0.85 F7200 ; Z hop
G0 X73.7551 Y53.0068 F7200 ; Move to next pattern
G1 Z0.45 F7200 ; Z hop return
G1 E0.4 F2100 ; Un-retract
SET_PRESSURE_ADVANCE ADVANCE=0.045 ; Set pressure advance
M117 PA 0.045
G1 X94.9683 Y74.22 E0.93974 F6000 ; Print pattern wall
G1 X73.7551 Y95.4332 E0.93974 F6000 ; Print pattern wall
G1 E-0.4 F2100 ; Retract
G1 Z0.85 F7200 ; Z hop
G0 X74.328 Y53.0068 F7200 ; Move to start next pattern wall
G1 Z0.45 F7200 ; Z hop return
G1 E0.4 F2100 ; Un-retract
G1 X95.5412 Y74.22 E0.93974 F6000 ; Print pattern wall
G1 X74.328 Y95.4332 E0.93974 F6000 ; Print pattern wall
G1 E-0.4 F2100 ; Retract
G1 Z0.85 F7200 ; Z hop
G0 X74.9008 Y53.0068 F7200 ; Move to start next pattern wall
G1 Z0.45 F7200 ; Z hop return
G1 E0.4 F2100 ; Un-retract
G1 X96.1141 Y74.22 E0.93974 F6000 ; Print pattern wall
G1 X74.9008 Y95.4332 E0.93974 F6000 ; Print pattern wall
G1 E-0.4 F2100 ; Retract
G1 Z0.85 F7200 ; Z hop
G0 X78.3488 Y53.0068 F7200 ; Move to next pattern
G1 Z0.45 F7200 ; Z hop return
G1 E0.4 F2100 ; Un-retract
SET_PRESSURE_ADVANCE ADVANCE=0.05 ; Set pressure advance
M117 PA 0.05
G1 X99.5621 Y74.22 E0.93974 F6000 ; Print pattern wall
G1 X78.3488 Y95.4332 E0.93974 F6000 ; Print pattern wall
G1 E-0.4 F2100 ; Retract
G1 Z0.85 F7200 ; Z hop
G0 X78.9217 Y53.0068 F7200 ; Move to start next pattern wall
G1 Z0.45 F7200 ; Z hop return
G1 E0.4 F2100 ; Un-retract
G1 X100.1349 Y74.22 E0.93974 F6000 ; Print pattern wall
G1 X78.9217 Y95.4332 E0.93974 F6000 ; Print pattern wall
G1 E-0.4 F2100 ; Retract
G1 Z0.85 F7200 ; Z hop
G0 X79.4946 Y53.0068 F7200 ; Move to start next pattern wall
G1 Z0.45 F7200 ; Z hop return
G1 E0.4 F2100 ; Un-retract
G1 X100.7078 Y74.22 E0.93974 F6000 ; Print pattern wall
G1 X79.4946 Y95.4332 E0.93974 F6000 ; Print pattern wall
G1 E-0.4 F2100 ; Retract
G1 Z0.85 F7200 ; Z hop
G0 X82.9426 Y53.0068 F7200 ; Move to next pattern
G1 Z0.45 F7200 ; Z hop return
G1 E0.4 F2100 ; Un-retract
SET_PRESSURE_ADVANCE ADVANCE=0.055 ; Set pressure advance
M117 PA 0.055
G1 X104.1558 Y74.22 E0.93974 F6000 ; Print pattern wall
G1 X82.9426 Y95.4332 E0.93974 F6000 ; Print pattern wall
G1 E-0.4 F2100 ; Retract
G1 Z0.85 F7200 ; Z hop
G0 X83.5155 Y53.0068 F7200 ; Move to start next pattern wall
G1 Z0.45 F7200 ; Z hop return
G1 E0.4 F2100 ; Un-retract
G1 X104.7287 Y74.22 E0.93974 F6000 ; Print pattern wall
G1 X83.5155 Y95.4332 E0.93974 F6000 ; Print pattern wall
G1 E-0.4 F2100 ; Retract
G1 Z0.85 F7200 ; Z hop
G0 X84.0883 Y53.0068 F7200 ; Move to start next pattern wall
G1 Z0.45 F7200 ; Z hop return
G1 E0.4 F2100 ; Un-retract
G1 X105.3015 Y74.22 E0.93974 F6000 ; Print pattern wall
G1 X84.0883 Y95.4332 E0.93974 F6000 ; Print pattern wall
G1 E-0.4 F2100 ; Retract
G1 Z0.85 F7200 ; Z hop
G0 X87.5363 Y53.0068 F7200 ; Move to next pattern
G1 Z0.45 F7200 ; Z hop return
G1 E0.4 F2100 ; Un-retract
SET_PRESSURE_ADVANCE ADVANCE=0.06 ; Set pressure advance
M117 PA 0.06
G1 X108.7495 Y74.22 E0.93974 F6000 ; Print pattern wall
G1 X87.5363 Y95.4332 E0.93974 F6000 ; Print pattern wall
G1 E-0.4 F2100 ; Retract
G1 Z0.85 F7200 ; Z hop
G0 X88.1092 Y53.0068 F7200 ; Move to start next pattern wall
G1 Z0.45 F7200 ; Z hop return
G1 E0.4 F2100 ; Un-retract
G1 X109.3224 Y74.22 E0.93974 F6000 ; Print pattern wall
G1 X88.1092 Y95.4332 E0.93974 F6000 ; Print pattern wall
G1 E-0.4 F2100 ; Retract
G1 Z0.85 F7200 ; Z hop
G0 X88.6821 Y53.0068 F7200 ; Move to start next pattern wall
G1 Z0.45 F7200 ; Z hop return
G1 E0.4 F2100 ; Un-retract
G1 X109.8953 Y74.22 E0.93974 F6000 ; Print pattern wall
G1 X88.6821 Y95.4332 E0.93974 F6000 ; Print pattern wall
G1 E-0.4 F2100 ; Retract
G1 Z0.85 F7200 ; Z hop
G0 X92.1301 Y53.0068 F7200 ; Move to next pattern
G1 Z0.45 F7200 ; Z hop return
G1 E0.4 F2100 ; Un-retract
SET_PRESSURE_ADVANCE ADVANCE=0.065 ; Set pressure advance
M117 PA 0.065
G1 X113.3433 Y74.22 E0.93974 F6000 ; Print pattern wall
G1 X92.1301 Y95.4332 E0.93974 F6000 ; Print pattern wall
G1 E-0.4 F2100 ; Retract
G1 Z0.85 F7200 ; Z hop
G0 X92.7029 Y53.0068 F7200 ; Move to start next pattern wall
G1 Z0.45 F7200 ; Z hop return
G1 E0.4 F2100 ; Un-retract
G1 X113.9161 Y74.22 E0.93974 F6000 ; Print pattern wall
G1 X92.7029 Y95.4332 E0.93974 F6000 ; Print pattern wall
G1 E-0.4 F2100 ; Retract
G1 Z0.85 F7200 ; Z hop
G0 X93.2758 Y53.0068 F7200 ; Move to start next pattern wall
G1 Z0.45 F7200 ; Z hop return
G1 E0.4 F2100 ; Un-retract
G1 X114.489 Y74.22 E0.93974 F6000 ; Print pattern wall
G1 X93.2758 Y95.4332 E0.93974 F6000 ; Print pattern wall
G1 E-0.4 F2100 ; Retract
G1 Z0.85 F7200 ; Z hop
G0 X96.7238 Y53.0068 F7200 ; Move to next pattern
G1 Z0.45 F7200 ; Z hop return
G1 E0.4 F2100 ; Un-retract
SET_PRESSURE_ADVANCE ADVANCE=0.07 ; Set pressure advance
M117 PA 0.07
G1 X117.937 Y74.22 E0.93974 F6000 ; Print pattern wall
G1 X96.7238 Y95.4332 E0.93974 F6000 ; Print pattern wall
G1 E-0.4 F2100 ; Retract
G1 Z0.85 F7200 ; Z hop
G0 X97.2967 Y53.0068 F7200 ; Move to start next pattern wall
G1 Z0.45 F7200 ; Z hop return
G1 E0.4 F2100 ; Un-retract
G1 X118.5099 Y74.22 E0.93974 F6000 ; Print pattern wall
G1 X97.2967 Y95.4332 E0.93974 F6000 ; Print pattern wall
G1 E-0.4 F2100 ; Retract
G1 Z0.85 F7200 ; Z hop
G0 X97.8695 Y53.0068 F7200 ; Move to start next pattern wall
G1 Z0.45 F7200 ; Z hop return
G1 E0.4 F2100 ; Un-retract
G1 X119.0827 Y74.22 E0.93974 F6000 ; Print pattern wall
G1 X97.8695 Y95.4332 E0.93974 F6000 ; Print pattern wall
G1 E-0.4 F2100 ; Retract
G1 Z0.85 F7200 ; Z hop
G0 X101.3175 Y53.0068 F7200 ; Move to next pattern
G1 Z0.45 F7200 ; Z hop return
G1 E0.4 F2100 ; Un-retract
SET_PRESSURE_ADVANCE ADVANCE=0.075 ; Set pressure advance
M117 PA 0.075
G1 X122.5307 Y74.22 E0.93974 F6000 ; Print pattern wall
G1 X101.3175 Y95.4332 E0.93974 F6000 ; Print pattern wall
G1 E-0.4 F2100 ; Retract
G1 Z0.85 F7200 ; Z hop
G0 X101.8904 Y53.0068 F7200 ; Move to start next pattern wall
G1 Z0.45 F7200 ; Z hop return
G1 E0.4 F2100 ; Un-retract
G1 X123.1036 Y74.22 E0.93974 F6000 ; Print pattern wall
G1 X101.8904 Y95.4332 E0.93974 F6000 ; Print pattern wall
G1 E-0.4 F2100 ; Retract
G1 Z0.85 F7200 ; Z hop
G0 X102.4633 Y53.0068 F7200 ; Move to start next pattern wall
G1 Z0.45 F7200 ; Z hop return
G1 E0.4 F2100 ; Un-retract
G1 X123.6765 Y74.22 E0.93974 F6000 ; Print pattern wall
G1 X102.4633 Y95.4332 E0.93974 F6000 ; Print pattern wall
G1 E-0.4 F2100 ; Retract
G1 Z0.85 F7200 ; Z hop
G0 X105.9113 Y53.0068 F7200 ; Move to next pattern
G1 Z0.45 F7200 ; Z hop return
G1 E0.4 F2100 ; Un-retract
SET_PRESSURE_ADVANCE ADVANCE=0.08 ; Set pressure advance
M117 PA 0.08
G1 X127.1245 Y74.22 E0.93974 F6000 ; Print pattern wall
G1 X105.9113 Y95.4332 E0.93974 F6000 ; Print pattern wall
G1 E-0.4 F2100 ; Retract
G1 Z0.85 F7200 ; Z hop
G0 X106.4841 Y53.0068 F7200 ; Move to start next pattern wall
G1 Z0.45 F7200 ; Z hop return
G1 E0.4 F2100 ; Un-retract
G1 X127.6974 Y74.22 E0.93974 F6000 ; Print pattern wall
G1 X106.4841 Y95.4332 E0.93974 F6000 ; Print pattern wall
G1 E-0.4 F2100 ; Retract
G1 Z0.85 F7200 ; Z hop
G0 X107.057 Y53.0068 F7200 ; Move to start next pattern wall
G1 Z0.45 F7200 ; Z hop return
G1 E0.4 F2100 ; Un-retract
G1 X128.2702 Y74.22 E0.93974 F6000 ; Print pattern wall
G1 X107.057 Y95.4332 E0.93974 F6000 ; Print pattern wall
G1 E-0.4 F2100 ; Retract
G1 Z0.85 F7200 ; Z hop
G0 X32.4115 Y53.0068 F7200 ; Move back to start position
G1 Z0.45 F7200 ; Z hop return
G1 E0.4 F2100 ; Un-retract
G0 Z0.65 F7200 ; Move to layer height
SET_PRESSURE_ADVANCE ADVANCE=0 ; Set pressure advance
M117 PA 0
G1 X53.6247 Y74.22 E0.93974 F6000 ; Print pattern wall
G1 X32.4115 Y95.4332 E0.93974 F6000 ; Print pattern wall
G1 E-0.4 F2100 ; Retract
G1 Z1.05 F7200 ; Z hop
G0 X32.9843 Y53.0068 F7200 ; Move to start next pattern wall
G1 Z0.65 F7200 ; Z hop return
G1 E0.4 F2100 ; Un-retract
G1 X54.1975 Y74.22 E0.93974 F6000 ; Print pattern wall
G1 X32.9843 Y95.4332 E0.93974 F6000 ; Print pattern wall
G1 E-0.4 F2100 ; Retract
G1 Z1.05 F7200 ; Z hop
G0 X33.5572 Y53.0068 F7200 ; Move to start next pattern wall
G1 Z0.65 F7200 ; Z hop return
G1 E0.4 F2100 ; Un-retract
G1 X54.7704 Y74.22 E0.93974 F6000 ; Print pattern wall
G1 X33.5572 Y95.4332 E0.93974 F6000 ; Print pattern wall
G1 E-0.4 F2100 ; Retract
G1 Z1.05 F7200 ; Z hop
G0 X37.0052 Y53.0068 F7200 ; Move to next pattern
G1 Z0.65 F7200 ; Z hop return
G1 E0.4 F2100 ; Un-retract
SET_PRESSURE_ADVANCE ADVANCE=0.005 ; Set pressure advance
M117 PA 0.005
G1 X58.2184 Y74.22 E0.93974 F6000 ; Print pattern wall
G1 X37.0052 Y95.4332 E0.93974 F6000 ; Print pattern wall
G1 E-0.4 F2100 ; Retract
G1 Z1.05 F7200 ; Z hop
G0 X37.5781 Y53.0068 F7200 ; Move to start next pattern wall
G1 Z0.65 F7200 ; Z hop return
G1 E0.4 F2100 ; Un-retract
G1 X58.7913 Y74.22 E0.93974 F6000 ; Print pattern wall
G1 X37.5781 Y95.4332 E0.93974 F6000 ; Print pattern wall
G1 E-0.4 F2100 ; Retract
G1 Z1.05 F7200 ; Z hop
G0 X38.1509 Y53.0068 F7200 ; Move to start next pattern wall
G1 Z0.65 F7200 ; Z hop return
G1 E0.4 F2100 ; Un-retract
G1 X59.3641 Y74.22 E0.93974 F6000 ; Print pattern wall
G1 X38.1509 Y95.4332 E0.93974 F6000 ; Print pattern wall
G1 E-0.4 F2100 ; Retract
G1 Z1.05 F7200 ; Z hop
G0 X41.5989 Y53.0068 F7200 ; Move to next pattern
G1 Z0.65 F7200 ; Z hop return
G1 E0.4 F2100 ; Un-retract
SET_PRESSURE_ADVANCE ADVANCE=0.01 ; Set pressure advance
M117 PA 0.01
G1 X62.8121 Y74.22 E0.93974 F6000 ; Print pattern wall
G1 X41.5989 Y95.4332 E0.93974 F6000 ; Print pattern wall
G1 E-0.4 F2100 ; Retract
G1 Z1.05 F7200 ; Z hop
G0 X42.1718 Y53.0068 F7200 ; Move to start next pattern wall
G1 Z0.65 F7200 ; Z hop return
G1 E0.4 F2100 ; Un-retract
G1 X63.385 Y74.22 E0.93974 F6000 ; Print pattern wall
G1 X42.1718 Y95.4332 E0.93974 F6000 ; Print pattern wall
G1 E-0.4 F2100 ; Retract
G1 Z1.05 F7200 ; Z hop
G0 X42.7447 Y53.0068 F7200 ; Move to start next pattern wall
G1 Z0.65 F7200 ; Z hop return
G1 E0.4 F2100 ; Un-retract
G1 X63.9579 Y74.22 E0.93974 F6000 ; Print pattern wall
G1 X42.7447 Y95.4332 E0.93974 F6000 ; Print pattern wall
G1 E-0.4 F2100 ; Retract
G1 Z1.05 F7200 ; Z hop
G0 X46.1927 Y53.0068 F7200 ; Move to next pattern
G1 Z0.65 F7200 ; Z hop return
G1 E0.4 F2100 ; Un-retract
SET_PRESSURE_ADVANCE ADVANCE=0.015 ; Set pressure advance
M117 PA 0.015
G1 X67.4059 Y74.22 E0.93974 F6000 ; Print pattern wall
G1 X46.1927 Y95.4332 E0.93974 F6000 ; Print pattern wall
G1 E-0.4 F2100 ; Retract
G1 Z1.05 F7200 ; Z hop
G0 X46.7656 Y53.0068 F7200 ; Move to start next pattern wall
G1 Z0.65 F7200 ; Z hop return
G1 E0.4 F2100 ; Un-retract
G1 X67.9788 Y74.22 E0.93974 F6000 ; Print pattern wall
G1 X46.7656 Y95.4332 E0.93974 F6000 ; Print pattern wall
G1 E-0.4 F2100 ; Retract
G1 Z1.05 F7200 ; Z hop
G0 X47.3384 Y53.0068 F7200 ; Move to start next pattern wall
G1 Z0.65 F7200 ; Z hop return
G1 E0.4 F2100 ; Un-retract
G1 X68.5516 Y74.22 E0.93974 F6000 ; Print pattern wall
G1 X47.3384 Y95.4332 E0.93974 F6000 ; Print pattern wall
G1 E-0.4 F2100 ; Retract
G1 Z1.05 F7200 ; Z hop
G0 X50.7864 Y53.0068 F7200 ; Move to next pattern
G1 Z0.65 F7200 ; Z hop return
G1 E0.4 F2100 ; Un-retract
SET_PRESSURE_ADVANCE ADVANCE=0.02 ; Set pressure advance
M117 PA 0.02
G1 X71.9996 Y74.22 E0.93974 F6000 ; Print pattern wall
G1 X50.7864 Y95.4332 E0.93974 F6000 ; Print pattern wall
G1 E-0.4 F2100 ; Retract
G1 Z1.05 F7200 ; Z hop
G0 X51.3593 Y53.0068 F7200 ; Move to start next pattern wall
G1 Z0.65 F7200 ; Z hop return
G1 E0.4 F2100 ; Un-retract
G1 X72.5725 Y74.22 E0.93974 F6000 ; Print pattern wall
G1 X51.3593 Y95.4332 E0.93974 F6000 ; Print pattern wall
G1 E-0.4 F2100 ; Retract
G1 Z1.05 F7200 ; Z hop
G0 X51.9322 Y53.0068 F7200 ; Move to start next pattern wall
G1 Z0.65 F7200 ; Z hop return
G1 E0.4 F2100 ; Un-retract
G1 X73.1454 Y74.22 E0.93974 F6000 ; Print pattern wall
G1 X51.9322 Y95.4332 E0.93974 F6000 ; Print pattern wall
G1 E-0.4 F2100 ; Retract
G1 Z1.05 F7200 ; Z hop
G0 X55.3802 Y53.0068 F7200 ; Move to next pattern
G1 Z0.65 F7200 ; Z hop return
G1 E0.4 F2100 ; Un-retract
SET_PRESSURE_ADVANCE ADVANCE=0.025 ; Set pressure advance
M117 PA 0.025
G1 X76.5934 Y74.22 E0.93974 F6000 ; Print pattern wall
G1 X55.3802 Y95.4332 E0.93974 F6000 ; Print pattern wall
G1 E-0.4 F2100 ; Retract
G1 Z1.05 F7200 ; Z hop
G0 X55.953 Y53.0068 F7200 ; Move to start next pattern wall
G1 Z0.65 F7200 ; Z hop return
G1 E0.4 F2100 ; Un-retract
G1 X77.1662 Y74.22 E0.93974 F6000 ; Print pattern wall
G1 X55.953 Y95.4332 E0.93974 F6000 ; Print pattern wall
G1 E-0.4 F2100 ; Retract
G1 Z1.05 F7200 ; Z hop
G0 X56.5259 Y53.0068 F7200 ; Move to start next pattern wall
G1 Z0.65 F7200 ; Z hop return
G1 E0.4 F2100 ; Un-retract
G1 X77.7391 Y74.22 E0.93974 F6000 ; Print pattern wall
G1 X56.5259 Y95.4332 E0.93974 F6000 ; Print pattern wall
G1 E-0.4 F2100 ; Retract
G1 Z1.05 F7200 ; Z hop
G0 X59.9739 Y53.0068 F7200 ; Move to next pattern
G1 Z0.65 F7200 ; Z hop return
G1 E0.4 F2100 ; Un-retract
SET_PRESSURE_ADVANCE ADVANCE=0.03 ; Set pressure advance
M117 PA 0.03
G1 X81.1871 Y74.22 E0.93974 F6000 ; Print pattern wall
G1 X59.9739 Y95.4332 E0.93974 F6000 ; Print pattern wall
G1 E-0.4 F2100 ; Retract
G1 Z1.05 F7200 ; Z hop
G0 X60.5468 Y53.0068 F7200 ; Move to start next pattern wall
G1 Z0.65 F7200 ; Z hop return
G1 E0.4 F2100 ; Un-retract
G1 X81.76 Y74.22 E0.93974 F6000 ; Print pattern wall
G1 X60.5468 Y95.4332 E0.93974 F6000 ; Print pattern wall
G1 E-0.4 F2100 ; Retract
G1 Z1.05 F7200 ; Z hop
G0 X61.1196 Y53.0068 F7200 ; Move to start next pattern wall
G1 Z0.65 F7200 ; Z hop return
G1 E0.4 F2100 ; Un-retract
G1 X82.3328 Y74.22 E0.93974 F6000 ; Print pattern wall
G1 X61.1196 Y95.4332 E0.93974 F6000 ; Print pattern wall
G1 E-0.4 F2100 ; Retract
G1 Z1.05 F7200 ; Z hop
G0 X64.5676 Y53.0068 F7200 ; Move to next pattern
G1 Z0.65 F7200 ; Z hop return
G1 E0.4 F2100 ; Un-retract
SET_PRESSURE_ADVANCE ADVANCE=0.035 ; Set pressure advance
M117 PA 0.035
G1 X85.7808 Y74.22 E0.93974 F6000 ; Print pattern wall
G1 X64.5676 Y95.4332 E0.93974 F6000 ; Print pattern wall
G1 E-0.4 F2100 ; Retract
G1 Z1.05 F7200 ; Z hop
G0 X65.1405 Y53.0068 F7200 ; Move to start next pattern wall
G1 Z0.65 F7200 ; Z hop return
G1 E0.4 F2100 ; Un-retract
G1 X86.3537 Y74.22 E0.93974 F6000 ; Print pattern wall
G1 X65.1405 Y95.4332 E0.93974 F6000 ; Print pattern wall
G1 E-0.4 F2100 ; Retract
G1 Z1.05 F7200 ; Z hop
G0 X65.7134 Y53.0068 F7200 ; Move to start next pattern wall
G1 Z0.65 F7200 ; Z hop return
G1 E0.4 F2100 ; Un-retract
G1 X86.9266 Y74.22 E0.93974 F6000 ; Print pattern wall
G1 X65.7134 Y95.4332 E0.93974 F6000 ; Print pattern wall
G1 E-0.4 F2100 ; Retract
G1 Z1.05 F7200 ; Z hop
G0 X69.1614 Y53.0068 F7200 ; Move to next pattern
G1 Z0.65 F7200 ; Z hop return
G1 E0.4 F2100 ; Un-retract
SET_PRESSURE_ADVANCE ADVANCE=0.04 ; Set pressure advance
M117 PA 0.04
G1 X90.3746 Y74.22 E0.93974 F6000 ; Print pattern wall
G1 X69.1614 Y95.4332 E0.93974 F6000 ; Print pattern wall
G1 E-0.4 F2100 ; Retract
G1 Z1.05 F7200 ; Z hop
G0 X69.7342 Y53.0068 F7200 ; Move to start next pattern wall
G1 Z0.65 F7200 ; Z hop return
G1 E0.4 F2100 ; Un-retract
G1 X90.9474 Y74.22 E0.93974 F6000 ; Print pattern wall
G1 X69.7342 Y95.4332 E0.93974 F6000 ; Print pattern wall
G1 E-0.4 F2100 ; Retract
G1 Z1.05 F7200 ; Z hop
G0 X70.3071 Y53.0068 F7200 ; Move to start next pattern wall
G1 Z0.65 F7200 ; Z hop return
G1 E0.4 F2100 ; Un-retract
G1 X91.5203 Y74.22 E0.93974 F6000 ; Print pattern wall
G1 X70.3071 Y95.4332 E0.93974 F6000 ; Print pattern wall
G1 E-0.4 F2100 ; Retract
G1 Z1.05 F7200 ; Z hop
G0 X73.7551 Y53.0068 F7200 ; Move to next pattern
G1 Z0.65 F7200 ; Z hop return
G1 E0.4 F2100 ; Un-retract
SET_PRESSURE_ADVANCE ADVANCE=0.045 ; Set pressure advance
M117 PA 0.045
G1 X94.9683 Y74.22 E0.93974 F6000 ; Print pattern wall
G1 X73.7551 Y95.4332 E0.93974 F6000 ; Print pattern wall
G1 E-0.4 F2100 ; Retract
G1 Z1.05 F7200 ; Z hop
G0 X74.328 Y53.0068 F7200 ; Move to start next pattern wall
G1 Z0.65 F7200 ; Z hop return
G1 E0.4 F2100 ; Un-retract
G1 X95.5412 Y74.22 E0.93974 F6000 ; Print pattern wall
G1 X74.328 Y95.4332 E0.93974 F6000 ; Print pattern wall
G1 E-0.4 F2100 ; Retract
G1 Z1.05 F7200 ; Z hop
G0 X74.9008 Y53.0068 F7200 ; Move to start next pattern wall
G1 Z0.65 F7200 ; Z hop return
G1 E0.4 F2100 ; Un-retract
G1 X96.1141 Y74.22 E0.93974 F6000 ; Print pattern wall
G1 X74.9008 Y95.4332 E0.93974 F6000 ; Print pattern wall
G1 E-0.4 F2100 ; Retract
G1 Z1.05 F7200 ; Z hop
G0 X78.3488 Y53.0068 F7200 ; Move to next pattern
G1 Z0.65 F7200 ; Z hop return
G1 E0.4 F2100 ; Un-retract
SET_PRESSURE_ADVANCE ADVANCE=0.05 ; Set pressure advance
M117 PA 0.05
G1 X99.5621 Y74.22 E0.93974 F6000 ; Print pattern wall
G1 X78.3488 Y95.4332 E0.93974 F6000 ; Print pattern wall
G1 E-0.4 F2100 ; Retract
G1 Z1.05 F7200 ; Z hop
G0 X78.9217 Y53.0068 F7200 ; Move to start next pattern wall
G1 Z0.65 F7200 ; Z hop return
G1 E0.4 F2100 ; Un-retract
G1 X100.1349 Y74.22 E0.93974 F6000 ; Print pattern wall
G1 X78.9217 Y95.4332 E0.93974 F6000 ; Print pattern wall
G1 E-0.4 F2100 ; Retract
G1 Z1.05 F7200 ; Z hop
G0 X79.4946 Y53.0068 F7200 ; Move to start next pattern wall
G1 Z0.65 F7200 ; Z hop return
G1 E0.4 F2100 ; Un-retract
G1 X100.7078 Y74.22 E0.93974 F6000 ; Print pattern wall
G1 X79.4946 Y95.4332 E0.93974 F6000 ; Print pattern wall
G1 E-0.4 F2100 ; Retract
G1 Z1.05 F7200 ; Z hop
G0 X82.9426 Y53.0068 F7200 ; Move to next pattern
G1 Z0.65 F7200 ; Z hop return
G1 E0.4 F2100 ; Un-retract
SET_PRESSURE_ADVANCE ADVANCE=0.055 ; Set pressure advance
M117 PA 0.055
G1 X104.1558 Y74.22 E0.93974 F6000 ; Print pattern wall
G1 X82.9426 Y95.4332 E0.93974 F6000 ; Print pattern wall
G1 E-0.4 F2100 ; Retract
G1 Z1.05 F7200 ; Z hop
G0 X83.5155 Y53.0068 F7200 ; Move to start next pattern wall
G1 Z0.65 F7200 ; Z hop return
G1 E0.4 F2100 ; Un-retract
G1 X104.7287 Y74.22 E0.93974 F6000 ; Print pattern wall
G1 X83.5155 Y95.4332 E0.93974 F6000 ; Print pattern wall
G1 E-0.4 F2100 ; Retract
G1 Z1.05 F7200 ; Z hop
G0 X84.0883 Y53.0068 F7200 ; Move to start next pattern wall
G1 Z0.65 F7200 ; Z hop return
G1 E0.4 F2100 ; Un-retract
G1 X105.3015 Y74.22 E0.93974 F6000 ; Print pattern wall
G1 X84.0883 Y95.4332 E0.93974 F6000 ; Print pattern wall
G1 E-0.4 F2100 ; Retract
G1 Z1.05 F7200 ; Z hop
G0 X87.5363 Y53.0068 F7200 ; Move to next pattern
G1 Z0.65 F7200 ; Z hop return
G1 E0.4 F2100 ; Un-retract
SET_PRESSURE_ADVANCE ADVANCE=0.06 ; Set pressure advance
M117 PA 0.06
G1 X108.7495 Y74.22 E0.93974 F6000 ; Print pattern wall
G1 X87.5363 Y95.4332 E0.93974 F6000 ; Print pattern wall
G1 E-0.4 F2100 ; Retract
G1 Z1.05 F7200 ; Z hop
G0 X88.1092 Y53.0068 F7200 ; Move to start next pattern wall
G1 Z0.65 F7200 ; Z hop return
G1 E0.4 F2100 ; Un-retract
G1 X109.3224 Y74.22 E0.93974 F6000 ; Print pattern wall
G1 X88.1092 Y95.4332 E0.93974 F6000 ; Print pattern wall
G1 E-0.4 F2100 ; Retract
G1 Z1.05 F7200 ; Z hop
G0 X88.6821 Y53.0068 F7200 ; Move to start next pattern wall
G1 Z0.65 F7200 ; Z hop return
G1 E0.4 F2100 ; Un-retract
G1 X109.8953 Y74.22 E0.93974 F6000 ; Print pattern wall
G1 X88.6821 Y95.4332 E0.93974 F6000 ; Print pattern wall
G1 E-0.4 F2100 ; Retract
G1 Z1.05 F7200 ; Z hop
G0 X92.1301 Y53.0068 F7200 ; Move to next pattern
G1 Z0.65 F7200 ; Z hop return
G1 E0.4 F2100 ; Un-retract
SET_PRESSURE_ADVANCE ADVANCE=0.065 ; Set pressure advance
M117 PA 0.065
G1 X113.3433 Y74.22 E0.93974 F6000 ; Print pattern wall
G1 X92.1301 Y95.4332 E0.93974 F6000 ; Print pattern wall
G1 E-0.4 F2100 ; Retract
G1 Z1.05 F7200 ; Z hop
G0 X92.7029 Y53.0068 F7200 ; Move to start next pattern wall
G1 Z0.65 F7200 ; Z hop return
G1 E0.4 F2100 ; Un-retract
G1 X113.9161 Y74.22 E0.93974 F6000 ; Print pattern wall
G1 X92.7029 Y95.4332 E0.93974 F6000 ; Print pattern wall
G1 E-0.4 F2100 ; Retract
G1 Z1.05 F7200 ; Z hop
G0 X93.2758 Y53.0068 F7200 ; Move to start next pattern wall
G1 Z0.65 F7200 ; Z hop return
G1 E0.4 F2100 ; Un-retract
G1 X114.489 Y74.22 E0.93974 F6000 ; Print pattern wall
G1 X93.2758 Y95.4332 E0.93974 F6000 ; Print pattern wall
G1 E-0.4 F2100 ; Retract
G1 Z1.05 F7200 ; Z hop
G0 X96.7238 Y53.0068 F7200 ; Move to next pattern
G1 Z0.65 F7200 ; Z hop return
G1 E0.4 F2100 ; Un-retract
SET_PRESSURE_ADVANCE ADVANCE=0.07 ; Set pressure advance
M117 PA 0.07
G1 X117.937 Y74.22 E0.93974 F6000 ; Print pattern wall
G1 X96.7238 Y95.4332 E0.93974 F6000 ; Print pattern wall
G1 E-0.4 F2100 ; Retract
G1 Z1.05 F7200 ; Z hop
G0 X97.2967 Y53.0068 F7200 ; Move to start next pattern wall
G1 Z0.65 F7200 ; Z hop return
G1 E0.4 F2100 ; Un-retract
G1 X118.5099 Y74.22 E0.93974 F6000 ; Print pattern wall
G1 X97.2967 Y95.4332 E0.93974 F6000 ; Print pattern wall
G1 E-0.4 F2100 ; Retract
G1 Z1.05 F7200 ; Z hop
G0 X97.8695 Y53.0068 F7200 ; Move to start next pattern wall
G1 Z0.65 F7200 ; Z hop return
G1 E0.4 F2100 ; Un-retract
G1 X119.0827 Y74.22 E0.93974 F6000 ; Print pattern wall
G1 X97.8695 Y95.4332 E0.93974 F6000 ; Print pattern wall
G1 E-0.4 F2100 ; Retract
G1 Z1.05 F7200 ; Z hop
G0 X101.3175 Y53.0068 F7200 ; Move to next pattern
G1 Z0.65 F7200 ; Z hop return
G1 E0.4 F2100 ; Un-retract
SET_PRESSURE_ADVANCE ADVANCE=0.075 ; Set pressure advance
M117 PA 0.075
G1 X122.5307 Y74.22 E0.93974 F6000 ; Print pattern wall
G1 X101.3175 Y95.4332 E0.93974 F6000 ; Print pattern wall
G1 E-0.4 F2100 ; Retract
G1 Z1.05 F7200 ; Z hop
G0 X101.8904 Y53.0068 F7200 ; Move to start next pattern wall
G1 Z0.65 F7200 ; Z hop return
G1 E0.4 F2100 ; Un-retract
G1 X123.1036 Y74.22 E0.93974 F6000 ; Print pattern wall
G1 X101.8904 Y95.4332 E0.93974 F6000 ; Print pattern wall
G1 E-0.4 F2100 ; Retract
G1 Z1.05 F7200 ; Z hop
G0 X102.4633 Y53.0068 F7200 ; Move to start next pattern wall
G1 Z0.65 F7200 ; Z hop return
G1 E0.4 F2100 ; Un-retract
G1 X123.6765 Y74.22 E0.93974 F6000 ; Print pattern wall
G1 X102.4633 Y95.4332 E0.93974 F6000 ; Print pattern wall
G1 E-0.4 F2100 ; Retract
G1 Z1.05 F7200 ; Z hop
G0 X105.9113 Y53.0068 F7200 ; Move to next pattern
G1 Z0.65 F7200 ; Z hop return
G1 E0.4 F2100 ; Un-retract
SET_PRESSURE_ADVANCE ADVANCE=0.08 ; Set pressure advance
M117 PA 0.08
G1 X127.1245 Y74.22 E0.93974 F6000 ; Print pattern wall
G1 X105.9113 Y95.4332 E0.93974 F6000 ; Print pattern wall
G1 E-0.4 F2100 ; Retract
G1 Z1.05 F7200 ; Z hop
G0 X106.4841 Y53.0068 F7200 ; Move to start next pattern wall
G1 Z0.65 F7200 ; Z hop return
G1 E0.4 F2100 ; Un-retract
G1 X127.6974 Y74.22 E0.93974 F6000 ; Print pattern wall
G1 X106.4841 Y95.4332 E0.93974 F6000 ; Print pattern wall
G1 E-0.4 F2100 ; Retract
G1 Z1.05 F7200 ; Z hop
G0 X107.057 Y53.0068 F7200 ; Move to start next pattern wall
G1 Z0.65 F7200 ; Z hop return
G1 E0.4 F2100 ; Un-retract
G1 X128.2702 Y74.22 E0.93974 F6000 ; Print pattern wall
G1 X107.057 Y95.4332 E0.93974 F6000 ; Print pattern wall
G1 E-0.4 F2100 ; Retract
G1 Z1.05 F7200 ; Z hop
G0 X32.4115 Y53.0068 F7200 ; Move back to start position
G1 Z0.65 F7200 ; Z hop return
G1 E0.4 F2100 ; Un-retract
G0 Z0.85 F7200 ; Move to layer height
SET_PRESSURE_ADVANCE ADVANCE=0 ; Set pressure advance
M117 PA 0
G1 X53.6247 Y74.22 E0.93974 F6000 ; Print pattern wall
G1 X32.4115 Y95.4332 E0.93974 F6000 ; Print pattern wall
G1 E-0.4 F2100 ; Retract
G1 Z1.25 F7200 ; Z hop
G0 X32.9843 Y53.0068 F7200 ; Move to start next pattern wall
G1 Z0.85 F7200 ; Z hop return
G1 E0.4 F2100 ; Un-retract
G1 X54.1975 Y74.22 E0.93974 F6000 ; Print pattern wall
G1 X32.9843 Y95.4332 E0.93974 F6000 ; Print pattern wall
G1 E-0.4 F2100 ; Retract
G1 Z1.25 F7200 ; Z hop
G0 X33.5572 Y53.0068 F7200 ; Move to start next pattern wall
G1 Z0.85 F7200 ; Z hop return
G1 E0.4 F2100 ; Un-retract
G1 X54.7704 Y74.22 E0.93974 F6000 ; Print pattern wall
G1 X33.5572 Y95.4332 E0.93974 F6000 ; Print pattern wall
G1 E-0.4 F2100 ; Retract
G1 Z1.25 F7200 ; Z hop
G0 X37.0052 Y53.0068 F7200 ; Move to next pattern
G1 Z0.85 F7200 ; Z hop return
G1 E0.4 F2100 ; Un-retract
SET_PRESSURE_ADVANCE ADVANCE=0.005 ; Set pressure advance
M117 PA 0.005
G1 X58.2184 Y74.22 E0.93974 F6000 ; Print pattern wall
G1 X37.0052 Y95.4332 E0.93974 F6000 ; Print pattern wall
G1 E-0.4 F2100 ; Retract
G1 Z1.25 F7200 ; Z hop
G0 X37.5781 Y53.0068 F7200 ; Move to start next pattern wall
G1 Z0.85 F7200 ; Z hop return
G1 E0.4 F2100 ; Un-retract
G1 X58.7913 Y74.22 E0.93974 F6000 ; Print pattern wall
G1 X37.5781 Y95.4332 E0.93974 F6000 ; Print pattern wall
G1 E-0.4 F2100 ; Retract
G1 Z1.25 F7200 ; Z hop
G0 X38.1509 Y53.0068 F7200 ; Move to start next pattern wall
G1 Z0.85 F7200 ; Z hop return
G1 E0.4 F2100 ; Un-retract
G1 X59.3641 Y74.22 E0.93974 F6000 ; Print pattern wall
G1 X38.1509 Y95.4332 E0.93974 F6000 ; Print pattern wall
G1 E-0.4 F2100 ; Retract
G1 Z1.25 F7200 ; Z hop
G0 X41.5989 Y53.0068 F7200 ; Move to next pattern
G1 Z0.85 F7200 ; Z hop return
G1 E0.4 F2100 ; Un-retract
SET_PRESSURE_ADVANCE ADVANCE=0.01 ; Set pressure advance
M117 PA 0.01
G1 X62.8121 Y74.22 E0.93974 F6000 ; Print pattern wall
G1 X41.5989 Y95.4332 E0.93974 F6000 ; Print pattern wall
G1 E-0.4 F2100 ; Retract
G1 Z1.25 F7200 ; Z hop
G0 X42.1718 Y53.0068 F7200 ; Move to start next pattern wall
G1 Z0.85 F7200 ; Z hop return
G1 E0.4 F2100 ; Un-retract
G1 X63.385 Y74.22 E0.93974 F6000 ; Print pattern wall
G1 X42.1718 Y95.4332 E0.93974 F6000 ; Print pattern wall
G1 E-0.4 F2100 ; Retract
G1 Z1.25 F7200 ; Z hop
G0 X42.7447 Y53.0068 F7200 ; Move to start next pattern wall
G1 Z0.85 F7200 ; Z hop return
G1 E0.4 F2100 ; Un-retract
G1 X63.9579 Y74.22 E0.93974 F6000 ; Print pattern wall
G1 X42.7447 Y95.4332 E0.93974 F6000 ; Print pattern wall
G1 E-0.4 F2100 ; Retract
G1 Z1.25 F7200 ; Z hop
G0 X46.1927 Y53.0068 F7200 ; Move to next pattern
G1 Z0.85 F7200 ; Z hop return
G1 E0.4 F2100 ; Un-retract
SET_PRESSURE_ADVANCE ADVANCE=0.015 ; Set pressure advance
M117 PA 0.015
G1 X67.4059 Y74.22 E0.93974 F6000 ; Print pattern wall
G1 X46.1927 Y95.4332 E0.93974 F6000 ; Print pattern wall
G1 E-0.4 F2100 ; Retract
G1 Z1.25 F7200 ; Z hop
G0 X46.7656 Y53.0068 F7200 ; Move to start next pattern wall
G1 Z0.85 F7200 ; Z hop return
G1 E0.4 F2100 ; Un-retract
G1 X67.9788 Y74.22 E0.93974 F6000 ; Print pattern wall
G1 X46.7656 Y95.4332 E0.93974 F6000 ; Print pattern wall
G1 E-0.4 F2100 ; Retract
G1 Z1.25 F7200 ; Z hop
G0 X47.3384 Y53.0068 F7200 ; Move to start next pattern wall
G1 Z0.85 F7200 ; Z hop return
G1 E0.4 F2100 ; Un-retract
G1 X68.5516 Y74.22 E0.93974 F6000 ; Print pattern wall
G1 X47.3384 Y95.4332 E0.93974 F6000 ; Print pattern wall
G1 E-0.4 F2100 ; Retract
G1 Z1.25 F7200 ; Z hop
G0 X50.7864 Y53.0068 F7200 ; Move to next pattern
G1 Z0.85 F7200 ; Z hop return
G1 E0.4 F2100 ; Un-retract
SET_PRESSURE_ADVANCE ADVANCE=0.02 ; Set pressure advance
M117 PA 0.02
G1 X71.9996 Y74.22 E0.93974 F6000 ; Print pattern wall
G1 X50.7864 Y95.4332 E0.93974 F6000 ; Print pattern wall
G1 E-0.4 F2100 ; Retract
G1 Z1.25 F7200 ; Z hop
G0 X51.3593 Y53.0068 F7200 ; Move to start next pattern wall
G1 Z0.85 F7200 ; Z hop return
G1 E0.4 F2100 ; Un-retract
G1 X72.5725 Y74.22 E0.93974 F6000 ; Print pattern wall
G1 X51.3593 Y95.4332 E0.93974 F6000 ; Print pattern wall
G1 E-0.4 F2100 ; Retract
G1 Z1.25 F7200 ; Z hop
G0 X51.9322 Y53.0068 F7200 ; Move to start next pattern wall
G1 Z0.85 F7200 ; Z hop return
G1 E0.4 F2100 ; Un-retract
G1 X73.1454 Y74.22 E0.93974 F6000 ; Print pattern wall
G1 X51.9322 Y95.4332 E0.93974 F6000 ; Print pattern wall
G1 E-0.4 F2100 ; Retract
G1 Z1.25 F7200 ; Z hop
G0 X55.3802 Y53.0068 F7200 ; Move to next pattern
G1 Z0.85 F7200 ; Z hop return
G1 E0.4 F2100 ; Un-retract
SET_PRESSURE_ADVANCE ADVANCE=0.025 ; Set pressure advance
M117 PA 0.025
G1 X76.5934 Y74.22 E0.93974 F6000 ; Print pattern wall
G1 X55.3802 Y95.4332 E0.93974 F6000 ; Print pattern wall
G1 E-0.4 F2100 ; Retract
G1 Z1.25 F7200 ; Z hop
G0 X55.953 Y53.0068 F7200 ; Move to start next pattern wall
G1 Z0.85 F7200 ; Z hop return
G1 E0.4 F2100 ; Un-retract
G1 X77.1662 Y74.22 E0.93974 F6000 ; Print pattern wall
G1 X55.953 Y95.4332 E0.93974 F6000 ; Print pattern wall
G1 E-0.4 F2100 ; Retract
G1 Z1.25 F7200 ; Z hop
G0 X56.5259 Y53.0068 F7200 ; Move to start next pattern wall
G1 Z0.85 F7200 ; Z hop return
G1 E0.4 F2100 ; Un-retract
G1 X77.7391 Y74.22 E0.93974 F6000 ; Print pattern wall
G1 X56.5259 Y95.4332 E0.93974 F6000 ; Print pattern wall
G1 E-0.4 F2100 ; Retract
G1 Z1.25 F7200 ; Z hop
G0 X59.9739 Y53.0068 F7200 ; Move to next pattern
G1 Z0.85 F7200 ; Z hop return
G1 E0.4 F2100 ; Un-retract
SET_PRESSURE_ADVANCE ADVANCE=0.03 ; Set pressure advance
M117 PA 0.03
G1 X81.1871 Y74.22 E0.93974 F6000 ; Print pattern wall
G1 X59.9739 Y95.4332 E0.93974 F6000 ; Print pattern wall
G1 E-0.4 F2100 ; Retract
G1 Z1.25 F7200 ; Z hop
G0 X60.5468 Y53.0068 F7200 ; Move to start next pattern wall
G1 Z0.85 F7200 ; Z hop return
G1 E0.4 F2100 ; Un-retract
G1 X81.76 Y74.22 E0.93974 F6000 ; Print pattern wall
G1 X60.5468 Y95.4332 E0.93974 F6000 ; Print pattern wall
G1 E-0.4 F2100 ; Retract
G1 Z1.25 F7200 ; Z hop
G0 X61.1196 Y53.0068 F7200 ; Move to start next pattern wall
G1 Z0.85 F7200 ; Z hop return
G1 E0.4 F2100 ; Un-retract
G1 X82.3328 Y74.22 E0.93974 F6000 ; Print pattern wall
G1 X61.1196 Y95.4332 E0.93974 F6000 ; Print pattern wall
G1 E-0.4 F2100 ; Retract
G1 Z1.25 F7200 ; Z hop
G0 X64.5676 Y53.0068 F7200 ; Move to next pattern
G1 Z0.85 F7200 ; Z hop return
G1 E0.4 F2100 ; Un-retract
SET_PRESSURE_ADVANCE ADVANCE=0.035 ; Set pressure advance
M117 PA 0.035
G1 X85.7808 Y74.22 E0.93974 F6000 ; Print pattern wall
G1 X64.5676 Y95.4332 E0.93974 F6000 ; Print pattern wall
G1 E-0.4 F2100 ; Retract
G1 Z1.25 F7200 ; Z hop
G0 X65.1405 Y53.0068 F7200 ; Move to start next pattern wall
G1 Z0.85 F7200 ; Z hop return
G1 E0.4 F2100 ; Un-retract
G1 X86.3537 Y74.22 E0.93974 F6000 ; Print pattern wall
G1 X65.1405 Y95.4332 E0.93974 F6000 ; Print pattern wall
G1 E-0.4 F2100 ; Retract
G1 Z1.25 F7200 ; Z hop
G0 X65.7134 Y53.0068 F7200 ; Move to start next pattern wall
G1 Z0.85 F7200 ; Z hop return
G1 E0.4 F2100 ; Un-retract
G1 X86.9266 Y74.22 E0.93974 F6000 ; Print pattern wall
G1 X65.7134 Y95.4332 E0.93974 F6000 ; Print pattern wall
G1 E-0.4 F2100 ; Retract
G1 Z1.25 F7200 ; Z hop
G0 X69.1614 Y53.0068 F7200 ; Move to next pattern
G1 Z0.85 F7200 ; Z hop return
G1 E0.4 F2100 ; Un-retract
SET_PRESSURE_ADVANCE ADVANCE=0.04 ; Set pressure advance
M117 PA 0.04
G1 X90.3746 Y74.22 E0.93974 F6000 ; Print pattern wall
G1 X69.1614 Y95.4332 E0.93974 F6000 ; Print pattern wall
G1 E-0.4 F2100 ; Retract
G1 Z1.25 F7200 ; Z hop
G0 X69.7342 Y53.0068 F7200 ; Move to start next pattern wall
G1 Z0.85 F7200 ; Z hop return
G1 E0.4 F2100 ; Un-retract
G1 X90.9474 Y74.22 E0.93974 F6000 ; Print pattern wall
G1 X69.7342 Y95.4332 E0.93974 F6000 ; Print pattern wall
G1 E-0.4 F2100 ; Retract
G1 Z1.25 F7200 ; Z hop
G0 X70.3071 Y53.0068 F7200 ; Move to start next pattern wall
G1 Z0.85 F7200 ; Z hop return
G1 E0.4 F2100 ; Un-retract
G1 X91.5203 Y74.22 E0.93974 F6000 ; Print pattern wall
G1 X70.3071 Y95.4332 E0.93974 F6000 ; Print pattern wall
G1 E-0.4 F2100 ; Retract
G1 Z1.25 F7200 ; Z hop
G0 X73.7551 Y53.0068 F7200 ; Move to next pattern
G1 Z0.85 F7200 ; Z hop return
G1 E0.4 F2100 ; Un-retract
SET_PRESSURE_ADVANCE ADVANCE=0.045 ; Set pressure advance
M117 PA 0.045
G1 X94.9683 Y74.22 E0.93974 F6000 ; Print pattern wall
G1 X73.7551 Y95.4332 E0.93974 F6000 ; Print pattern wall
G1 E-0.4 F2100 ; Retract
G1 Z1.25 F7200 ; Z hop
G0 X74.328 Y53.0068 F7200 ; Move to start next pattern wall
G1 Z0.85 F7200 ; Z hop return
G1 E0.4 F2100 ; Un-retract
G1 X95.5412 Y74.22 E0.93974 F6000 ; Print pattern wall
G1 X74.328 Y95.4332 E0.93974 F6000 ; Print pattern wall
G1 E-0.4 F2100 ; Retract
G1 Z1.25 F7200 ; Z hop
G0 X74.9008 Y53.0068 F7200 ; Move to start next pattern wall
G1 Z0.85 F7200 ; Z hop return
G1 E0.4 F2100 ; Un-retract
G1 X96.1141 Y74.22 E0.93974 F6000 ; Print pattern wall
G1 X74.9008 Y95.4332 E0.93974 F6000 ; Print pattern wall
G1 E-0.4 F2100 ; Retract
G1 Z1.25 F7200 ; Z hop
G0 X78.3488 Y53.0068 F7200 ; Move to next pattern
G1 Z0.85 F7200 ; Z hop return
G1 E0.4 F2100 ; Un-retract
SET_PRESSURE_ADVANCE ADVANCE=0.05 ; Set pressure advance
M117 PA 0.05
G1 X99.5621 Y74.22 E0.93974 F6000 ; Print pattern wall
G1 X78.3488 Y95.4332 E0.93974 F6000 ; Print pattern wall
G1 E-0.4 F2100 ; Retract
G1 Z1.25 F7200 ; Z hop
G0 X78.9217 Y53.0068 F7200 ; Move to start next pattern wall
G1 Z0.85 F7200 ; Z hop return
G1 E0.4 F2100 ; Un-retract
G1 X100.1349 Y74.22 E0.93974 F6000 ; Print pattern wall
G1 X78.9217 Y95.4332 E0.93974 F6000 ; Print pattern wall
G1 E-0.4 F2100 ; Retract
G1 Z1.25 F7200 ; Z hop
G0 X79.4946 Y53.0068 F7200 ; Move to start next pattern wall
G1 Z0.85 F7200 ; Z hop return
G1 E0.4 F2100 ; Un-retract
G1 X100.7078 Y74.22 E0.93974 F6000 ; Print pattern wall
G1 X79.4946 Y95.4332 E0.93974 F6000 ; Print pattern wall
G1 E-0.4 F2100 ; Retract
G1 Z1.25 F7200 ; Z hop
G0 X82.9426 Y53.0068 F7200 ; Move to next pattern
G1 Z0.85 F7200 ; Z hop return
G1 E0.4 F2100 ; Un-retract
SET_PRESSURE_ADVANCE ADVANCE=0.055 ; Set pressure advance
M117 PA 0.055
G1 X104.1558 Y74.22 E0.93974 F6000 ; Print pattern wall
G1 X82.9426 Y95.4332 E0.93974 F6000 ; Print pattern wall
G1 E-0.4 F2100 ; Retract
G1 Z1.25 F7200 ; Z hop
G0 X83.5155 Y53.0068 F7200 ; Move to start next pattern wall
G1 Z0.85 F7200 ; Z hop return
G1 E0.4 F2100 ; Un-retract
G1 X104.7287 Y74.22 E0.93974 F6000 ; Print pattern wall
G1 X83.5155 Y95.4332 E0.93974 F6000 ; Print pattern wall
G1 E-0.4 F2100 ; Retract
G1 Z1.25 F7200 ; Z hop
G0 X84.0883 Y53.0068 F7200 ; Move to start next pattern wall
G1 Z0.85 F7200 ; Z hop return
G1 E0.4 F2100 ; Un-retract
G1 X105.3015 Y74.22 E0.93974 F6000 ; Print pattern wall
G1 X84.0883 Y95.4332 E0.93974 F6000 ; Print pattern wall
G1 E-0.4 F2100 ; Retract
G1 Z1.25 F7200 ; Z hop
G0 X87.5363 Y53.0068 F7200 ; Move to next pattern
G1 Z0.85 F7200 ; Z hop return
G1 E0.4 F2100 ; Un-retract
SET_PRESSURE_ADVANCE ADVANCE=0.06 ; Set pressure advance
M117 PA 0.06
G1 X108.7495 Y74.22 E0.93974 F6000 ; Print pattern wall
G1 X87.5363 Y95.4332 E0.93974 F6000 ; Print pattern wall
G1 E-0.4 F2100 ; Retract
G1 Z1.25 F7200 ; Z hop
G0 X88.1092 Y53.0068 F7200 ; Move to start next pattern wall
G1 Z0.85 F7200 ; Z hop return
G1 E0.4 F2100 ; Un-retract
G1 X109.3224 Y74.22 E0.93974 F6000 ; Print pattern wall
G1 X88.1092 Y95.4332 E0.93974 F6000 ; Print pattern wall
G1 E-0.4 F2100 ; Retract
G1 Z1.25 F7200 ; Z hop
G0 X88.6821 Y53.0068 F7200 ; Move to start next pattern wall
G1 Z0.85 F7200 ; Z hop return
G1 E0.4 F2100 ; Un-retract
G1 X109.8953 Y74.22 E0.93974 F6000 ; Print pattern wall
G1 X88.6821 Y95.4332 E0.93974 F6000 ; Print pattern wall
G1 E-0.4 F2100 ; Retract
G1 Z1.25 F7200 ; Z hop
G0 X92.1301 Y53.0068 F7200 ; Move to next pattern
G1 Z0.85 F7200 ; Z hop return
G1 E0.4 F2100 ; Un-retract
SET_PRESSURE_ADVANCE ADVANCE=0.065 ; Set pressure advance
M117 PA 0.065
G1 X113.3433 Y74.22 E0.93974 F6000 ; Print pattern wall
G1 X92.1301 Y95.4332 E0.93974 F6000 ; Print pattern wall
G1 E-0.4 F2100 ; Retract
G1 Z1.25 F7200 ; Z hop
G0 X92.7029 Y53.0068 F7200 ; Move to start next pattern wall
G1 Z0.85 F7200 ; Z hop return
G1 E0.4 F2100 ; Un-retract
G1 X113.9161 Y74.22 E0.93974 F6000 ; Print pattern wall
G1 X92.7029 Y95.4332 E0.93974 F6000 ; Print pattern wall
G1 E-0.4 F2100 ; Retract
G1 Z1.25 F7200 ; Z hop
G0 X93.2758 Y53.0068 F7200 ; Move to start next pattern wall
G1 Z0.85 F7200 ; Z hop return
G1 E0.4 F2100 ; Un-retract
G1 X114.489 Y74.22 E0.93974 F6000 ; Print pattern wall
G1 X93.2758 Y95.4332 E0.93974 F6000 ; Print pattern wall
G1 E-0.4 F2100 ; Retract
G1 Z1.25 F7200 ; Z hop
G0 X96.7238 Y53.0068 F7200 ; Move to next pattern
G1 Z0.85 F7200 ; Z hop return
G1 E0.4 F2100 ; Un-retract
SET_PRESSURE_ADVANCE ADVANCE=0.07 ; Set pressure advance
M117 PA 0.07
G1 X117.937 Y74.22 E0.93974 F6000 ; Print pattern wall
G1 X96.7238 Y95.4332 E0.93974 F6000 ; Print pattern wall
G1 E-0.4 F2100 ; Retract
G1 Z1.25 F7200 ; Z hop
G0 X97.2967 Y53.0068 F7200 ; Move to start next pattern wall
G1 Z0.85 F7200 ; Z hop return
G1 E0.4 F2100 ; Un-retract
G1 X118.5099 Y74.22 E0.93974 F6000 ; Print pattern wall
G1 X97.2967 Y95.4332 E0.93974 F6000 ; Print pattern wall
G1 E-0.4 F2100 ; Retract
G1 Z1.25 F7200 ; Z hop
G0 X97.8695 Y53.0068 F7200 ; Move to start next pattern wall
G1 Z0.85 F7200 ; Z hop return
G1 E0.4 F2100 ; Un-retract
G1 X119.0827 Y74.22 E0.93974 F6000 ; Print pattern wall
G1 X97.8695 Y95.4332 E0.93974 F6000 ; Print pattern wall
G1 E-0.4 F2100 ; Retract
G1 Z1.25 F7200 ; Z hop
G0 X101.3175 Y53.0068 F7200 ; Move to next pattern
G1 Z0.85 F7200 ; Z hop return
G1 E0.4 F2100 ; Un-retract
SET_PRESSURE_ADVANCE ADVANCE=0.075 ; Set pressure advance
M117 PA 0.075
G1 X122.5307 Y74.22 E0.93974 F6000 ; Print pattern wall
G1 X101.3175 Y95.4332 E0.93974 F6000 ; Print pattern wall
G1 E-0.4 F2100 ; Retract
G1 Z1.25 F7200 ; Z hop
G0 X101.8904 Y53.0068 F7200 ; Move to start next pattern wall
G1 Z0.85 F7200 ; Z hop return
G1 E0.4 F2100 ; Un-retract
G1 X123.1036 Y74.22 E0.93974 F6000 ; Print pattern wall
G1 X101.8904 Y95.4332 E0.93974 F6000 ; Print pattern wall
G1 E-0.4 F2100 ; Retract
G1 Z1.25 F7200 ; Z hop
G0 X102.4633 Y53.0068 F7200 ; Move to start next pattern wall
G1 Z0.85 F7200 ; Z hop return
G1 E0.4 F2100 ; Un-retract
G1 X123.6765 Y74.22 E0.93974 F6000 ; Print pattern wall
G1 X102.4633 Y95.4332 E0.93974 F6000 ; Print pattern wall
G1 E-0.4 F2100 ; Retract
G1 Z1.25 F7200 ; Z hop
G0 X105.9113 Y53.0068 F7200 ; Move to next pattern
G1 Z0.85 F7200 ; Z hop return
G1 E0.4 F2100 ; Un-retract
SET_PRESSURE_ADVANCE ADVANCE=0.08 ; Set pressure advance
M117 PA 0.08
G1 X127.1245 Y74.22 E0.93974 F6000 ; Print pattern wall
G1 X105.9113 Y95.4332 E0.93974 F6000 ; Print pattern wall
G1 E-0.4 F2100 ; Retract
G1 Z1.25 F7200 ; Z hop
G0 X106.4841 Y53.0068 F7200 ; Move to start next pattern wall
G1 Z0.85 F7200 ; Z hop return
G1 E0.4 F2100 ; Un-retract
G1 X127.6974 Y74.22 E0.93974 F6000 ; Print pattern wall
G1 X106.4841 Y95.4332 E0.93974 F6000 ; Print pattern wall
G1 E-0.4 F2100 ; Retract
G1 Z1.25 F7200 ; Z hop
G0 X107.057 Y53.0068 F7200 ; Move to start next pattern wall
G1 Z0.85 F7200 ; Z hop return
G1 E0.4 F2100 ; Un-retract
G1 X128.2702 Y74.22 E0.93974 F6000 ; Print pattern wall
G1 X107.057 Y95.4332 E0.93974 F6000 ; Print pattern wall
SET_PRESSURE_ADVANCE ADVANCE=0 ; Set pressure advance back to start value
M117 PA 0
G1 E-0.4 F2100 ; Retract
G1 Z1.25 F7200 ; Z hop
G0 Z5.85 F7200 ; Z raise
M104 S0 ; Turn off hotend
M140 S0 ; Turn off bed
M107    ; Turn off fan
;
; End G-code
;
PRINT_END ; End macro. Change name to match yours
;
; FINISH
;
