
; ### Ellis' Pressure Advance / Linear Advance Calibration Tool ###
;
; Original Marlin linear advance calibration tool by Sineos [https://github.com/Sineos]
; Heavily modified/rewritten by Andrew Ellis [https://github.com/AndrewEllis93]
;
; -------------------------------------------
; Generated: Thu Jan 05 2023 13:41:34 GMT-0800 (Pacific Standard Time)
; -------------------------------------------
;
; Advanced Mode: false
;
; Printer:
;  - Firmware: klipper
;  - Bed Shape: Rect
;  - Bed Size X: 160 mm
;  - Bed Size Y: 160 mm
;  - Origin Bed Center: false
;  - Travel Speed: 120 mm/s
;  - Nozzle Diameter: 0.4 mm
;  - Filament Diameter: 1.75 mm
;  - Extrusion Multiplier: 0.98
;
; Retraction / Z Hop:
;  - Retraction Distance: 0.4 mm
;  - Retract Speed: 35 mm/s
;  - Unretract Speed: 35 mm/s
;  - Z Hop Enable: true
;  - Z Hop Height: 0.4mm
;
; First Layer Settings:
;  - First Layer Height: 0.26 mm
;  - First Layer Printing Speed: 30 mm/s
;  - First Layer Fan Speed: 0%
;  - Anchor Option: anchor_frame
;
; Print Settings:
;  - Layer Height: 0.2 mm
;  - Print Speed: 100 mm/s
;  - Acceleration: Disabled
;  - Fan Speed: 0%
;
; Pressure Advance Stepping:
;  - PA Start Value: 0
;  - PA End Value: 0.08
;  - PA Increment: 0.005
;
; Start / End G-code:
;  - Hotend Temp: 245C
;  - Bed Temp: 110C
;  - Don't Add G28: true
;  - Don't Add Heating G-Codes: true
;
; Calculated Values:
;  - Print Size X: 84.71 mm
;  - Print Size Y: 53.99 mm
;  - Number of Patterns to Print: 17
;  - PA Values: 0, 0.005, 0.01, 0.015, 0.02, 0.025, 0.03, 0.035, 0.04, 0.045, 0.05, 0.055, 0.06, 0.065, 0.07, 0.075, 0.08
;
; Prepare printing
;
PRINT_START BED=110 EXTRUDER=245
G21 ; Millimeter units
G90 ; Absolute XYZ
M83 ; Relative E
G92 E0 ; Reset extruder distance
;
;  Begin printing
;
M106 S0 ; Set fan speed
G1 E-0.4 F2100 ; Retract
G0 Z5 F7200 ; Z raise
G0 X37.646 Y53.0068 F7200 ; Move to start position
G0 Z0.26 F7200 ; Move to start layer height
G1 E0.4 F2100 ; Un-retract
SET_PRESSURE_ADVANCE ADVANCE=0 ; Set pressure advance to start value
M117 PA 0
G1 X37.646 Y95.4332 E2.26608 F1800 ; Draw perimeter (up)
G1 X122.354 Y95.4332 E4.52443 F1800 ; Draw perimeter (right)
G1 X122.354 Y53.0068 E2.26608 F1800 ; Draw perimeter (down)
G1 X37.646 Y53.0068 E4.52443 F1800 ; Draw perimeter (left)
G0 X38.1502 Y53.511 F7200 ; Step inwards to print next perimeter
G1 X38.1502 Y94.929 E2.21222 F1800 ; Draw perimeter (up)
G1 X121.8498 Y94.929 E4.47057 F1800 ; Draw perimeter (right)
G1 X121.8498 Y53.511 E2.21222 F1800 ; Draw perimeter (down)
G1 X38.1502 Y53.511 E4.47057 F1800 ; Draw perimeter (left)
G0 X38.6544 Y54.0152 F7200 ; Step inwards to print next perimeter
G1 X38.6544 Y94.4248 E2.15836 F1800 ; Draw perimeter (up)
G1 X121.3456 Y94.4248 E4.41671 F1800 ; Draw perimeter (right)
G1 X121.3456 Y54.0152 E2.15836 F1800 ; Draw perimeter (down)
G1 X38.6544 Y54.0152 E4.41671 F1800 ; Draw perimeter (left)
G0 X39.1586 Y54.5194 F7200 ; Step inwards to print next perimeter
G1 X39.1586 Y93.9206 E2.1045 F1800 ; Draw perimeter (up)
G1 X120.8414 Y93.9206 E4.36285 F1800 ; Draw perimeter (right)
G1 X120.8414 Y54.5194 E2.1045 F1800 ; Draw perimeter (down)
G1 X39.1586 Y54.5194 E4.36285 F1800 ; Draw perimeter (left)
G1 E-0.4 F2100 ; Retract
G1 Z0.66 F7200 ; Z hop
G0 X37.646 Y95.9374 F7200 ; Move to box start
G1 Z0.26 F7200 ; Z hop return
G1 E0.4 F2100 ; Un-retract
G1 X37.646 Y107.4416 E0.61446 F1800 ; Draw perimeter (up)
G1 X101.9005 Y107.4416 E3.43196 F1800 ; Draw perimeter (right)
G1 X101.9005 Y95.9374 E0.61446 F1800 ; Draw perimeter (down)
G1 X37.646 Y95.9374 E3.43196 F1800 ; Draw perimeter (left)
G0 X38.1502 Y96.4416 F7200 ; Step inwards to print next perimeter
G1 X38.1502 Y106.9374 E0.5606 F1800 ; Draw perimeter (up)
G1 X101.3963 Y106.9374 E3.3781 F1800 ; Draw perimeter (right)
G1 X101.3963 Y96.4416 E0.5606 F1800 ; Draw perimeter (down)
G1 X38.1502 Y96.4416 E3.3781 F1800 ; Draw perimeter (left)
G0 X38.6544 Y96.9458 F7200 ; Step inwards to print next perimeter
G1 X38.6544 Y106.4332 E0.50674 F1800 ; Draw perimeter (up)
G1 X100.8921 Y106.4332 E3.32424 F1800 ; Draw perimeter (right)
G1 X100.8921 Y96.9458 E0.50674 F1800 ; Draw perimeter (down)
G1 X38.6544 Y96.9458 E3.32424 F1800 ; Draw perimeter (left)
G0 X39.1586 Y97.45 F7200 ; Step inwards to print next perimeter
G1 X39.1586 Y105.929 E0.45288 F1800 ; Draw perimeter (up)
G1 X100.3879 Y105.929 E3.27038 F1800 ; Draw perimeter (right)
G1 X100.3879 Y97.45 E0.45288 F1800 ; Draw perimeter (down)
G1 X39.1586 Y97.45 E3.27038 F1800 ; Draw perimeter (left)
G0 X39.5319 Y97.8234 F7200 ; Move to fill start
G0 X40.245 Y97.8234 F7200 ; Move
G1 X39.5319 Y98.5364 E0.05386 F1800 ; Fill
G0 X39.5319 Y99.2495 F7200 ; Move
G1 X40.958 Y97.8234 E0.10772 F1800 ; Fill
G0 X41.6711 Y97.8234 F7200 ; Move
G1 X39.5319 Y99.9625 E0.16158 F1800 ; Fill
G0 X39.5319 Y100.6756 F7200 ; Move
G1 X42.3841 Y97.8234 E0.21544 F1800 ; Fill
G0 X43.0972 Y97.8234 F7200 ; Move
G1 X39.5319 Y101.3886 E0.26931 F1800 ; Fill
G0 X39.5319 Y102.1017 F7200 ; Move
G1 X43.8102 Y97.8234 E0.32317 F1800 ; Fill
G0 X44.5233 Y97.8234 F7200 ; Move
G1 X39.5319 Y102.8147 E0.37703 F1800 ; Fill
G0 X39.5319 Y103.5278 F7200 ; Move
G1 X45.2363 Y97.8234 E0.43089 F1800 ; Fill
G0 X45.9494 Y97.8234 F7200 ; Move
G1 X39.5319 Y104.2408 E0.48475 F1800 ; Fill
G0 X39.5319 Y104.9539 F7200 ; Move
G1 X46.6625 Y97.8234 E0.53861 F1800 ; Fill
G0 X47.3755 Y97.8234 F7200 ; Move
G1 X39.6432 Y105.5557 E0.58407 F1800 ; Fill
G0 X40.3562 Y105.5557 F7200 ; Move
G1 X48.0886 Y97.8234 E0.58407 F1800 ; Fill
G0 X48.8016 Y97.8234 F7200 ; Move
G1 X41.0693 Y105.5557 E0.58407 F1800 ; Fill
G0 X41.7823 Y105.5557 F7200 ; Move
G1 X49.5147 Y97.8234 E0.58407 F1800 ; Fill
G0 X50.2277 Y97.8234 F7200 ; Move
G1 X42.4954 Y105.5557 E0.58407 F1800 ; Fill
G0 X43.2084 Y105.5557 F7200 ; Move
G1 X50.9408 Y97.8234 E0.58407 F1800 ; Fill
G0 X51.6538 Y97.8234 F7200 ; Move
G1 X43.9215 Y105.5557 E0.58407 F1800 ; Fill
G0 X44.6345 Y105.5557 F7200 ; Move
G1 X52.3669 Y97.8234 E0.58407 F1800 ; Fill
G0 X53.0799 Y97.8234 F7200 ; Move
G1 X45.3476 Y105.5557 E0.58407 F1800 ; Fill
G0 X46.0606 Y105.5557 F7200 ; Move
G1 X53.793 Y97.8234 E0.58407 F1800 ; Fill
G0 X54.506 Y97.8234 F7200 ; Move
G1 X46.7737 Y105.5557 E0.58407 F1800 ; Fill
G0 X47.4868 Y105.5557 F7200 ; Move
G1 X55.2191 Y97.8234 E0.58407 F1800 ; Fill
G0 X55.9321 Y97.8234 F7200 ; Move
G1 X48.1998 Y105.5557 E0.58407 F1800 ; Fill
G0 X48.9129 Y105.5557 F7200 ; Move
G1 X56.6452 Y97.8234 E0.58407 F1800 ; Fill
G0 X57.3582 Y97.8234 F7200 ; Move
G1 X49.6259 Y105.5557 E0.58407 F1800 ; Fill
G0 X50.339 Y105.5557 F7200 ; Move
G1 X58.0713 Y97.8234 E0.58407 F1800 ; Fill
G0 X58.7843 Y97.8234 F7200 ; Move
G1 X51.052 Y105.5557 E0.58407 F1800 ; Fill
G0 X51.7651 Y105.5557 F7200 ; Move
G1 X59.4974 Y97.8234 E0.58407 F1800 ; Fill
G0 X60.2104 Y97.8234 F7200 ; Move
G1 X52.4781 Y105.5557 E0.58407 F1800 ; Fill
G0 X53.1912 Y105.5557 F7200 ; Move
G1 X60.9235 Y97.8234 E0.58407 F1800 ; Fill
G0 X61.6365 Y97.8234 F7200 ; Move
G1 X53.9042 Y105.5557 E0.58407 F1800 ; Fill
G0 X54.6173 Y105.5557 F7200 ; Move
G1 X62.3496 Y97.8234 E0.58407 F1800 ; Fill
G0 X63.0626 Y97.8234 F7200 ; Move
G1 X55.3303 Y105.5557 E0.58407 F1800 ; Fill
G0 X56.0434 Y105.5557 F7200 ; Move
G1 X63.7757 Y97.8234 E0.58407 F1800 ; Fill
G0 X64.4887 Y97.8234 F7200 ; Move
G1 X56.7564 Y105.5557 E0.58407 F1800 ; Fill
G0 X57.4695 Y105.5557 F7200 ; Move
G1 X65.2018 Y97.8234 E0.58407 F1800 ; Fill
G0 X65.9148 Y97.8234 F7200 ; Move
G1 X58.1825 Y105.5557 E0.58407 F1800 ; Fill
G0 X58.8956 Y105.5557 F7200 ; Move
G1 X66.6279 Y97.8234 E0.58407 F1800 ; Fill
G0 X67.3409 Y97.8234 F7200 ; Move
G1 X59.6086 Y105.5557 E0.58407 F1800 ; Fill
G0 X60.3217 Y105.5557 F7200 ; Move
G1 X68.054 Y97.8234 E0.58407 F1800 ; Fill
G0 X68.767 Y97.8234 F7200 ; Move
G1 X61.0347 Y105.5557 E0.58407 F1800 ; Fill
G0 X61.7478 Y105.5557 F7200 ; Move
G1 X69.4801 Y97.8234 E0.58407 F1800 ; Fill
G0 X70.1931 Y97.8234 F7200 ; Move
G1 X62.4608 Y105.5557 E0.58407 F1800 ; Fill
G0 X63.1739 Y105.5557 F7200 ; Move
G1 X70.9062 Y97.8234 E0.58407 F1800 ; Fill
G0 X71.6193 Y97.8234 F7200 ; Move
G1 X63.8869 Y105.5557 E0.58407 F1800 ; Fill
G0 X64.6 Y105.5557 F7200 ; Move
G1 X72.3323 Y97.8234 E0.58407 F1800 ; Fill
G0 X73.0454 Y97.8234 F7200 ; Move
G1 X65.313 Y105.5557 E0.58407 F1800 ; Fill
G0 X66.0261 Y105.5557 F7200 ; Move
G1 X73.7584 Y97.8234 E0.58407 F1800 ; Fill
G0 X74.4715 Y97.8234 F7200 ; Move
G1 X66.7391 Y105.5557 E0.58407 F1800 ; Fill
G0 X67.4522 Y105.5557 F7200 ; Move
G1 X75.1845 Y97.8234 E0.58407 F1800 ; Fill
G0 X75.8976 Y97.8234 F7200 ; Move
G1 X68.1652 Y105.5557 E0.58407 F1800 ; Fill
G0 X68.8783 Y105.5557 F7200 ; Move
G1 X76.6106 Y97.8234 E0.58407 F1800 ; Fill
G0 X77.3237 Y97.8234 F7200 ; Move
G1 X69.5913 Y105.5557 E0.58407 F1800 ; Fill
G0 X70.3044 Y105.5557 F7200 ; Move
G1 X78.0367 Y97.8234 E0.58407 F1800 ; Fill
G0 X78.7498 Y97.8234 F7200 ; Move
G1 X71.0175 Y105.5557 E0.58407 F1800 ; Fill
G0 X71.7305 Y105.5557 F7200 ; Move
G1 X79.4628 Y97.8234 E0.58407 F1800 ; Fill
G0 X80.1759 Y97.8234 F7200 ; Move
G1 X72.4436 Y105.5557 E0.58407 F1800 ; Fill
G0 X73.1566 Y105.5557 F7200 ; Move
G1 X80.8889 Y97.8234 E0.58407 F1800 ; Fill
G0 X81.602 Y97.8234 F7200 ; Move
G1 X73.8697 Y105.5557 E0.58407 F1800 ; Fill
G0 X74.5827 Y105.5557 F7200 ; Move
G1 X82.315 Y97.8234 E0.58407 F1800 ; Fill
G0 X83.0281 Y97.8234 F7200 ; Move
G1 X75.2958 Y105.5557 E0.58407 F1800 ; Fill
G0 X76.0088 Y105.5557 F7200 ; Move
G1 X83.7411 Y97.8234 E0.58407 F1800 ; Fill
G0 X84.4542 Y97.8234 F7200 ; Move
G1 X76.7219 Y105.5557 E0.58407 F1800 ; Fill
G0 X77.4349 Y105.5557 F7200 ; Move
G1 X85.1672 Y97.8234 E0.58407 F1800 ; Fill
G0 X85.8803 Y97.8234 F7200 ; Move
G1 X78.148 Y105.5557 E0.58407 F1800 ; Fill
G0 X78.861 Y105.5557 F7200 ; Move
G1 X86.5933 Y97.8234 E0.58407 F1800 ; Fill
G0 X87.3064 Y97.8234 F7200 ; Move
G1 X79.5741 Y105.5557 E0.58407 F1800 ; Fill
G0 X80.2871 Y105.5557 F7200 ; Move
G1 X88.0194 Y97.8234 E0.58407 F1800 ; Fill
G0 X88.7325 Y97.8234 F7200 ; Move
G1 X81.0002 Y105.5557 E0.58407 F1800 ; Fill
G0 X81.7132 Y105.5557 F7200 ; Move
G1 X89.4455 Y97.8234 E0.58407 F1800 ; Fill
G0 X90.1586 Y97.8234 F7200 ; Move
G1 X82.4263 Y105.5557 E0.58407 F1800 ; Fill
G0 X83.1393 Y105.5557 F7200 ; Move
G1 X90.8716 Y97.8234 E0.58407 F1800 ; Fill
G0 X91.5847 Y97.8234 F7200 ; Move
G1 X83.8524 Y105.5557 E0.58407 F1800 ; Fill
G0 X84.5654 Y105.5557 F7200 ; Move
G1 X92.2977 Y97.8234 E0.58407 F1800 ; Fill
G0 X93.0108 Y97.8234 F7200 ; Move
G1 X85.2785 Y105.5557 E0.58407 F1800 ; Fill
G0 X85.9915 Y105.5557 F7200 ; Move
G1 X93.7238 Y97.8234 E0.58407 F1800 ; Fill
G0 X94.4369 Y97.8234 F7200 ; Move
G1 X86.7046 Y105.5557 E0.58407 F1800 ; Fill
G0 X87.4176 Y105.5557 F7200 ; Move
G1 X95.1499 Y97.8234 E0.58407 F1800 ; Fill
G0 X95.863 Y97.8234 F7200 ; Move
G1 X88.1307 Y105.5557 E0.58407 F1800 ; Fill
G0 X88.8437 Y105.5557 F7200 ; Move
G1 X96.5761 Y97.8234 E0.58407 F1800 ; Fill
G0 X97.2891 Y97.8234 F7200 ; Move
G1 X89.5568 Y105.5557 E0.58407 F1800 ; Fill
G0 X90.2698 Y105.5557 F7200 ; Move
G1 X98.0022 Y97.8234 E0.58407 F1800 ; Fill
G0 X98.7152 Y97.8234 F7200 ; Move
G1 X90.9829 Y105.5557 E0.58407 F1800 ; Fill
G0 X91.6959 Y105.5557 F7200 ; Move
G1 X99.4283 Y97.8234 E0.58407 F1800 ; Fill
G0 X100.0145 Y97.9501 F7200 ; Move
G1 X92.409 Y105.5557 E0.57449 F1800 ; Fill
G0 X93.122 Y105.5557 F7200 ; Move
G1 X100.0145 Y98.6632 E0.52063 F1800 ; Fill
G0 X100.0145 Y99.3762 F7200 ; Move
G1 X93.8351 Y105.5557 E0.46677 F1800 ; Fill
G0 X94.5481 Y105.5557 F7200 ; Move
G1 X100.0145 Y100.0893 E0.41291 F1800 ; Fill
G0 X100.0145 Y100.8023 F7200 ; Move
G1 X95.2612 Y105.5557 E0.35905 F1800 ; Fill
G0 X95.9743 Y105.5557 F7200 ; Move
G1 X100.0145 Y101.5154 E0.30519 F1800 ; Fill
G0 X100.0145 Y102.2285 F7200 ; Move
G1 X96.6873 Y105.5557 E0.25132 F1800 ; Fill
G0 X97.4004 Y105.5557 F7200 ; Move
G1 X100.0145 Y102.9415 E0.19746 F1800 ; Fill
G0 X100.0145 Y103.6546 F7200 ; Move
G1 X98.1134 Y105.5557 E0.1436 F1800 ; Fill
G0 X98.8265 Y105.5557 F7200 ; Move
G1 X100.0145 Y104.3676 E0.08974 F1800 ; Fill
G0 X100.0145 Y105.0807 F7200 ; Move
G1 X99.5395 Y105.5557 E0.03588 F1800 ; Fill
G0 Z0.26 F7200 ; Move to layer height
G1 E-0.4 F2100 ; Retract
G1 Z0.66 F7200 ; Z hop
G0 X42.2362 Y54.8927 F7200 ; Move to pattern start

G1 Z0.26 F7200 ; Z hop return
G1 E0.4 F2100 ; Un-retract
SET_PRESSURE_ADVANCE ADVANCE=0 ; Set pressure advance
M117 PA 0
G1 X61.5635 Y74.22 E1.1414 F1800 ; Print pattern wall
G1 X42.2362 Y93.5473 E1.1414 F1800 ; Print pattern wall
G1 E-0.4 F2100 ; Retract
G1 Z0.66 F7200 ; Z hop
G0 X42.8119 Y54.8927 F7200 ; Move to start next pattern wall
G1 Z0.26 F7200 ; Z hop return
G1 E0.4 F2100 ; Un-retract
G1 X62.1392 Y74.22 E1.1414 F1800 ; Print pattern wall
G1 X42.8119 Y93.5473 E1.1414 F1800 ; Print pattern wall
G1 E-0.4 F2100 ; Retract
G1 Z0.66 F7200 ; Z hop
G0 X43.3876 Y54.8927 F7200 ; Move to start next pattern wall
G1 Z0.26 F7200 ; Z hop return
G1 E0.4 F2100 ; Un-retract
G1 X62.7149 Y74.22 E1.1414 F1800 ; Print pattern wall
G1 X43.3876 Y93.5473 E1.1414 F1800 ; Print pattern wall
G1 E-0.4 F2100 ; Retract
G1 Z0.66 F7200 ; Z hop
G0 X45.8376 Y54.8927 F7200 ; Move to next pattern
G1 Z0.26 F7200 ; Z hop return
G1 E0.4 F2100 ; Un-retract
SET_PRESSURE_ADVANCE ADVANCE=0.005 ; Set pressure advance
M117 PA 0.005
G1 X65.1649 Y74.22 E1.1414 F1800 ; Print pattern wall
G1 X45.8376 Y93.5473 E1.1414 F1800 ; Print pattern wall
G1 E-0.4 F2100 ; Retract
G1 Z0.66 F7200 ; Z hop
G0 X46.4133 Y54.8927 F7200 ; Move to start next pattern wall
G1 Z0.26 F7200 ; Z hop return
G1 E0.4 F2100 ; Un-retract
G1 X65.7406 Y74.22 E1.1414 F1800 ; Print pattern wall
G1 X46.4133 Y93.5473 E1.1414 F1800 ; Print pattern wall
G1 E-0.4 F2100 ; Retract
G1 Z0.66 F7200 ; Z hop
G0 X46.989 Y54.8927 F7200 ; Move to start next pattern wall
G1 Z0.26 F7200 ; Z hop return
G1 E0.4 F2100 ; Un-retract
G1 X66.3163 Y74.22 E1.1414 F1800 ; Print pattern wall
G1 X46.989 Y93.5473 E1.1414 F1800 ; Print pattern wall
G1 E-0.4 F2100 ; Retract
G1 Z0.66 F7200 ; Z hop
G0 X49.439 Y54.8927 F7200 ; Move to next pattern
G1 Z0.26 F7200 ; Z hop return
G1 E0.4 F2100 ; Un-retract
SET_PRESSURE_ADVANCE ADVANCE=0.01 ; Set pressure advance
M117 PA 0.01
G1 X68.7663 Y74.22 E1.1414 F1800 ; Print pattern wall
G1 X49.439 Y93.5473 E1.1414 F1800 ; Print pattern wall
G1 E-0.4 F2100 ; Retract
G1 Z0.66 F7200 ; Z hop
G0 X50.0147 Y54.8927 F7200 ; Move to start next pattern wall
G1 Z0.26 F7200 ; Z hop return
G1 E0.4 F2100 ; Un-retract
G1 X69.342 Y74.22 E1.1414 F1800 ; Print pattern wall
G1 X50.0147 Y93.5473 E1.1414 F1800 ; Print pattern wall
G1 E-0.4 F2100 ; Retract
G1 Z0.66 F7200 ; Z hop
G0 X50.5904 Y54.8927 F7200 ; Move to start next pattern wall
G1 Z0.26 F7200 ; Z hop return
G1 E0.4 F2100 ; Un-retract
G1 X69.9177 Y74.22 E1.1414 F1800 ; Print pattern wall
G1 X50.5904 Y93.5473 E1.1414 F1800 ; Print pattern wall
G1 E-0.4 F2100 ; Retract
G1 Z0.66 F7200 ; Z hop
G0 X53.0404 Y54.8927 F7200 ; Move to next pattern
G1 Z0.26 F7200 ; Z hop return
G1 E0.4 F2100 ; Un-retract
SET_PRESSURE_ADVANCE ADVANCE=0.015 ; Set pressure advance
M117 PA 0.015
G1 X72.3677 Y74.22 E1.1414 F1800 ; Print pattern wall
G1 X53.0404 Y93.5473 E1.1414 F1800 ; Print pattern wall
G1 E-0.4 F2100 ; Retract
G1 Z0.66 F7200 ; Z hop
G0 X53.6161 Y54.8927 F7200 ; Move to start next pattern wall
G1 Z0.26 F7200 ; Z hop return
G1 E0.4 F2100 ; Un-retract
G1 X72.9434 Y74.22 E1.1414 F1800 ; Print pattern wall
G1 X53.6161 Y93.5473 E1.1414 F1800 ; Print pattern wall
G1 E-0.4 F2100 ; Retract
G1 Z0.66 F7200 ; Z hop
G0 X54.1918 Y54.8927 F7200 ; Move to start next pattern wall
G1 Z0.26 F7200 ; Z hop return
G1 E0.4 F2100 ; Un-retract
G1 X73.5191 Y74.22 E1.1414 F1800 ; Print pattern wall
G1 X54.1918 Y93.5473 E1.1414 F1800 ; Print pattern wall
G1 E-0.4 F2100 ; Retract
G1 Z0.66 F7200 ; Z hop
G0 X56.6418 Y54.8927 F7200 ; Move to next pattern
G1 Z0.26 F7200 ; Z hop return
G1 E0.4 F2100 ; Un-retract
SET_PRESSURE_ADVANCE ADVANCE=0.02 ; Set pressure advance
M117 PA 0.02
G1 X75.9691 Y74.22 E1.1414 F1800 ; Print pattern wall
G1 X56.6418 Y93.5473 E1.1414 F1800 ; Print pattern wall
G1 E-0.4 F2100 ; Retract
G1 Z0.66 F7200 ; Z hop
G0 X57.2175 Y54.8927 F7200 ; Move to start next pattern wall
G1 Z0.26 F7200 ; Z hop return
G1 E0.4 F2100 ; Un-retract
G1 X76.5448 Y74.22 E1.1414 F1800 ; Print pattern wall
G1 X57.2175 Y93.5473 E1.1414 F1800 ; Print pattern wall
G1 E-0.4 F2100 ; Retract
G1 Z0.66 F7200 ; Z hop
G0 X57.7932 Y54.8927 F7200 ; Move to start next pattern wall
G1 Z0.26 F7200 ; Z hop return
G1 E0.4 F2100 ; Un-retract
G1 X77.1205 Y74.22 E1.1414 F1800 ; Print pattern wall
G1 X57.7932 Y93.5473 E1.1414 F1800 ; Print pattern wall
G1 E-0.4 F2100 ; Retract
G1 Z0.66 F7200 ; Z hop
G0 X60.2432 Y54.8927 F7200 ; Move to next pattern
G1 Z0.26 F7200 ; Z hop return
G1 E0.4 F2100 ; Un-retract
SET_PRESSURE_ADVANCE ADVANCE=0.025 ; Set pressure advance
M117 PA 0.025
G1 X79.5705 Y74.22 E1.1414 F1800 ; Print pattern wall
G1 X60.2432 Y93.5473 E1.1414 F1800 ; Print pattern wall
G1 E-0.4 F2100 ; Retract
G1 Z0.66 F7200 ; Z hop
G0 X60.8189 Y54.8927 F7200 ; Move to start next pattern wall
G1 Z0.26 F7200 ; Z hop return
G1 E0.4 F2100 ; Un-retract
G1 X80.1462 Y74.22 E1.1414 F1800 ; Print pattern wall
G1 X60.8189 Y93.5473 E1.1414 F1800 ; Print pattern wall
G1 E-0.4 F2100 ; Retract
G1 Z0.66 F7200 ; Z hop
G0 X61.3946 Y54.8927 F7200 ; Move to start next pattern wall
G1 Z0.26 F7200 ; Z hop return
G1 E0.4 F2100 ; Un-retract
G1 X80.7219 Y74.22 E1.1414 F1800 ; Print pattern wall
G1 X61.3946 Y93.5473 E1.1414 F1800 ; Print pattern wall
G1 E-0.4 F2100 ; Retract
G1 Z0.66 F7200 ; Z hop
G0 X63.8446 Y54.8927 F7200 ; Move to next pattern
G1 Z0.26 F7200 ; Z hop return
G1 E0.4 F2100 ; Un-retract
SET_PRESSURE_ADVANCE ADVANCE=0.03 ; Set pressure advance
M117 PA 0.03
G1 X83.1719 Y74.22 E1.1414 F1800 ; Print pattern wall
G1 X63.8446 Y93.5473 E1.1414 F1800 ; Print pattern wall
G1 E-0.4 F2100 ; Retract
G1 Z0.66 F7200 ; Z hop
G0 X64.4203 Y54.8927 F7200 ; Move to start next pattern wall
G1 Z0.26 F7200 ; Z hop return
G1 E0.4 F2100 ; Un-retract
G1 X83.7476 Y74.22 E1.1414 F1800 ; Print pattern wall
G1 X64.4203 Y93.5473 E1.1414 F1800 ; Print pattern wall
G1 E-0.4 F2100 ; Retract
G1 Z0.66 F7200 ; Z hop
G0 X64.996 Y54.8927 F7200 ; Move to start next pattern wall
G1 Z0.26 F7200 ; Z hop return
G1 E0.4 F2100 ; Un-retract
G1 X84.3233 Y74.22 E1.1414 F1800 ; Print pattern wall
G1 X64.996 Y93.5473 E1.1414 F1800 ; Print pattern wall
G1 E-0.4 F2100 ; Retract
G1 Z0.66 F7200 ; Z hop
G0 X67.446 Y54.8927 F7200 ; Move to next pattern
G1 Z0.26 F7200 ; Z hop return
G1 E0.4 F2100 ; Un-retract
SET_PRESSURE_ADVANCE ADVANCE=0.035 ; Set pressure advance
M117 PA 0.035
G1 X86.7733 Y74.22 E1.1414 F1800 ; Print pattern wall
G1 X67.446 Y93.5473 E1.1414 F1800 ; Print pattern wall
G1 E-0.4 F2100 ; Retract
G1 Z0.66 F7200 ; Z hop
G0 X68.0217 Y54.8927 F7200 ; Move to start next pattern wall
G1 Z0.26 F7200 ; Z hop return
G1 E0.4 F2100 ; Un-retract
G1 X87.349 Y74.22 E1.1414 F1800 ; Print pattern wall
G1 X68.0217 Y93.5473 E1.1414 F1800 ; Print pattern wall
G1 E-0.4 F2100 ; Retract
G1 Z0.66 F7200 ; Z hop
G0 X68.5974 Y54.8927 F7200 ; Move to start next pattern wall
G1 Z0.26 F7200 ; Z hop return
G1 E0.4 F2100 ; Un-retract
G1 X87.9247 Y74.22 E1.1414 F1800 ; Print pattern wall
G1 X68.5974 Y93.5473 E1.1414 F1800 ; Print pattern wall
G1 E-0.4 F2100 ; Retract
G1 Z0.66 F7200 ; Z hop
G0 X71.0474 Y54.8927 F7200 ; Move to next pattern
G1 Z0.26 F7200 ; Z hop return
G1 E0.4 F2100 ; Un-retract
SET_PRESSURE_ADVANCE ADVANCE=0.04 ; Set pressure advance
M117 PA 0.04
G1 X90.3747 Y74.22 E1.1414 F1800 ; Print pattern wall
G1 X71.0474 Y93.5473 E1.1414 F1800 ; Print pattern wall
G1 E-0.4 F2100 ; Retract
G1 Z0.66 F7200 ; Z hop
G0 X71.6231 Y54.8927 F7200 ; Move to start next pattern wall
G1 Z0.26 F7200 ; Z hop return
G1 E0.4 F2100 ; Un-retract
G1 X90.9504 Y74.22 E1.1414 F1800 ; Print pattern wall
G1 X71.6231 Y93.5473 E1.1414 F1800 ; Print pattern wall
G1 E-0.4 F2100 ; Retract
G1 Z0.66 F7200 ; Z hop
G0 X72.1988 Y54.8927 F7200 ; Move to start next pattern wall
G1 Z0.26 F7200 ; Z hop return
G1 E0.4 F2100 ; Un-retract
G1 X91.5261 Y74.22 E1.1414 F1800 ; Print pattern wall
G1 X72.1988 Y93.5473 E1.1414 F1800 ; Print pattern wall
G1 E-0.4 F2100 ; Retract
G1 Z0.66 F7200 ; Z hop
G0 X74.6488 Y54.8927 F7200 ; Move to next pattern
G1 Z0.26 F7200 ; Z hop return
G1 E0.4 F2100 ; Un-retract
SET_PRESSURE_ADVANCE ADVANCE=0.045 ; Set pressure advance
M117 PA 0.045
G1 X93.9761 Y74.22 E1.1414 F1800 ; Print pattern wall
G1 X74.6488 Y93.5473 E1.1414 F1800 ; Print pattern wall
G1 E-0.4 F2100 ; Retract
G1 Z0.66 F7200 ; Z hop
G0 X75.2245 Y54.8927 F7200 ; Move to start next pattern wall
G1 Z0.26 F7200 ; Z hop return
G1 E0.4 F2100 ; Un-retract
G1 X94.5518 Y74.22 E1.1414 F1800 ; Print pattern wall
G1 X75.2245 Y93.5473 E1.1414 F1800 ; Print pattern wall
G1 E-0.4 F2100 ; Retract
G1 Z0.66 F7200 ; Z hop
G0 X75.8002 Y54.8927 F7200 ; Move to start next pattern wall
G1 Z0.26 F7200 ; Z hop return
G1 E0.4 F2100 ; Un-retract
G1 X95.1274 Y74.22 E1.1414 F1800 ; Print pattern wall
G1 X75.8002 Y93.5473 E1.1414 F1800 ; Print pattern wall
G1 E-0.4 F2100 ; Retract
G1 Z0.66 F7200 ; Z hop
G0 X78.2502 Y54.8927 F7200 ; Move to next pattern
G1 Z0.26 F7200 ; Z hop return
G1 E0.4 F2100 ; Un-retract
SET_PRESSURE_ADVANCE ADVANCE=0.05 ; Set pressure advance
M117 PA 0.05
G1 X97.5774 Y74.22 E1.1414 F1800 ; Print pattern wall
G1 X78.2502 Y93.5473 E1.1414 F1800 ; Print pattern wall
G1 E-0.4 F2100 ; Retract
G1 Z0.66 F7200 ; Z hop
G0 X78.8259 Y54.8927 F7200 ; Move to start next pattern wall
G1 Z0.26 F7200 ; Z hop return
G1 E0.4 F2100 ; Un-retract
G1 X98.1531 Y74.22 E1.1414 F1800 ; Print pattern wall
G1 X78.8259 Y93.5473 E1.1414 F1800 ; Print pattern wall
G1 E-0.4 F2100 ; Retract
G1 Z0.66 F7200 ; Z hop
G0 X79.4016 Y54.8927 F7200 ; Move to start next pattern wall
G1 Z0.26 F7200 ; Z hop return
G1 E0.4 F2100 ; Un-retract
G1 X98.7288 Y74.22 E1.1414 F1800 ; Print pattern wall
G1 X79.4016 Y93.5473 E1.1414 F1800 ; Print pattern wall
G1 E-0.4 F2100 ; Retract
G1 Z0.66 F7200 ; Z hop
G0 X81.8516 Y54.8927 F7200 ; Move to next pattern
G1 Z0.26 F7200 ; Z hop return
G1 E0.4 F2100 ; Un-retract
SET_PRESSURE_ADVANCE ADVANCE=0.055 ; Set pressure advance
M117 PA 0.055
G1 X101.1788 Y74.22 E1.1414 F1800 ; Print pattern wall
G1 X81.8516 Y93.5473 E1.1414 F1800 ; Print pattern wall
G1 E-0.4 F2100 ; Retract
G1 Z0.66 F7200 ; Z hop
G0 X82.4273 Y54.8927 F7200 ; Move to start next pattern wall
G1 Z0.26 F7200 ; Z hop return
G1 E0.4 F2100 ; Un-retract
G1 X101.7545 Y74.22 E1.1414 F1800 ; Print pattern wall
G1 X82.4273 Y93.5473 E1.1414 F1800 ; Print pattern wall
G1 E-0.4 F2100 ; Retract
G1 Z0.66 F7200 ; Z hop
G0 X83.003 Y54.8927 F7200 ; Move to start next pattern wall
G1 Z0.26 F7200 ; Z hop return
G1 E0.4 F2100 ; Un-retract
G1 X102.3302 Y74.22 E1.1414 F1800 ; Print pattern wall
G1 X83.003 Y93.5473 E1.1414 F1800 ; Print pattern wall
G1 E-0.4 F2100 ; Retract
G1 Z0.66 F7200 ; Z hop
G0 X85.453 Y54.8927 F7200 ; Move to next pattern
G1 Z0.26 F7200 ; Z hop return
G1 E0.4 F2100 ; Un-retract
SET_PRESSURE_ADVANCE ADVANCE=0.06 ; Set pressure advance
M117 PA 0.06
G1 X104.7802 Y74.22 E1.1414 F1800 ; Print pattern wall
G1 X85.453 Y93.5473 E1.1414 F1800 ; Print pattern wall
G1 E-0.4 F2100 ; Retract
G1 Z0.66 F7200 ; Z hop
G0 X86.0287 Y54.8927 F7200 ; Move to start next pattern wall
G1 Z0.26 F7200 ; Z hop return
G1 E0.4 F2100 ; Un-retract
G1 X105.3559 Y74.22 E1.1414 F1800 ; Print pattern wall
G1 X86.0287 Y93.5473 E1.1414 F1800 ; Print pattern wall
G1 E-0.4 F2100 ; Retract
G1 Z0.66 F7200 ; Z hop
G0 X86.6044 Y54.8927 F7200 ; Move to start next pattern wall
G1 Z0.26 F7200 ; Z hop return
G1 E0.4 F2100 ; Un-retract
G1 X105.9316 Y74.22 E1.1414 F1800 ; Print pattern wall
G1 X86.6044 Y93.5473 E1.1414 F1800 ; Print pattern wall
G1 E-0.4 F2100 ; Retract
G1 Z0.66 F7200 ; Z hop
G0 X89.0544 Y54.8927 F7200 ; Move to next pattern
G1 Z0.26 F7200 ; Z hop return
G1 E0.4 F2100 ; Un-retract
SET_PRESSURE_ADVANCE ADVANCE=0.065 ; Set pressure advance
M117 PA 0.065
G1 X108.3816 Y74.22 E1.1414 F1800 ; Print pattern wall
G1 X89.0544 Y93.5473 E1.1414 F1800 ; Print pattern wall
G1 E-0.4 F2100 ; Retract
G1 Z0.66 F7200 ; Z hop
G0 X89.6301 Y54.8927 F7200 ; Move to start next pattern wall
G1 Z0.26 F7200 ; Z hop return
G1 E0.4 F2100 ; Un-retract
G1 X108.9573 Y74.22 E1.1414 F1800 ; Print pattern wall
G1 X89.6301 Y93.5473 E1.1414 F1800 ; Print pattern wall
G1 E-0.4 F2100 ; Retract
G1 Z0.66 F7200 ; Z hop
G0 X90.2058 Y54.8927 F7200 ; Move to start next pattern wall
G1 Z0.26 F7200 ; Z hop return
G1 E0.4 F2100 ; Un-retract
G1 X109.533 Y74.22 E1.1414 F1800 ; Print pattern wall
G1 X90.2058 Y93.5473 E1.1414 F1800 ; Print pattern wall
G1 E-0.4 F2100 ; Retract
G1 Z0.66 F7200 ; Z hop
G0 X92.6558 Y54.8927 F7200 ; Move to next pattern
G1 Z0.26 F7200 ; Z hop return
G1 E0.4 F2100 ; Un-retract
SET_PRESSURE_ADVANCE ADVANCE=0.07 ; Set pressure advance
M117 PA 0.07
G1 X111.983 Y74.22 E1.1414 F1800 ; Print pattern wall
G1 X92.6558 Y93.5473 E1.1414 F1800 ; Print pattern wall
G1 E-0.4 F2100 ; Retract
G1 Z0.66 F7200 ; Z hop
G0 X93.2315 Y54.8927 F7200 ; Move to start next pattern wall
G1 Z0.26 F7200 ; Z hop return
G1 E0.4 F2100 ; Un-retract
G1 X112.5587 Y74.22 E1.1414 F1800 ; Print pattern wall
G1 X93.2315 Y93.5473 E1.1414 F1800 ; Print pattern wall
G1 E-0.4 F2100 ; Retract
G1 Z0.66 F7200 ; Z hop
G0 X93.8072 Y54.8927 F7200 ; Move to start next pattern wall
G1 Z0.26 F7200 ; Z hop return
G1 E0.4 F2100 ; Un-retract
G1 X113.1344 Y74.22 E1.1414 F1800 ; Print pattern wall
G1 X93.8072 Y93.5473 E1.1414 F1800 ; Print pattern wall
G1 E-0.4 F2100 ; Retract
G1 Z0.66 F7200 ; Z hop
G0 X96.2572 Y54.8927 F7200 ; Move to next pattern
G1 Z0.26 F7200 ; Z hop return
G1 E0.4 F2100 ; Un-retract
SET_PRESSURE_ADVANCE ADVANCE=0.075 ; Set pressure advance
M117 PA 0.075
G1 X115.5844 Y74.22 E1.1414 F1800 ; Print pattern wall
G1 X96.2572 Y93.5473 E1.1414 F1800 ; Print pattern wall
G1 E-0.4 F2100 ; Retract
G1 Z0.66 F7200 ; Z hop
G0 X96.8329 Y54.8927 F7200 ; Move to start next pattern wall
G1 Z0.26 F7200 ; Z hop return
G1 E0.4 F2100 ; Un-retract
G1 X116.1601 Y74.22 E1.1414 F1800 ; Print pattern wall
G1 X96.8329 Y93.5473 E1.1414 F1800 ; Print pattern wall
G1 E-0.4 F2100 ; Retract
G1 Z0.66 F7200 ; Z hop
G0 X97.4086 Y54.8927 F7200 ; Move to start next pattern wall
G1 Z0.26 F7200 ; Z hop return
G1 E0.4 F2100 ; Un-retract
G1 X116.7358 Y74.22 E1.1414 F1800 ; Print pattern wall
G1 X97.4086 Y93.5473 E1.1414 F1800 ; Print pattern wall
G1 E-0.4 F2100 ; Retract
G1 Z0.66 F7200 ; Z hop
G0 X99.8586 Y54.8927 F7200 ; Move to next pattern
G1 Z0.26 F7200 ; Z hop return
G1 E0.4 F2100 ; Un-retract
SET_PRESSURE_ADVANCE ADVANCE=0.08 ; Set pressure advance
M117 PA 0.08
G1 X119.1858 Y74.22 E1.1414 F1800 ; Print pattern wall
G1 X99.8586 Y93.5473 E1.1414 F1800 ; Print pattern wall
G1 E-0.4 F2100 ; Retract
G1 Z0.66 F7200 ; Z hop
G0 X100.4343 Y54.8927 F7200 ; Move to start next pattern wall
G1 Z0.26 F7200 ; Z hop return
G1 E0.4 F2100 ; Un-retract
G1 X119.7615 Y74.22 E1.1414 F1800 ; Print pattern wall
G1 X100.4343 Y93.5473 E1.1414 F1800 ; Print pattern wall
G1 E-0.4 F2100 ; Retract
G1 Z0.66 F7200 ; Z hop
G0 X101.01 Y54.8927 F7200 ; Move to start next pattern wall
G1 Z0.26 F7200 ; Z hop return
G1 E0.4 F2100 ; Un-retract
G1 X120.3372 Y74.22 E1.1414 F1800 ; Print pattern wall
G1 X101.01 Y93.5473 E1.1414 F1800 ; Print pattern wall
G1 E-0.4 F2100 ; Retract
G1 Z0.66 F7200 ; Z hop
G0 X42.2362 Y54.8927 F7200 ; Move back to start position
G1 Z0.26 F7200 ; Z hop return
G1 E0.4 F2100 ; Un-retract
M106 S0 ; Set fan speed
G0 Z0.46 F7200 ; Move to layer height
SET_PRESSURE_ADVANCE ADVANCE=0 ; Set pressure advance to start value for numbering
M117 PA 0
G1 E-0.4 F2100 ; Retract
G1 Z0.86 F7200 ; Z hop
G0 X38.926 Y96.8832 F7200 ; Move
G1 Z0.46 F7200 ; Z hop return
G1 E0.4 F2100 ; Un-retract
G1 X40.926 Y96.8832 E0.06634 F1800 ; Glyph: 0
G1 X42.926 Y96.8832 E0.06634 F1800 ; Glyph: 0
G1 X42.926 Y98.8832 E0.06634 F1800 ; Glyph: 0
G1 X40.926 Y98.8832 E0.06634 F1800 ; Glyph: 0
G1 X38.926 Y98.8832 E0.06634 F1800 ; Glyph: 0
G1 X38.926 Y96.8832 E0.06634 F1800 ; Glyph: 0
G1 E-0.4 F2100 ; Retract
G1 Z0.86 F7200 ; Z hop
G0 X46.1288 Y96.8832 F7200 ; Move
G1 Z0.46 F7200 ; Z hop return
G1 E0.4 F2100 ; Un-retract
G1 X48.1288 Y96.8832 E0.06634 F1800 ; Glyph: 0
G1 X50.1288 Y96.8832 E0.06634 F1800 ; Glyph: 0
G1 X50.1288 Y98.8832 E0.06634 F1800 ; Glyph: 0
G1 X48.1288 Y98.8832 E0.06634 F1800 ; Glyph: 0
G1 X46.1288 Y98.8832 E0.06634 F1800 ; Glyph: 0
G1 X46.1288 Y96.8832 E0.06634 F1800 ; Glyph: 0
G1 E-0.4 F2100 ; Retract
G1 Z0.86 F7200 ; Z hop
G0 X50.1288 Y99.8832 F7200 ; Move
G1 Z0.46 F7200 ; Z hop return
G1 E0.4 F2100 ; Un-retract
G1 X49.3788 Y99.8832 E0.02488 F1800 ; Glyph: .
G1 E-0.4 F2100 ; Retract
G1 Z0.86 F7200 ; Z hop
G0 X46.1288 Y100.8832 F7200 ; Move
G1 Z0.46 F7200 ; Z hop return
G1 E0.4 F2100 ; Un-retract
G1 X48.1288 Y100.8832 E0.06634 F1800 ; Glyph: 0
G1 X50.1288 Y100.8832 E0.06634 F1800 ; Glyph: 0
G1 X50.1288 Y102.8832 E0.06634 F1800 ; Glyph: 0
G1 X48.1288 Y102.8832 E0.06634 F1800 ; Glyph: 0
G1 X46.1288 Y102.8832 E0.06634 F1800 ; Glyph: 0
G1 X46.1288 Y100.8832 E0.06634 F1800 ; Glyph: 0
G1 E-0.4 F2100 ; Retract
G1 Z0.86 F7200 ; Z hop
G0 X46.1288 Y103.8832 F7200 ; Move
G1 Z0.46 F7200 ; Z hop return
G1 E0.4 F2100 ; Un-retract
G1 X48.1288 Y103.8832 E0.06634 F1800 ; Glyph: 1
G1 X50.1288 Y103.8832 E0.06634 F1800 ; Glyph: 1
G1 E-0.4 F2100 ; Retract
G1 Z0.86 F7200 ; Z hop
G0 X53.3316 Y96.8832 F7200 ; Move
G1 Z0.46 F7200 ; Z hop return
G1 E0.4 F2100 ; Un-retract
G1 X55.3316 Y96.8832 E0.06634 F1800 ; Glyph: 0
G1 X57.3316 Y96.8832 E0.06634 F1800 ; Glyph: 0
G1 X57.3316 Y98.8832 E0.06634 F1800 ; Glyph: 0
G1 X55.3316 Y98.8832 E0.06634 F1800 ; Glyph: 0
G1 X53.3316 Y98.8832 E0.06634 F1800 ; Glyph: 0
G1 X53.3316 Y96.8832 E0.06634 F1800 ; Glyph: 0
G1 E-0.4 F2100 ; Retract
G1 Z0.86 F7200 ; Z hop
G0 X57.3316 Y99.8832 F7200 ; Move
G1 Z0.46 F7200 ; Z hop return
G1 E0.4 F2100 ; Un-retract
G1 X56.5816 Y99.8832 E0.02488 F1800 ; Glyph: .
G1 E-0.4 F2100 ; Retract
G1 Z0.86 F7200 ; Z hop
G0 X53.3316 Y100.8832 F7200 ; Move
G1 Z0.46 F7200 ; Z hop return
G1 E0.4 F2100 ; Un-retract
G1 X55.3316 Y100.8832 E0.06634 F1800 ; Glyph: 0
G1 X57.3316 Y100.8832 E0.06634 F1800 ; Glyph: 0
G1 X57.3316 Y102.8832 E0.06634 F1800 ; Glyph: 0
G1 X55.3316 Y102.8832 E0.06634 F1800 ; Glyph: 0
G1 X53.3316 Y102.8832 E0.06634 F1800 ; Glyph: 0
G1 X53.3316 Y100.8832 E0.06634 F1800 ; Glyph: 0
G1 E-0.4 F2100 ; Retract
G1 Z0.86 F7200 ; Z hop
G0 X53.3316 Y103.8832 F7200 ; Move
G1 Z0.46 F7200 ; Z hop return
G1 E0.4 F2100 ; Un-retract
G1 X53.3316 Y105.8832 E0.06634 F1800 ; Glyph: 2
G1 X55.3316 Y105.8832 E0.06634 F1800 ; Glyph: 2
G1 X55.3316 Y103.8832 E0.06634 F1800 ; Glyph: 2
G1 X57.3316 Y103.8832 E0.06634 F1800 ; Glyph: 2
G1 X57.3316 Y105.8832 E0.06634 F1800 ; Glyph: 2
G1 E-0.4 F2100 ; Retract
G1 Z0.86 F7200 ; Z hop
G0 X60.5344 Y96.8832 F7200 ; Move
G1 Z0.46 F7200 ; Z hop return
G1 E0.4 F2100 ; Un-retract
G1 X62.5344 Y96.8832 E0.06634 F1800 ; Glyph: 0
G1 X64.5344 Y96.8832 E0.06634 F1800 ; Glyph: 0
G1 X64.5344 Y98.8832 E0.06634 F1800 ; Glyph: 0
G1 X62.5344 Y98.8832 E0.06634 F1800 ; Glyph: 0
G1 X60.5344 Y98.8832 E0.06634 F1800 ; Glyph: 0
G1 X60.5344 Y96.8832 E0.06634 F1800 ; Glyph: 0
G1 E-0.4 F2100 ; Retract
G1 Z0.86 F7200 ; Z hop
G0 X64.5344 Y99.8832 F7200 ; Move
G1 Z0.46 F7200 ; Z hop return
G1 E0.4 F2100 ; Un-retract
G1 X63.7844 Y99.8832 E0.02488 F1800 ; Glyph: .
G1 E-0.4 F2100 ; Retract
G1 Z0.86 F7200 ; Z hop
G0 X60.5344 Y100.8832 F7200 ; Move
G1 Z0.46 F7200 ; Z hop return
G1 E0.4 F2100 ; Un-retract
G1 X62.5344 Y100.8832 E0.06634 F1800 ; Glyph: 0
G1 X64.5344 Y100.8832 E0.06634 F1800 ; Glyph: 0
G1 X64.5344 Y102.8832 E0.06634 F1800 ; Glyph: 0
G1 X62.5344 Y102.8832 E0.06634 F1800 ; Glyph: 0
G1 X60.5344 Y102.8832 E0.06634 F1800 ; Glyph: 0
G1 X60.5344 Y100.8832 E0.06634 F1800 ; Glyph: 0
G1 E-0.4 F2100 ; Retract
G1 Z0.86 F7200 ; Z hop
G0 X60.5344 Y103.8832 F7200 ; Move
G1 Z0.46 F7200 ; Z hop return
G1 E0.4 F2100 ; Un-retract
G1 X60.5344 Y105.8832 E0.06634 F1800 ; Glyph: 3
G1 X62.5344 Y105.8832 E0.06634 F1800 ; Glyph: 3
G1 X62.5344 Y103.8832 E0.06634 F1800 ; Glyph: 3
G0 X62.5344 Y105.8832 F7200 ; Move
G1 X64.5344 Y105.8832 E0.06634 F1800 ; Glyph: 3
G1 X64.5344 Y103.8832 E0.06634 F1800 ; Glyph: 3
G1 E-0.4 F2100 ; Retract
G1 Z0.86 F7200 ; Z hop
G0 X67.7372 Y96.8832 F7200 ; Move
G1 Z0.46 F7200 ; Z hop return
G1 E0.4 F2100 ; Un-retract
G1 X69.7372 Y96.8832 E0.06634 F1800 ; Glyph: 0
G1 X71.7372 Y96.8832 E0.06634 F1800 ; Glyph: 0
G1 X71.7372 Y98.8832 E0.06634 F1800 ; Glyph: 0
G1 X69.7372 Y98.8832 E0.06634 F1800 ; Glyph: 0
G1 X67.7372 Y98.8832 E0.06634 F1800 ; Glyph: 0
G1 X67.7372 Y96.8832 E0.06634 F1800 ; Glyph: 0
G1 E-0.4 F2100 ; Retract
G1 Z0.86 F7200 ; Z hop
G0 X71.7372 Y99.8832 F7200 ; Move
G1 Z0.46 F7200 ; Z hop return
G1 E0.4 F2100 ; Un-retract
G1 X70.9872 Y99.8832 E0.02488 F1800 ; Glyph: .
G1 E-0.4 F2100 ; Retract
G1 Z0.86 F7200 ; Z hop
G0 X67.7372 Y100.8832 F7200 ; Move
G1 Z0.46 F7200 ; Z hop return
G1 E0.4 F2100 ; Un-retract
G1 X69.7372 Y100.8832 E0.06634 F1800 ; Glyph: 0
G1 X71.7372 Y100.8832 E0.06634 F1800 ; Glyph: 0
G1 X71.7372 Y102.8832 E0.06634 F1800 ; Glyph: 0
G1 X69.7372 Y102.8832 E0.06634 F1800 ; Glyph: 0
G1 X67.7372 Y102.8832 E0.06634 F1800 ; Glyph: 0
G1 X67.7372 Y100.8832 E0.06634 F1800 ; Glyph: 0
G1 E-0.4 F2100 ; Retract
G1 Z0.86 F7200 ; Z hop
G0 X67.7372 Y105.8832 F7200 ; Move
G1 Z0.46 F7200 ; Z hop return
G1 E0.4 F2100 ; Un-retract
G1 X69.7372 Y105.8832 E0.06634 F1800 ; Glyph: 4
G1 X71.7372 Y105.8832 E0.06634 F1800 ; Glyph: 4
G0 X69.7372 Y105.8832 F7200 ; Move
G1 X69.7372 Y103.8832 E0.06634 F1800 ; Glyph: 4
G1 X67.7372 Y103.8832 E0.06634 F1800 ; Glyph: 4
G1 E-0.4 F2100 ; Retract
G1 Z0.86 F7200 ; Z hop
G0 X74.9399 Y96.8832 F7200 ; Move
G1 Z0.46 F7200 ; Z hop return
G1 E0.4 F2100 ; Un-retract
G1 X76.9399 Y96.8832 E0.06634 F1800 ; Glyph: 0
G1 X78.9399 Y96.8832 E0.06634 F1800 ; Glyph: 0
G1 X78.9399 Y98.8832 E0.06634 F1800 ; Glyph: 0
G1 X76.9399 Y98.8832 E0.06634 F1800 ; Glyph: 0
G1 X74.9399 Y98.8832 E0.06634 F1800 ; Glyph: 0
G1 X74.9399 Y96.8832 E0.06634 F1800 ; Glyph: 0
G1 E-0.4 F2100 ; Retract
G1 Z0.86 F7200 ; Z hop
G0 X78.9399 Y99.8832 F7200 ; Move
G1 Z0.46 F7200 ; Z hop return
G1 E0.4 F2100 ; Un-retract
G1 X78.1899 Y99.8832 E0.02488 F1800 ; Glyph: .
G1 E-0.4 F2100 ; Retract
G1 Z0.86 F7200 ; Z hop
G0 X74.9399 Y100.8832 F7200 ; Move
G1 Z0.46 F7200 ; Z hop return
G1 E0.4 F2100 ; Un-retract
G1 X76.9399 Y100.8832 E0.06634 F1800 ; Glyph: 0
G1 X78.9399 Y100.8832 E0.06634 F1800 ; Glyph: 0
G1 X78.9399 Y102.8832 E0.06634 F1800 ; Glyph: 0
G1 X76.9399 Y102.8832 E0.06634 F1800 ; Glyph: 0
G1 X74.9399 Y102.8832 E0.06634 F1800 ; Glyph: 0
G1 X74.9399 Y100.8832 E0.06634 F1800 ; Glyph: 0
G1 E-0.4 F2100 ; Retract
G1 Z0.86 F7200 ; Z hop
G0 X74.9399 Y105.8832 F7200 ; Move
G1 Z0.46 F7200 ; Z hop return
G1 E0.4 F2100 ; Un-retract
G1 X74.9399 Y103.8832 E0.06634 F1800 ; Glyph: 5
G1 X76.9399 Y103.8832 E0.06634 F1800 ; Glyph: 5
G1 X76.9399 Y105.8832 E0.06634 F1800 ; Glyph: 5
G1 X78.9399 Y105.8832 E0.06634 F1800 ; Glyph: 5
G1 X78.9399 Y103.8832 E0.06634 F1800 ; Glyph: 5
G1 E-0.4 F2100 ; Retract
G1 Z0.86 F7200 ; Z hop
G0 X82.1427 Y96.8832 F7200 ; Move
G1 Z0.46 F7200 ; Z hop return
G1 E0.4 F2100 ; Un-retract
G1 X84.1427 Y96.8832 E0.06634 F1800 ; Glyph: 0
G1 X86.1427 Y96.8832 E0.06634 F1800 ; Glyph: 0
G1 X86.1427 Y98.8832 E0.06634 F1800 ; Glyph: 0
G1 X84.1427 Y98.8832 E0.06634 F1800 ; Glyph: 0
G1 X82.1427 Y98.8832 E0.06634 F1800 ; Glyph: 0
G1 X82.1427 Y96.8832 E0.06634 F1800 ; Glyph: 0
G1 E-0.4 F2100 ; Retract
G1 Z0.86 F7200 ; Z hop
G0 X86.1427 Y99.8832 F7200 ; Move
G1 Z0.46 F7200 ; Z hop return
G1 E0.4 F2100 ; Un-retract
G1 X85.3927 Y99.8832 E0.02488 F1800 ; Glyph: .
G1 E-0.4 F2100 ; Retract
G1 Z0.86 F7200 ; Z hop
G0 X82.1427 Y100.8832 F7200 ; Move
G1 Z0.46 F7200 ; Z hop return
G1 E0.4 F2100 ; Un-retract
G1 X84.1427 Y100.8832 E0.06634 F1800 ; Glyph: 0
G1 X86.1427 Y100.8832 E0.06634 F1800 ; Glyph: 0
G1 X86.1427 Y102.8832 E0.06634 F1800 ; Glyph: 0
G1 X84.1427 Y102.8832 E0.06634 F1800 ; Glyph: 0
G1 X82.1427 Y102.8832 E0.06634 F1800 ; Glyph: 0
G1 X82.1427 Y100.8832 E0.06634 F1800 ; Glyph: 0
G1 E-0.4 F2100 ; Retract
G1 Z0.86 F7200 ; Z hop
G0 X82.1427 Y105.8832 F7200 ; Move
G1 Z0.46 F7200 ; Z hop return
G1 E0.4 F2100 ; Un-retract
G1 X82.1427 Y103.8832 E0.06634 F1800 ; Glyph: 6
G1 X84.1427 Y103.8832 E0.06634 F1800 ; Glyph: 6
G1 X86.1427 Y103.8832 E0.06634 F1800 ; Glyph: 6
G1 X86.1427 Y105.8832 E0.06634 F1800 ; Glyph: 6
G1 X84.1427 Y105.8832 E0.06634 F1800 ; Glyph: 6
G1 X84.1427 Y103.8832 E0.06634 F1800 ; Glyph: 6
G1 E-0.4 F2100 ; Retract
G1 Z0.86 F7200 ; Z hop
G0 X89.3455 Y96.8832 F7200 ; Move
G1 Z0.46 F7200 ; Z hop return
G1 E0.4 F2100 ; Un-retract
G1 X91.3455 Y96.8832 E0.06634 F1800 ; Glyph: 0
G1 X93.3455 Y96.8832 E0.06634 F1800 ; Glyph: 0
G1 X93.3455 Y98.8832 E0.06634 F1800 ; Glyph: 0
G1 X91.3455 Y98.8832 E0.06634 F1800 ; Glyph: 0
G1 X89.3455 Y98.8832 E0.06634 F1800 ; Glyph: 0
G1 X89.3455 Y96.8832 E0.06634 F1800 ; Glyph: 0
G1 E-0.4 F2100 ; Retract
G1 Z0.86 F7200 ; Z hop
G0 X93.3455 Y99.8832 F7200 ; Move
G1 Z0.46 F7200 ; Z hop return
G1 E0.4 F2100 ; Un-retract
G1 X92.5955 Y99.8832 E0.02488 F1800 ; Glyph: .
G1 E-0.4 F2100 ; Retract
G1 Z0.86 F7200 ; Z hop
G0 X89.3455 Y100.8832 F7200 ; Move
G1 Z0.46 F7200 ; Z hop return
G1 E0.4 F2100 ; Un-retract
G1 X91.3455 Y100.8832 E0.06634 F1800 ; Glyph: 0
G1 X93.3455 Y100.8832 E0.06634 F1800 ; Glyph: 0
G1 X93.3455 Y102.8832 E0.06634 F1800 ; Glyph: 0
G1 X91.3455 Y102.8832 E0.06634 F1800 ; Glyph: 0
G1 X89.3455 Y102.8832 E0.06634 F1800 ; Glyph: 0
G1 X89.3455 Y100.8832 E0.06634 F1800 ; Glyph: 0
G1 E-0.4 F2100 ; Retract
G1 Z0.86 F7200 ; Z hop
G0 X89.3455 Y103.8832 F7200 ; Move
G1 Z0.46 F7200 ; Z hop return
G1 E0.4 F2100 ; Un-retract
G1 X89.3455 Y105.8832 E0.06634 F1800 ; Glyph: 7
G1 X91.3455 Y105.8832 E0.06634 F1800 ; Glyph: 7
G1 X93.3455 Y105.8832 E0.06634 F1800 ; Glyph: 7
G1 E-0.4 F2100 ; Retract
G1 Z0.86 F7200 ; Z hop
G0 X96.5483 Y96.8832 F7200 ; Move
G1 Z0.46 F7200 ; Z hop return
G1 E0.4 F2100 ; Un-retract
G1 X98.5483 Y96.8832 E0.06634 F1800 ; Glyph: 0
G1 X100.5483 Y96.8832 E0.06634 F1800 ; Glyph: 0
G1 X100.5483 Y98.8832 E0.06634 F1800 ; Glyph: 0
G1 X98.5483 Y98.8832 E0.06634 F1800 ; Glyph: 0
G1 X96.5483 Y98.8832 E0.06634 F1800 ; Glyph: 0
G1 X96.5483 Y96.8832 E0.06634 F1800 ; Glyph: 0
G1 E-0.4 F2100 ; Retract
G1 Z0.86 F7200 ; Z hop
G0 X100.5483 Y99.8832 F7200 ; Move
G1 Z0.46 F7200 ; Z hop return
G1 E0.4 F2100 ; Un-retract
G1 X99.7983 Y99.8832 E0.02488 F1800 ; Glyph: .
G1 E-0.4 F2100 ; Retract
G1 Z0.86 F7200 ; Z hop
G0 X96.5483 Y100.8832 F7200 ; Move
G1 Z0.46 F7200 ; Z hop return
G1 E0.4 F2100 ; Un-retract
G1 X98.5483 Y100.8832 E0.06634 F1800 ; Glyph: 0
G1 X100.5483 Y100.8832 E0.06634 F1800 ; Glyph: 0
G1 X100.5483 Y102.8832 E0.06634 F1800 ; Glyph: 0
G1 X98.5483 Y102.8832 E0.06634 F1800 ; Glyph: 0
G1 X96.5483 Y102.8832 E0.06634 F1800 ; Glyph: 0
G1 X96.5483 Y100.8832 E0.06634 F1800 ; Glyph: 0
G1 E-0.4 F2100 ; Retract
G1 Z0.86 F7200 ; Z hop
G0 X96.5483 Y103.8832 F7200 ; Move
G1 Z0.46 F7200 ; Z hop return
G1 E0.4 F2100 ; Un-retract
G1 X98.5483 Y103.8832 E0.06634 F1800 ; Glyph: 8
G1 X100.5483 Y103.8832 E0.06634 F1800 ; Glyph: 8
G1 X100.5483 Y105.8832 E0.06634 F1800 ; Glyph: 8
G1 X98.5483 Y105.8832 E0.06634 F1800 ; Glyph: 8
G1 X96.5483 Y105.8832 E0.06634 F1800 ; Glyph: 8
G1 X96.5483 Y103.8832 E0.06634 F1800 ; Glyph: 8
G0 X98.5483 Y103.8832 F7200 ; Move
G1 X98.5483 Y105.8832 E0.06634 F1800 ; Glyph: 8
G1 E-0.4 F2100 ; Retract
G1 Z0.86 F7200 ; Z hop
G0 X40.3503 Y53.0068 F7200 ; Move to pattern start

G1 Z0.46 F7200 ; Z hop return
G1 E0.4 F2100 ; Un-retract
SET_PRESSURE_ADVANCE ADVANCE=0 ; Set pressure advance
M117 PA 0
G1 X61.5635 Y74.22 E0.99515 F6000 ; Print pattern wall
G1 X40.3503 Y95.4332 E0.99515 F6000 ; Print pattern wall
G1 E-0.4 F2100 ; Retract
G1 Z0.86 F7200 ; Z hop
G0 X40.926 Y53.0068 F7200 ; Move to start next pattern wall
G1 Z0.46 F7200 ; Z hop return
G1 E0.4 F2100 ; Un-retract
G1 X62.1392 Y74.22 E0.99515 F6000 ; Print pattern wall
G1 X40.926 Y95.4332 E0.99515 F6000 ; Print pattern wall
G1 E-0.4 F2100 ; Retract
G1 Z0.86 F7200 ; Z hop
G0 X41.5017 Y53.0068 F7200 ; Move to start next pattern wall
G1 Z0.46 F7200 ; Z hop return
G1 E0.4 F2100 ; Un-retract
G1 X62.7149 Y74.22 E0.99515 F6000 ; Print pattern wall
G1 X41.5017 Y95.4332 E0.99515 F6000 ; Print pattern wall
G1 E-0.4 F2100 ; Retract
G1 Z0.86 F7200 ; Z hop
G0 X43.9517 Y53.0068 F7200 ; Move to next pattern
G1 Z0.46 F7200 ; Z hop return
G1 E0.4 F2100 ; Un-retract
SET_PRESSURE_ADVANCE ADVANCE=0.005 ; Set pressure advance
M117 PA 0.005
G1 X65.1649 Y74.22 E0.99515 F6000 ; Print pattern wall
G1 X43.9517 Y95.4332 E0.99515 F6000 ; Print pattern wall
G1 E-0.4 F2100 ; Retract
G1 Z0.86 F7200 ; Z hop
G0 X44.5274 Y53.0068 F7200 ; Move to start next pattern wall
G1 Z0.46 F7200 ; Z hop return
G1 E0.4 F2100 ; Un-retract
G1 X65.7406 Y74.22 E0.99515 F6000 ; Print pattern wall
G1 X44.5274 Y95.4332 E0.99515 F6000 ; Print pattern wall
G1 E-0.4 F2100 ; Retract
G1 Z0.86 F7200 ; Z hop
G0 X45.1031 Y53.0068 F7200 ; Move to start next pattern wall
G1 Z0.46 F7200 ; Z hop return
G1 E0.4 F2100 ; Un-retract
G1 X66.3163 Y74.22 E0.99515 F6000 ; Print pattern wall
G1 X45.1031 Y95.4332 E0.99515 F6000 ; Print pattern wall
G1 E-0.4 F2100 ; Retract
G1 Z0.86 F7200 ; Z hop
G0 X47.5531 Y53.0068 F7200 ; Move to next pattern
G1 Z0.46 F7200 ; Z hop return
G1 E0.4 F2100 ; Un-retract
SET_PRESSURE_ADVANCE ADVANCE=0.01 ; Set pressure advance
M117 PA 0.01
G1 X68.7663 Y74.22 E0.99515 F6000 ; Print pattern wall
G1 X47.5531 Y95.4332 E0.99515 F6000 ; Print pattern wall
G1 E-0.4 F2100 ; Retract
G1 Z0.86 F7200 ; Z hop
G0 X48.1288 Y53.0068 F7200 ; Move to start next pattern wall
G1 Z0.46 F7200 ; Z hop return
G1 E0.4 F2100 ; Un-retract
G1 X69.342 Y74.22 E0.99515 F6000 ; Print pattern wall
G1 X48.1288 Y95.4332 E0.99515 F6000 ; Print pattern wall
G1 E-0.4 F2100 ; Retract
G1 Z0.86 F7200 ; Z hop
G0 X48.7045 Y53.0068 F7200 ; Move to start next pattern wall
G1 Z0.46 F7200 ; Z hop return
G1 E0.4 F2100 ; Un-retract
G1 X69.9177 Y74.22 E0.99515 F6000 ; Print pattern wall
G1 X48.7045 Y95.4332 E0.99515 F6000 ; Print pattern wall
G1 E-0.4 F2100 ; Retract
G1 Z0.86 F7200 ; Z hop
G0 X51.1545 Y53.0068 F7200 ; Move to next pattern
G1 Z0.46 F7200 ; Z hop return
G1 E0.4 F2100 ; Un-retract
SET_PRESSURE_ADVANCE ADVANCE=0.015 ; Set pressure advance
M117 PA 0.015
G1 X72.3677 Y74.22 E0.99515 F6000 ; Print pattern wall
G1 X51.1545 Y95.4332 E0.99515 F6000 ; Print pattern wall
G1 E-0.4 F2100 ; Retract
G1 Z0.86 F7200 ; Z hop
G0 X51.7302 Y53.0068 F7200 ; Move to start next pattern wall
G1 Z0.46 F7200 ; Z hop return
G1 E0.4 F2100 ; Un-retract
G1 X72.9434 Y74.22 E0.99515 F6000 ; Print pattern wall
G1 X51.7302 Y95.4332 E0.99515 F6000 ; Print pattern wall
G1 E-0.4 F2100 ; Retract
G1 Z0.86 F7200 ; Z hop
G0 X52.3059 Y53.0068 F7200 ; Move to start next pattern wall
G1 Z0.46 F7200 ; Z hop return
G1 E0.4 F2100 ; Un-retract
G1 X73.5191 Y74.22 E0.99515 F6000 ; Print pattern wall
G1 X52.3059 Y95.4332 E0.99515 F6000 ; Print pattern wall
G1 E-0.4 F2100 ; Retract
G1 Z0.86 F7200 ; Z hop
G0 X54.7559 Y53.0068 F7200 ; Move to next pattern
G1 Z0.46 F7200 ; Z hop return
G1 E0.4 F2100 ; Un-retract
SET_PRESSURE_ADVANCE ADVANCE=0.02 ; Set pressure advance
M117 PA 0.02
G1 X75.9691 Y74.22 E0.99515 F6000 ; Print pattern wall
G1 X54.7559 Y95.4332 E0.99515 F6000 ; Print pattern wall
G1 E-0.4 F2100 ; Retract
G1 Z0.86 F7200 ; Z hop
G0 X55.3316 Y53.0068 F7200 ; Move to start next pattern wall
G1 Z0.46 F7200 ; Z hop return
G1 E0.4 F2100 ; Un-retract
G1 X76.5448 Y74.22 E0.99515 F6000 ; Print pattern wall
G1 X55.3316 Y95.4332 E0.99515 F6000 ; Print pattern wall
G1 E-0.4 F2100 ; Retract
G1 Z0.86 F7200 ; Z hop
G0 X55.9073 Y53.0068 F7200 ; Move to start next pattern wall
G1 Z0.46 F7200 ; Z hop return
G1 E0.4 F2100 ; Un-retract
G1 X77.1205 Y74.22 E0.99515 F6000 ; Print pattern wall
G1 X55.9073 Y95.4332 E0.99515 F6000 ; Print pattern wall
G1 E-0.4 F2100 ; Retract
G1 Z0.86 F7200 ; Z hop
G0 X58.3573 Y53.0068 F7200 ; Move to next pattern
G1 Z0.46 F7200 ; Z hop return
G1 E0.4 F2100 ; Un-retract
SET_PRESSURE_ADVANCE ADVANCE=0.025 ; Set pressure advance
M117 PA 0.025
G1 X79.5705 Y74.22 E0.99515 F6000 ; Print pattern wall
G1 X58.3573 Y95.4332 E0.99515 F6000 ; Print pattern wall
G1 E-0.4 F2100 ; Retract
G1 Z0.86 F7200 ; Z hop
G0 X58.933 Y53.0068 F7200 ; Move to start next pattern wall
G1 Z0.46 F7200 ; Z hop return
G1 E0.4 F2100 ; Un-retract
G1 X80.1462 Y74.22 E0.99515 F6000 ; Print pattern wall
G1 X58.933 Y95.4332 E0.99515 F6000 ; Print pattern wall
G1 E-0.4 F2100 ; Retract
G1 Z0.86 F7200 ; Z hop
G0 X59.5087 Y53.0068 F7200 ; Move to start next pattern wall
G1 Z0.46 F7200 ; Z hop return
G1 E0.4 F2100 ; Un-retract
G1 X80.7219 Y74.22 E0.99515 F6000 ; Print pattern wall
G1 X59.5087 Y95.4332 E0.99515 F6000 ; Print pattern wall
G1 E-0.4 F2100 ; Retract
G1 Z0.86 F7200 ; Z hop
G0 X61.9587 Y53.0068 F7200 ; Move to next pattern
G1 Z0.46 F7200 ; Z hop return
G1 E0.4 F2100 ; Un-retract
SET_PRESSURE_ADVANCE ADVANCE=0.03 ; Set pressure advance
M117 PA 0.03
G1 X83.1719 Y74.22 E0.99515 F6000 ; Print pattern wall
G1 X61.9587 Y95.4332 E0.99515 F6000 ; Print pattern wall
G1 E-0.4 F2100 ; Retract
G1 Z0.86 F7200 ; Z hop
G0 X62.5344 Y53.0068 F7200 ; Move to start next pattern wall
G1 Z0.46 F7200 ; Z hop return
G1 E0.4 F2100 ; Un-retract
G1 X83.7476 Y74.22 E0.99515 F6000 ; Print pattern wall
G1 X62.5344 Y95.4332 E0.99515 F6000 ; Print pattern wall
G1 E-0.4 F2100 ; Retract
G1 Z0.86 F7200 ; Z hop
G0 X63.1101 Y53.0068 F7200 ; Move to start next pattern wall
G1 Z0.46 F7200 ; Z hop return
G1 E0.4 F2100 ; Un-retract
G1 X84.3233 Y74.22 E0.99515 F6000 ; Print pattern wall
G1 X63.1101 Y95.4332 E0.99515 F6000 ; Print pattern wall
G1 E-0.4 F2100 ; Retract
G1 Z0.86 F7200 ; Z hop
G0 X65.5601 Y53.0068 F7200 ; Move to next pattern
G1 Z0.46 F7200 ; Z hop return
G1 E0.4 F2100 ; Un-retract
SET_PRESSURE_ADVANCE ADVANCE=0.035 ; Set pressure advance
M117 PA 0.035
G1 X86.7733 Y74.22 E0.99515 F6000 ; Print pattern wall
G1 X65.5601 Y95.4332 E0.99515 F6000 ; Print pattern wall
G1 E-0.4 F2100 ; Retract
G1 Z0.86 F7200 ; Z hop
G0 X66.1358 Y53.0068 F7200 ; Move to start next pattern wall
G1 Z0.46 F7200 ; Z hop return
G1 E0.4 F2100 ; Un-retract
G1 X87.349 Y74.22 E0.99515 F6000 ; Print pattern wall
G1 X66.1358 Y95.4332 E0.99515 F6000 ; Print pattern wall
G1 E-0.4 F2100 ; Retract
G1 Z0.86 F7200 ; Z hop
G0 X66.7115 Y53.0068 F7200 ; Move to start next pattern wall
G1 Z0.46 F7200 ; Z hop return
G1 E0.4 F2100 ; Un-retract
G1 X87.9247 Y74.22 E0.99515 F6000 ; Print pattern wall
G1 X66.7115 Y95.4332 E0.99515 F6000 ; Print pattern wall
G1 E-0.4 F2100 ; Retract
G1 Z0.86 F7200 ; Z hop
G0 X69.1615 Y53.0068 F7200 ; Move to next pattern
G1 Z0.46 F7200 ; Z hop return
G1 E0.4 F2100 ; Un-retract
SET_PRESSURE_ADVANCE ADVANCE=0.04 ; Set pressure advance
M117 PA 0.04
G1 X90.3747 Y74.22 E0.99515 F6000 ; Print pattern wall
G1 X69.1615 Y95.4332 E0.99515 F6000 ; Print pattern wall
G1 E-0.4 F2100 ; Retract
G1 Z0.86 F7200 ; Z hop
G0 X69.7372 Y53.0068 F7200 ; Move to start next pattern wall
G1 Z0.46 F7200 ; Z hop return
G1 E0.4 F2100 ; Un-retract
G1 X90.9504 Y74.22 E0.99515 F6000 ; Print pattern wall
G1 X69.7372 Y95.4332 E0.99515 F6000 ; Print pattern wall
G1 E-0.4 F2100 ; Retract
G1 Z0.86 F7200 ; Z hop
G0 X70.3128 Y53.0068 F7200 ; Move to start next pattern wall
G1 Z0.46 F7200 ; Z hop return
G1 E0.4 F2100 ; Un-retract
G1 X91.5261 Y74.22 E0.99515 F6000 ; Print pattern wall
G1 X70.3128 Y95.4332 E0.99515 F6000 ; Print pattern wall
G1 E-0.4 F2100 ; Retract
G1 Z0.86 F7200 ; Z hop
G0 X72.7628 Y53.0068 F7200 ; Move to next pattern
G1 Z0.46 F7200 ; Z hop return
G1 E0.4 F2100 ; Un-retract
SET_PRESSURE_ADVANCE ADVANCE=0.045 ; Set pressure advance
M117 PA 0.045
G1 X93.9761 Y74.22 E0.99515 F6000 ; Print pattern wall
G1 X72.7628 Y95.4332 E0.99515 F6000 ; Print pattern wall
G1 E-0.4 F2100 ; Retract
G1 Z0.86 F7200 ; Z hop
G0 X73.3385 Y53.0068 F7200 ; Move to start next pattern wall
G1 Z0.46 F7200 ; Z hop return
G1 E0.4 F2100 ; Un-retract
G1 X94.5518 Y74.22 E0.99515 F6000 ; Print pattern wall
G1 X73.3385 Y95.4332 E0.99515 F6000 ; Print pattern wall
G1 E-0.4 F2100 ; Retract
G1 Z0.86 F7200 ; Z hop
G0 X73.9142 Y53.0068 F7200 ; Move to start next pattern wall
G1 Z0.46 F7200 ; Z hop return
G1 E0.4 F2100 ; Un-retract
G1 X95.1274 Y74.22 E0.99515 F6000 ; Print pattern wall
G1 X73.9142 Y95.4332 E0.99515 F6000 ; Print pattern wall
G1 E-0.4 F2100 ; Retract
G1 Z0.86 F7200 ; Z hop
G0 X76.3642 Y53.0068 F7200 ; Move to next pattern
G1 Z0.46 F7200 ; Z hop return
G1 E0.4 F2100 ; Un-retract
SET_PRESSURE_ADVANCE ADVANCE=0.05 ; Set pressure advance
M117 PA 0.05
G1 X97.5774 Y74.22 E0.99515 F6000 ; Print pattern wall
G1 X76.3642 Y95.4332 E0.99515 F6000 ; Print pattern wall
G1 E-0.4 F2100 ; Retract
G1 Z0.86 F7200 ; Z hop
G0 X76.9399 Y53.0068 F7200 ; Move to start next pattern wall
G1 Z0.46 F7200 ; Z hop return
G1 E0.4 F2100 ; Un-retract
G1 X98.1531 Y74.22 E0.99515 F6000 ; Print pattern wall
G1 X76.9399 Y95.4332 E0.99515 F6000 ; Print pattern wall
G1 E-0.4 F2100 ; Retract
G1 Z0.86 F7200 ; Z hop
G0 X77.5156 Y53.0068 F7200 ; Move to start next pattern wall
G1 Z0.46 F7200 ; Z hop return
G1 E0.4 F2100 ; Un-retract
G1 X98.7288 Y74.22 E0.99515 F6000 ; Print pattern wall
G1 X77.5156 Y95.4332 E0.99515 F6000 ; Print pattern wall
G1 E-0.4 F2100 ; Retract
G1 Z0.86 F7200 ; Z hop
G0 X79.9656 Y53.0068 F7200 ; Move to next pattern
G1 Z0.46 F7200 ; Z hop return
G1 E0.4 F2100 ; Un-retract
SET_PRESSURE_ADVANCE ADVANCE=0.055 ; Set pressure advance
M117 PA 0.055
G1 X101.1788 Y74.22 E0.99515 F6000 ; Print pattern wall
G1 X79.9656 Y95.4332 E0.99515 F6000 ; Print pattern wall
G1 E-0.4 F2100 ; Retract
G1 Z0.86 F7200 ; Z hop
G0 X80.5413 Y53.0068 F7200 ; Move to start next pattern wall
G1 Z0.46 F7200 ; Z hop return
G1 E0.4 F2100 ; Un-retract
G1 X101.7545 Y74.22 E0.99515 F6000 ; Print pattern wall
G1 X80.5413 Y95.4332 E0.99515 F6000 ; Print pattern wall
G1 E-0.4 F2100 ; Retract
G1 Z0.86 F7200 ; Z hop
G0 X81.117 Y53.0068 F7200 ; Move to start next pattern wall
G1 Z0.46 F7200 ; Z hop return
G1 E0.4 F2100 ; Un-retract
G1 X102.3302 Y74.22 E0.99515 F6000 ; Print pattern wall
G1 X81.117 Y95.4332 E0.99515 F6000 ; Print pattern wall
G1 E-0.4 F2100 ; Retract
G1 Z0.86 F7200 ; Z hop
G0 X83.567 Y53.0068 F7200 ; Move to next pattern
G1 Z0.46 F7200 ; Z hop return
G1 E0.4 F2100 ; Un-retract
SET_PRESSURE_ADVANCE ADVANCE=0.06 ; Set pressure advance
M117 PA 0.06
G1 X104.7802 Y74.22 E0.99515 F6000 ; Print pattern wall
G1 X83.567 Y95.4332 E0.99515 F6000 ; Print pattern wall
G1 E-0.4 F2100 ; Retract
G1 Z0.86 F7200 ; Z hop
G0 X84.1427 Y53.0068 F7200 ; Move to start next pattern wall
G1 Z0.46 F7200 ; Z hop return
G1 E0.4 F2100 ; Un-retract
G1 X105.3559 Y74.22 E0.99515 F6000 ; Print pattern wall
G1 X84.1427 Y95.4332 E0.99515 F6000 ; Print pattern wall
G1 E-0.4 F2100 ; Retract
G1 Z0.86 F7200 ; Z hop
G0 X84.7184 Y53.0068 F7200 ; Move to start next pattern wall
G1 Z0.46 F7200 ; Z hop return
G1 E0.4 F2100 ; Un-retract
G1 X105.9316 Y74.22 E0.99515 F6000 ; Print pattern wall
G1 X84.7184 Y95.4332 E0.99515 F6000 ; Print pattern wall
G1 E-0.4 F2100 ; Retract
G1 Z0.86 F7200 ; Z hop
G0 X87.1684 Y53.0068 F7200 ; Move to next pattern
G1 Z0.46 F7200 ; Z hop return
G1 E0.4 F2100 ; Un-retract
SET_PRESSURE_ADVANCE ADVANCE=0.065 ; Set pressure advance
M117 PA 0.065
G1 X108.3816 Y74.22 E0.99515 F6000 ; Print pattern wall
G1 X87.1684 Y95.4332 E0.99515 F6000 ; Print pattern wall
G1 E-0.4 F2100 ; Retract
G1 Z0.86 F7200 ; Z hop
G0 X87.7441 Y53.0068 F7200 ; Move to start next pattern wall
G1 Z0.46 F7200 ; Z hop return
G1 E0.4 F2100 ; Un-retract
G1 X108.9573 Y74.22 E0.99515 F6000 ; Print pattern wall
G1 X87.7441 Y95.4332 E0.99515 F6000 ; Print pattern wall
G1 E-0.4 F2100 ; Retract
G1 Z0.86 F7200 ; Z hop
G0 X88.3198 Y53.0068 F7200 ; Move to start next pattern wall
G1 Z0.46 F7200 ; Z hop return
G1 E0.4 F2100 ; Un-retract
G1 X109.533 Y74.22 E0.99515 F6000 ; Print pattern wall
G1 X88.3198 Y95.4332 E0.99515 F6000 ; Print pattern wall
G1 E-0.4 F2100 ; Retract
G1 Z0.86 F7200 ; Z hop
G0 X90.7698 Y53.0068 F7200 ; Move to next pattern
G1 Z0.46 F7200 ; Z hop return
G1 E0.4 F2100 ; Un-retract
SET_PRESSURE_ADVANCE ADVANCE=0.07 ; Set pressure advance
M117 PA 0.07
G1 X111.983 Y74.22 E0.99515 F6000 ; Print pattern wall
G1 X90.7698 Y95.4332 E0.99515 F6000 ; Print pattern wall
G1 E-0.4 F2100 ; Retract
G1 Z0.86 F7200 ; Z hop
G0 X91.3455 Y53.0068 F7200 ; Move to start next pattern wall
G1 Z0.46 F7200 ; Z hop return
G1 E0.4 F2100 ; Un-retract
G1 X112.5587 Y74.22 E0.99515 F6000 ; Print pattern wall
G1 X91.3455 Y95.4332 E0.99515 F6000 ; Print pattern wall
G1 E-0.4 F2100 ; Retract
G1 Z0.86 F7200 ; Z hop
G0 X91.9212 Y53.0068 F7200 ; Move to start next pattern wall
G1 Z0.46 F7200 ; Z hop return
G1 E0.4 F2100 ; Un-retract
G1 X113.1344 Y74.22 E0.99515 F6000 ; Print pattern wall
G1 X91.9212 Y95.4332 E0.99515 F6000 ; Print pattern wall
G1 E-0.4 F2100 ; Retract
G1 Z0.86 F7200 ; Z hop
G0 X94.3712 Y53.0068 F7200 ; Move to next pattern
G1 Z0.46 F7200 ; Z hop return
G1 E0.4 F2100 ; Un-retract
SET_PRESSURE_ADVANCE ADVANCE=0.075 ; Set pressure advance
M117 PA 0.075
G1 X115.5844 Y74.22 E0.99515 F6000 ; Print pattern wall
G1 X94.3712 Y95.4332 E0.99515 F6000 ; Print pattern wall
G1 E-0.4 F2100 ; Retract
G1 Z0.86 F7200 ; Z hop
G0 X94.9469 Y53.0068 F7200 ; Move to start next pattern wall
G1 Z0.46 F7200 ; Z hop return
G1 E0.4 F2100 ; Un-retract
G1 X116.1601 Y74.22 E0.99515 F6000 ; Print pattern wall
G1 X94.9469 Y95.4332 E0.99515 F6000 ; Print pattern wall
G1 E-0.4 F2100 ; Retract
G1 Z0.86 F7200 ; Z hop
G0 X95.5226 Y53.0068 F7200 ; Move to start next pattern wall
G1 Z0.46 F7200 ; Z hop return
G1 E0.4 F2100 ; Un-retract
G1 X116.7358 Y74.22 E0.99515 F6000 ; Print pattern wall
G1 X95.5226 Y95.4332 E0.99515 F6000 ; Print pattern wall
G1 E-0.4 F2100 ; Retract
G1 Z0.86 F7200 ; Z hop
G0 X97.9726 Y53.0068 F7200 ; Move to next pattern
G1 Z0.46 F7200 ; Z hop return
G1 E0.4 F2100 ; Un-retract
SET_PRESSURE_ADVANCE ADVANCE=0.08 ; Set pressure advance
M117 PA 0.08
G1 X119.1858 Y74.22 E0.99515 F6000 ; Print pattern wall
G1 X97.9726 Y95.4332 E0.99515 F6000 ; Print pattern wall
G1 E-0.4 F2100 ; Retract
G1 Z0.86 F7200 ; Z hop
G0 X98.5483 Y53.0068 F7200 ; Move to start next pattern wall
G1 Z0.46 F7200 ; Z hop return
G1 E0.4 F2100 ; Un-retract
G1 X119.7615 Y74.22 E0.99515 F6000 ; Print pattern wall
G1 X98.5483 Y95.4332 E0.99515 F6000 ; Print pattern wall
G1 E-0.4 F2100 ; Retract
G1 Z0.86 F7200 ; Z hop
G0 X99.124 Y53.0068 F7200 ; Move to start next pattern wall
G1 Z0.46 F7200 ; Z hop return
G1 E0.4 F2100 ; Un-retract
G1 X120.3372 Y74.22 E0.99515 F6000 ; Print pattern wall
G1 X99.124 Y95.4332 E0.99515 F6000 ; Print pattern wall
G1 E-0.4 F2100 ; Retract
G1 Z0.86 F7200 ; Z hop
G0 X40.3503 Y53.0068 F7200 ; Move back to start position
G1 Z0.46 F7200 ; Z hop return
G1 E0.4 F2100 ; Un-retract
G0 Z0.66 F7200 ; Move to layer height
SET_PRESSURE_ADVANCE ADVANCE=0 ; Set pressure advance
M117 PA 0
G1 X61.5635 Y74.22 E0.99515 F6000 ; Print pattern wall
G1 X40.3503 Y95.4332 E0.99515 F6000 ; Print pattern wall
G1 E-0.4 F2100 ; Retract
G1 Z1.06 F7200 ; Z hop
G0 X40.926 Y53.0068 F7200 ; Move to start next pattern wall
G1 Z0.66 F7200 ; Z hop return
G1 E0.4 F2100 ; Un-retract
G1 X62.1392 Y74.22 E0.99515 F6000 ; Print pattern wall
G1 X40.926 Y95.4332 E0.99515 F6000 ; Print pattern wall
G1 E-0.4 F2100 ; Retract
G1 Z1.06 F7200 ; Z hop
G0 X41.5017 Y53.0068 F7200 ; Move to start next pattern wall
G1 Z0.66 F7200 ; Z hop return
G1 E0.4 F2100 ; Un-retract
G1 X62.7149 Y74.22 E0.99515 F6000 ; Print pattern wall
G1 X41.5017 Y95.4332 E0.99515 F6000 ; Print pattern wall
G1 E-0.4 F2100 ; Retract
G1 Z1.06 F7200 ; Z hop
G0 X43.9517 Y53.0068 F7200 ; Move to next pattern
G1 Z0.66 F7200 ; Z hop return
G1 E0.4 F2100 ; Un-retract
SET_PRESSURE_ADVANCE ADVANCE=0.005 ; Set pressure advance
M117 PA 0.005
G1 X65.1649 Y74.22 E0.99515 F6000 ; Print pattern wall
G1 X43.9517 Y95.4332 E0.99515 F6000 ; Print pattern wall
G1 E-0.4 F2100 ; Retract
G1 Z1.06 F7200 ; Z hop
G0 X44.5274 Y53.0068 F7200 ; Move to start next pattern wall
G1 Z0.66 F7200 ; Z hop return
G1 E0.4 F2100 ; Un-retract
G1 X65.7406 Y74.22 E0.99515 F6000 ; Print pattern wall
G1 X44.5274 Y95.4332 E0.99515 F6000 ; Print pattern wall
G1 E-0.4 F2100 ; Retract
G1 Z1.06 F7200 ; Z hop
G0 X45.1031 Y53.0068 F7200 ; Move to start next pattern wall
G1 Z0.66 F7200 ; Z hop return
G1 E0.4 F2100 ; Un-retract
G1 X66.3163 Y74.22 E0.99515 F6000 ; Print pattern wall
G1 X45.1031 Y95.4332 E0.99515 F6000 ; Print pattern wall
G1 E-0.4 F2100 ; Retract
G1 Z1.06 F7200 ; Z hop
G0 X47.5531 Y53.0068 F7200 ; Move to next pattern
G1 Z0.66 F7200 ; Z hop return
G1 E0.4 F2100 ; Un-retract
SET_PRESSURE_ADVANCE ADVANCE=0.01 ; Set pressure advance
M117 PA 0.01
G1 X68.7663 Y74.22 E0.99515 F6000 ; Print pattern wall
G1 X47.5531 Y95.4332 E0.99515 F6000 ; Print pattern wall
G1 E-0.4 F2100 ; Retract
G1 Z1.06 F7200 ; Z hop
G0 X48.1288 Y53.0068 F7200 ; Move to start next pattern wall
G1 Z0.66 F7200 ; Z hop return
G1 E0.4 F2100 ; Un-retract
G1 X69.342 Y74.22 E0.99515 F6000 ; Print pattern wall
G1 X48.1288 Y95.4332 E0.99515 F6000 ; Print pattern wall
G1 E-0.4 F2100 ; Retract
G1 Z1.06 F7200 ; Z hop
G0 X48.7045 Y53.0068 F7200 ; Move to start next pattern wall
G1 Z0.66 F7200 ; Z hop return
G1 E0.4 F2100 ; Un-retract
G1 X69.9177 Y74.22 E0.99515 F6000 ; Print pattern wall
G1 X48.7045 Y95.4332 E0.99515 F6000 ; Print pattern wall
G1 E-0.4 F2100 ; Retract
G1 Z1.06 F7200 ; Z hop
G0 X51.1545 Y53.0068 F7200 ; Move to next pattern
G1 Z0.66 F7200 ; Z hop return
G1 E0.4 F2100 ; Un-retract
SET_PRESSURE_ADVANCE ADVANCE=0.015 ; Set pressure advance
M117 PA 0.015
G1 X72.3677 Y74.22 E0.99515 F6000 ; Print pattern wall
G1 X51.1545 Y95.4332 E0.99515 F6000 ; Print pattern wall
G1 E-0.4 F2100 ; Retract
G1 Z1.06 F7200 ; Z hop
G0 X51.7302 Y53.0068 F7200 ; Move to start next pattern wall
G1 Z0.66 F7200 ; Z hop return
G1 E0.4 F2100 ; Un-retract
G1 X72.9434 Y74.22 E0.99515 F6000 ; Print pattern wall
G1 X51.7302 Y95.4332 E0.99515 F6000 ; Print pattern wall
G1 E-0.4 F2100 ; Retract
G1 Z1.06 F7200 ; Z hop
G0 X52.3059 Y53.0068 F7200 ; Move to start next pattern wall
G1 Z0.66 F7200 ; Z hop return
G1 E0.4 F2100 ; Un-retract
G1 X73.5191 Y74.22 E0.99515 F6000 ; Print pattern wall
G1 X52.3059 Y95.4332 E0.99515 F6000 ; Print pattern wall
G1 E-0.4 F2100 ; Retract
G1 Z1.06 F7200 ; Z hop
G0 X54.7559 Y53.0068 F7200 ; Move to next pattern
G1 Z0.66 F7200 ; Z hop return
G1 E0.4 F2100 ; Un-retract
SET_PRESSURE_ADVANCE ADVANCE=0.02 ; Set pressure advance
M117 PA 0.02
G1 X75.9691 Y74.22 E0.99515 F6000 ; Print pattern wall
G1 X54.7559 Y95.4332 E0.99515 F6000 ; Print pattern wall
G1 E-0.4 F2100 ; Retract
G1 Z1.06 F7200 ; Z hop
G0 X55.3316 Y53.0068 F7200 ; Move to start next pattern wall
G1 Z0.66 F7200 ; Z hop return
G1 E0.4 F2100 ; Un-retract
G1 X76.5448 Y74.22 E0.99515 F6000 ; Print pattern wall
G1 X55.3316 Y95.4332 E0.99515 F6000 ; Print pattern wall
G1 E-0.4 F2100 ; Retract
G1 Z1.06 F7200 ; Z hop
G0 X55.9073 Y53.0068 F7200 ; Move to start next pattern wall
G1 Z0.66 F7200 ; Z hop return
G1 E0.4 F2100 ; Un-retract
G1 X77.1205 Y74.22 E0.99515 F6000 ; Print pattern wall
G1 X55.9073 Y95.4332 E0.99515 F6000 ; Print pattern wall
G1 E-0.4 F2100 ; Retract
G1 Z1.06 F7200 ; Z hop
G0 X58.3573 Y53.0068 F7200 ; Move to next pattern
G1 Z0.66 F7200 ; Z hop return
G1 E0.4 F2100 ; Un-retract
SET_PRESSURE_ADVANCE ADVANCE=0.025 ; Set pressure advance
M117 PA 0.025
G1 X79.5705 Y74.22 E0.99515 F6000 ; Print pattern wall
G1 X58.3573 Y95.4332 E0.99515 F6000 ; Print pattern wall
G1 E-0.4 F2100 ; Retract
G1 Z1.06 F7200 ; Z hop
G0 X58.933 Y53.0068 F7200 ; Move to start next pattern wall
G1 Z0.66 F7200 ; Z hop return
G1 E0.4 F2100 ; Un-retract
G1 X80.1462 Y74.22 E0.99515 F6000 ; Print pattern wall
G1 X58.933 Y95.4332 E0.99515 F6000 ; Print pattern wall
G1 E-0.4 F2100 ; Retract
G1 Z1.06 F7200 ; Z hop
G0 X59.5087 Y53.0068 F7200 ; Move to start next pattern wall
G1 Z0.66 F7200 ; Z hop return
G1 E0.4 F2100 ; Un-retract
G1 X80.7219 Y74.22 E0.99515 F6000 ; Print pattern wall
G1 X59.5087 Y95.4332 E0.99515 F6000 ; Print pattern wall
G1 E-0.4 F2100 ; Retract
G1 Z1.06 F7200 ; Z hop
G0 X61.9587 Y53.0068 F7200 ; Move to next pattern
G1 Z0.66 F7200 ; Z hop return
G1 E0.4 F2100 ; Un-retract
SET_PRESSURE_ADVANCE ADVANCE=0.03 ; Set pressure advance
M117 PA 0.03
G1 X83.1719 Y74.22 E0.99515 F6000 ; Print pattern wall
G1 X61.9587 Y95.4332 E0.99515 F6000 ; Print pattern wall
G1 E-0.4 F2100 ; Retract
G1 Z1.06 F7200 ; Z hop
G0 X62.5344 Y53.0068 F7200 ; Move to start next pattern wall
G1 Z0.66 F7200 ; Z hop return
G1 E0.4 F2100 ; Un-retract
G1 X83.7476 Y74.22 E0.99515 F6000 ; Print pattern wall
G1 X62.5344 Y95.4332 E0.99515 F6000 ; Print pattern wall
G1 E-0.4 F2100 ; Retract
G1 Z1.06 F7200 ; Z hop
G0 X63.1101 Y53.0068 F7200 ; Move to start next pattern wall
G1 Z0.66 F7200 ; Z hop return
G1 E0.4 F2100 ; Un-retract
G1 X84.3233 Y74.22 E0.99515 F6000 ; Print pattern wall
G1 X63.1101 Y95.4332 E0.99515 F6000 ; Print pattern wall
G1 E-0.4 F2100 ; Retract
G1 Z1.06 F7200 ; Z hop
G0 X65.5601 Y53.0068 F7200 ; Move to next pattern
G1 Z0.66 F7200 ; Z hop return
G1 E0.4 F2100 ; Un-retract
SET_PRESSURE_ADVANCE ADVANCE=0.035 ; Set pressure advance
M117 PA 0.035
G1 X86.7733 Y74.22 E0.99515 F6000 ; Print pattern wall
G1 X65.5601 Y95.4332 E0.99515 F6000 ; Print pattern wall
G1 E-0.4 F2100 ; Retract
G1 Z1.06 F7200 ; Z hop
G0 X66.1358 Y53.0068 F7200 ; Move to start next pattern wall
G1 Z0.66 F7200 ; Z hop return
G1 E0.4 F2100 ; Un-retract
G1 X87.349 Y74.22 E0.99515 F6000 ; Print pattern wall
G1 X66.1358 Y95.4332 E0.99515 F6000 ; Print pattern wall
G1 E-0.4 F2100 ; Retract
G1 Z1.06 F7200 ; Z hop
G0 X66.7115 Y53.0068 F7200 ; Move to start next pattern wall
G1 Z0.66 F7200 ; Z hop return
G1 E0.4 F2100 ; Un-retract
G1 X87.9247 Y74.22 E0.99515 F6000 ; Print pattern wall
G1 X66.7115 Y95.4332 E0.99515 F6000 ; Print pattern wall
G1 E-0.4 F2100 ; Retract
G1 Z1.06 F7200 ; Z hop
G0 X69.1615 Y53.0068 F7200 ; Move to next pattern
G1 Z0.66 F7200 ; Z hop return
G1 E0.4 F2100 ; Un-retract
SET_PRESSURE_ADVANCE ADVANCE=0.04 ; Set pressure advance
M117 PA 0.04
G1 X90.3747 Y74.22 E0.99515 F6000 ; Print pattern wall
G1 X69.1615 Y95.4332 E0.99515 F6000 ; Print pattern wall
G1 E-0.4 F2100 ; Retract
G1 Z1.06 F7200 ; Z hop
G0 X69.7372 Y53.0068 F7200 ; Move to start next pattern wall
G1 Z0.66 F7200 ; Z hop return
G1 E0.4 F2100 ; Un-retract
G1 X90.9504 Y74.22 E0.99515 F6000 ; Print pattern wall
G1 X69.7372 Y95.4332 E0.99515 F6000 ; Print pattern wall
G1 E-0.4 F2100 ; Retract
G1 Z1.06 F7200 ; Z hop
G0 X70.3128 Y53.0068 F7200 ; Move to start next pattern wall
G1 Z0.66 F7200 ; Z hop return
G1 E0.4 F2100 ; Un-retract
G1 X91.5261 Y74.22 E0.99515 F6000 ; Print pattern wall
G1 X70.3128 Y95.4332 E0.99515 F6000 ; Print pattern wall
G1 E-0.4 F2100 ; Retract
G1 Z1.06 F7200 ; Z hop
G0 X72.7628 Y53.0068 F7200 ; Move to next pattern
G1 Z0.66 F7200 ; Z hop return
G1 E0.4 F2100 ; Un-retract
SET_PRESSURE_ADVANCE ADVANCE=0.045 ; Set pressure advance
M117 PA 0.045
G1 X93.9761 Y74.22 E0.99515 F6000 ; Print pattern wall
G1 X72.7628 Y95.4332 E0.99515 F6000 ; Print pattern wall
G1 E-0.4 F2100 ; Retract
G1 Z1.06 F7200 ; Z hop
G0 X73.3385 Y53.0068 F7200 ; Move to start next pattern wall
G1 Z0.66 F7200 ; Z hop return
G1 E0.4 F2100 ; Un-retract
G1 X94.5518 Y74.22 E0.99515 F6000 ; Print pattern wall
G1 X73.3385 Y95.4332 E0.99515 F6000 ; Print pattern wall
G1 E-0.4 F2100 ; Retract
G1 Z1.06 F7200 ; Z hop
G0 X73.9142 Y53.0068 F7200 ; Move to start next pattern wall
G1 Z0.66 F7200 ; Z hop return
G1 E0.4 F2100 ; Un-retract
G1 X95.1274 Y74.22 E0.99515 F6000 ; Print pattern wall
G1 X73.9142 Y95.4332 E0.99515 F6000 ; Print pattern wall
G1 E-0.4 F2100 ; Retract
G1 Z1.06 F7200 ; Z hop
G0 X76.3642 Y53.0068 F7200 ; Move to next pattern
G1 Z0.66 F7200 ; Z hop return
G1 E0.4 F2100 ; Un-retract
SET_PRESSURE_ADVANCE ADVANCE=0.05 ; Set pressure advance
M117 PA 0.05
G1 X97.5774 Y74.22 E0.99515 F6000 ; Print pattern wall
G1 X76.3642 Y95.4332 E0.99515 F6000 ; Print pattern wall
G1 E-0.4 F2100 ; Retract
G1 Z1.06 F7200 ; Z hop
G0 X76.9399 Y53.0068 F7200 ; Move to start next pattern wall
G1 Z0.66 F7200 ; Z hop return
G1 E0.4 F2100 ; Un-retract
G1 X98.1531 Y74.22 E0.99515 F6000 ; Print pattern wall
G1 X76.9399 Y95.4332 E0.99515 F6000 ; Print pattern wall
G1 E-0.4 F2100 ; Retract
G1 Z1.06 F7200 ; Z hop
G0 X77.5156 Y53.0068 F7200 ; Move to start next pattern wall
G1 Z0.66 F7200 ; Z hop return
G1 E0.4 F2100 ; Un-retract
G1 X98.7288 Y74.22 E0.99515 F6000 ; Print pattern wall
G1 X77.5156 Y95.4332 E0.99515 F6000 ; Print pattern wall
G1 E-0.4 F2100 ; Retract
G1 Z1.06 F7200 ; Z hop
G0 X79.9656 Y53.0068 F7200 ; Move to next pattern
G1 Z0.66 F7200 ; Z hop return
G1 E0.4 F2100 ; Un-retract
SET_PRESSURE_ADVANCE ADVANCE=0.055 ; Set pressure advance
M117 PA 0.055
G1 X101.1788 Y74.22 E0.99515 F6000 ; Print pattern wall
G1 X79.9656 Y95.4332 E0.99515 F6000 ; Print pattern wall
G1 E-0.4 F2100 ; Retract
G1 Z1.06 F7200 ; Z hop
G0 X80.5413 Y53.0068 F7200 ; Move to start next pattern wall
G1 Z0.66 F7200 ; Z hop return
G1 E0.4 F2100 ; Un-retract
G1 X101.7545 Y74.22 E0.99515 F6000 ; Print pattern wall
G1 X80.5413 Y95.4332 E0.99515 F6000 ; Print pattern wall
G1 E-0.4 F2100 ; Retract
G1 Z1.06 F7200 ; Z hop
G0 X81.117 Y53.0068 F7200 ; Move to start next pattern wall
G1 Z0.66 F7200 ; Z hop return
G1 E0.4 F2100 ; Un-retract
G1 X102.3302 Y74.22 E0.99515 F6000 ; Print pattern wall
G1 X81.117 Y95.4332 E0.99515 F6000 ; Print pattern wall
G1 E-0.4 F2100 ; Retract
G1 Z1.06 F7200 ; Z hop
G0 X83.567 Y53.0068 F7200 ; Move to next pattern
G1 Z0.66 F7200 ; Z hop return
G1 E0.4 F2100 ; Un-retract
SET_PRESSURE_ADVANCE ADVANCE=0.06 ; Set pressure advance
M117 PA 0.06
G1 X104.7802 Y74.22 E0.99515 F6000 ; Print pattern wall
G1 X83.567 Y95.4332 E0.99515 F6000 ; Print pattern wall
G1 E-0.4 F2100 ; Retract
G1 Z1.06 F7200 ; Z hop
G0 X84.1427 Y53.0068 F7200 ; Move to start next pattern wall
G1 Z0.66 F7200 ; Z hop return
G1 E0.4 F2100 ; Un-retract
G1 X105.3559 Y74.22 E0.99515 F6000 ; Print pattern wall
G1 X84.1427 Y95.4332 E0.99515 F6000 ; Print pattern wall
G1 E-0.4 F2100 ; Retract
G1 Z1.06 F7200 ; Z hop
G0 X84.7184 Y53.0068 F7200 ; Move to start next pattern wall
G1 Z0.66 F7200 ; Z hop return
G1 E0.4 F2100 ; Un-retract
G1 X105.9316 Y74.22 E0.99515 F6000 ; Print pattern wall
G1 X84.7184 Y95.4332 E0.99515 F6000 ; Print pattern wall
G1 E-0.4 F2100 ; Retract
G1 Z1.06 F7200 ; Z hop
G0 X87.1684 Y53.0068 F7200 ; Move to next pattern
G1 Z0.66 F7200 ; Z hop return
G1 E0.4 F2100 ; Un-retract
SET_PRESSURE_ADVANCE ADVANCE=0.065 ; Set pressure advance
M117 PA 0.065
G1 X108.3816 Y74.22 E0.99515 F6000 ; Print pattern wall
G1 X87.1684 Y95.4332 E0.99515 F6000 ; Print pattern wall
G1 E-0.4 F2100 ; Retract
G1 Z1.06 F7200 ; Z hop
G0 X87.7441 Y53.0068 F7200 ; Move to start next pattern wall
G1 Z0.66 F7200 ; Z hop return
G1 E0.4 F2100 ; Un-retract
G1 X108.9573 Y74.22 E0.99515 F6000 ; Print pattern wall
G1 X87.7441 Y95.4332 E0.99515 F6000 ; Print pattern wall
G1 E-0.4 F2100 ; Retract
G1 Z1.06 F7200 ; Z hop
G0 X88.3198 Y53.0068 F7200 ; Move to start next pattern wall
G1 Z0.66 F7200 ; Z hop return
G1 E0.4 F2100 ; Un-retract
G1 X109.533 Y74.22 E0.99515 F6000 ; Print pattern wall
G1 X88.3198 Y95.4332 E0.99515 F6000 ; Print pattern wall
G1 E-0.4 F2100 ; Retract
G1 Z1.06 F7200 ; Z hop
G0 X90.7698 Y53.0068 F7200 ; Move to next pattern
G1 Z0.66 F7200 ; Z hop return
G1 E0.4 F2100 ; Un-retract
SET_PRESSURE_ADVANCE ADVANCE=0.07 ; Set pressure advance
M117 PA 0.07
G1 X111.983 Y74.22 E0.99515 F6000 ; Print pattern wall
G1 X90.7698 Y95.4332 E0.99515 F6000 ; Print pattern wall
G1 E-0.4 F2100 ; Retract
G1 Z1.06 F7200 ; Z hop
G0 X91.3455 Y53.0068 F7200 ; Move to start next pattern wall
G1 Z0.66 F7200 ; Z hop return
G1 E0.4 F2100 ; Un-retract
G1 X112.5587 Y74.22 E0.99515 F6000 ; Print pattern wall
G1 X91.3455 Y95.4332 E0.99515 F6000 ; Print pattern wall
G1 E-0.4 F2100 ; Retract
G1 Z1.06 F7200 ; Z hop
G0 X91.9212 Y53.0068 F7200 ; Move to start next pattern wall
G1 Z0.66 F7200 ; Z hop return
G1 E0.4 F2100 ; Un-retract
G1 X113.1344 Y74.22 E0.99515 F6000 ; Print pattern wall
G1 X91.9212 Y95.4332 E0.99515 F6000 ; Print pattern wall
G1 E-0.4 F2100 ; Retract
G1 Z1.06 F7200 ; Z hop
G0 X94.3712 Y53.0068 F7200 ; Move to next pattern
G1 Z0.66 F7200 ; Z hop return
G1 E0.4 F2100 ; Un-retract
SET_PRESSURE_ADVANCE ADVANCE=0.075 ; Set pressure advance
M117 PA 0.075
G1 X115.5844 Y74.22 E0.99515 F6000 ; Print pattern wall
G1 X94.3712 Y95.4332 E0.99515 F6000 ; Print pattern wall
G1 E-0.4 F2100 ; Retract
G1 Z1.06 F7200 ; Z hop
G0 X94.9469 Y53.0068 F7200 ; Move to start next pattern wall
G1 Z0.66 F7200 ; Z hop return
G1 E0.4 F2100 ; Un-retract
G1 X116.1601 Y74.22 E0.99515 F6000 ; Print pattern wall
G1 X94.9469 Y95.4332 E0.99515 F6000 ; Print pattern wall
G1 E-0.4 F2100 ; Retract
G1 Z1.06 F7200 ; Z hop
G0 X95.5226 Y53.0068 F7200 ; Move to start next pattern wall
G1 Z0.66 F7200 ; Z hop return
G1 E0.4 F2100 ; Un-retract
G1 X116.7358 Y74.22 E0.99515 F6000 ; Print pattern wall
G1 X95.5226 Y95.4332 E0.99515 F6000 ; Print pattern wall
G1 E-0.4 F2100 ; Retract
G1 Z1.06 F7200 ; Z hop
G0 X97.9726 Y53.0068 F7200 ; Move to next pattern
G1 Z0.66 F7200 ; Z hop return
G1 E0.4 F2100 ; Un-retract
SET_PRESSURE_ADVANCE ADVANCE=0.08 ; Set pressure advance
M117 PA 0.08
G1 X119.1858 Y74.22 E0.99515 F6000 ; Print pattern wall
G1 X97.9726 Y95.4332 E0.99515 F6000 ; Print pattern wall
G1 E-0.4 F2100 ; Retract
G1 Z1.06 F7200 ; Z hop
G0 X98.5483 Y53.0068 F7200 ; Move to start next pattern wall
G1 Z0.66 F7200 ; Z hop return
G1 E0.4 F2100 ; Un-retract
G1 X119.7615 Y74.22 E0.99515 F6000 ; Print pattern wall
G1 X98.5483 Y95.4332 E0.99515 F6000 ; Print pattern wall
G1 E-0.4 F2100 ; Retract
G1 Z1.06 F7200 ; Z hop
G0 X99.124 Y53.0068 F7200 ; Move to start next pattern wall
G1 Z0.66 F7200 ; Z hop return
G1 E0.4 F2100 ; Un-retract
G1 X120.3372 Y74.22 E0.99515 F6000 ; Print pattern wall
G1 X99.124 Y95.4332 E0.99515 F6000 ; Print pattern wall
G1 E-0.4 F2100 ; Retract
G1 Z1.06 F7200 ; Z hop
G0 X40.3503 Y53.0068 F7200 ; Move back to start position
G1 Z0.66 F7200 ; Z hop return
G1 E0.4 F2100 ; Un-retract
G0 Z0.86 F7200 ; Move to layer height
SET_PRESSURE_ADVANCE ADVANCE=0 ; Set pressure advance
M117 PA 0
G1 X61.5635 Y74.22 E0.99515 F6000 ; Print pattern wall
G1 X40.3503 Y95.4332 E0.99515 F6000 ; Print pattern wall
G1 E-0.4 F2100 ; Retract
G1 Z1.26 F7200 ; Z hop
G0 X40.926 Y53.0068 F7200 ; Move to start next pattern wall
G1 Z0.86 F7200 ; Z hop return
G1 E0.4 F2100 ; Un-retract
G1 X62.1392 Y74.22 E0.99515 F6000 ; Print pattern wall
G1 X40.926 Y95.4332 E0.99515 F6000 ; Print pattern wall
G1 E-0.4 F2100 ; Retract
G1 Z1.26 F7200 ; Z hop
G0 X41.5017 Y53.0068 F7200 ; Move to start next pattern wall
G1 Z0.86 F7200 ; Z hop return
G1 E0.4 F2100 ; Un-retract
G1 X62.7149 Y74.22 E0.99515 F6000 ; Print pattern wall
G1 X41.5017 Y95.4332 E0.99515 F6000 ; Print pattern wall
G1 E-0.4 F2100 ; Retract
G1 Z1.26 F7200 ; Z hop
G0 X43.9517 Y53.0068 F7200 ; Move to next pattern
G1 Z0.86 F7200 ; Z hop return
G1 E0.4 F2100 ; Un-retract
SET_PRESSURE_ADVANCE ADVANCE=0.005 ; Set pressure advance
M117 PA 0.005
G1 X65.1649 Y74.22 E0.99515 F6000 ; Print pattern wall
G1 X43.9517 Y95.4332 E0.99515 F6000 ; Print pattern wall
G1 E-0.4 F2100 ; Retract
G1 Z1.26 F7200 ; Z hop
G0 X44.5274 Y53.0068 F7200 ; Move to start next pattern wall
G1 Z0.86 F7200 ; Z hop return
G1 E0.4 F2100 ; Un-retract
G1 X65.7406 Y74.22 E0.99515 F6000 ; Print pattern wall
G1 X44.5274 Y95.4332 E0.99515 F6000 ; Print pattern wall
G1 E-0.4 F2100 ; Retract
G1 Z1.26 F7200 ; Z hop
G0 X45.1031 Y53.0068 F7200 ; Move to start next pattern wall
G1 Z0.86 F7200 ; Z hop return
G1 E0.4 F2100 ; Un-retract
G1 X66.3163 Y74.22 E0.99515 F6000 ; Print pattern wall
G1 X45.1031 Y95.4332 E0.99515 F6000 ; Print pattern wall
G1 E-0.4 F2100 ; Retract
G1 Z1.26 F7200 ; Z hop
G0 X47.5531 Y53.0068 F7200 ; Move to next pattern
G1 Z0.86 F7200 ; Z hop return
G1 E0.4 F2100 ; Un-retract
SET_PRESSURE_ADVANCE ADVANCE=0.01 ; Set pressure advance
M117 PA 0.01
G1 X68.7663 Y74.22 E0.99515 F6000 ; Print pattern wall
G1 X47.5531 Y95.4332 E0.99515 F6000 ; Print pattern wall
G1 E-0.4 F2100 ; Retract
G1 Z1.26 F7200 ; Z hop
G0 X48.1288 Y53.0068 F7200 ; Move to start next pattern wall
G1 Z0.86 F7200 ; Z hop return
G1 E0.4 F2100 ; Un-retract
G1 X69.342 Y74.22 E0.99515 F6000 ; Print pattern wall
G1 X48.1288 Y95.4332 E0.99515 F6000 ; Print pattern wall
G1 E-0.4 F2100 ; Retract
G1 Z1.26 F7200 ; Z hop
G0 X48.7045 Y53.0068 F7200 ; Move to start next pattern wall
G1 Z0.86 F7200 ; Z hop return
G1 E0.4 F2100 ; Un-retract
G1 X69.9177 Y74.22 E0.99515 F6000 ; Print pattern wall
G1 X48.7045 Y95.4332 E0.99515 F6000 ; Print pattern wall
G1 E-0.4 F2100 ; Retract
G1 Z1.26 F7200 ; Z hop
G0 X51.1545 Y53.0068 F7200 ; Move to next pattern
G1 Z0.86 F7200 ; Z hop return
G1 E0.4 F2100 ; Un-retract
SET_PRESSURE_ADVANCE ADVANCE=0.015 ; Set pressure advance
M117 PA 0.015
G1 X72.3677 Y74.22 E0.99515 F6000 ; Print pattern wall
G1 X51.1545 Y95.4332 E0.99515 F6000 ; Print pattern wall
G1 E-0.4 F2100 ; Retract
G1 Z1.26 F7200 ; Z hop
G0 X51.7302 Y53.0068 F7200 ; Move to start next pattern wall
G1 Z0.86 F7200 ; Z hop return
G1 E0.4 F2100 ; Un-retract
G1 X72.9434 Y74.22 E0.99515 F6000 ; Print pattern wall
G1 X51.7302 Y95.4332 E0.99515 F6000 ; Print pattern wall
G1 E-0.4 F2100 ; Retract
G1 Z1.26 F7200 ; Z hop
G0 X52.3059 Y53.0068 F7200 ; Move to start next pattern wall
G1 Z0.86 F7200 ; Z hop return
G1 E0.4 F2100 ; Un-retract
G1 X73.5191 Y74.22 E0.99515 F6000 ; Print pattern wall
G1 X52.3059 Y95.4332 E0.99515 F6000 ; Print pattern wall
G1 E-0.4 F2100 ; Retract
G1 Z1.26 F7200 ; Z hop
G0 X54.7559 Y53.0068 F7200 ; Move to next pattern
G1 Z0.86 F7200 ; Z hop return
G1 E0.4 F2100 ; Un-retract
SET_PRESSURE_ADVANCE ADVANCE=0.02 ; Set pressure advance
M117 PA 0.02
G1 X75.9691 Y74.22 E0.99515 F6000 ; Print pattern wall
G1 X54.7559 Y95.4332 E0.99515 F6000 ; Print pattern wall
G1 E-0.4 F2100 ; Retract
G1 Z1.26 F7200 ; Z hop
G0 X55.3316 Y53.0068 F7200 ; Move to start next pattern wall
G1 Z0.86 F7200 ; Z hop return
G1 E0.4 F2100 ; Un-retract
G1 X76.5448 Y74.22 E0.99515 F6000 ; Print pattern wall
G1 X55.3316 Y95.4332 E0.99515 F6000 ; Print pattern wall
G1 E-0.4 F2100 ; Retract
G1 Z1.26 F7200 ; Z hop
G0 X55.9073 Y53.0068 F7200 ; Move to start next pattern wall
G1 Z0.86 F7200 ; Z hop return
G1 E0.4 F2100 ; Un-retract
G1 X77.1205 Y74.22 E0.99515 F6000 ; Print pattern wall
G1 X55.9073 Y95.4332 E0.99515 F6000 ; Print pattern wall
G1 E-0.4 F2100 ; Retract
G1 Z1.26 F7200 ; Z hop
G0 X58.3573 Y53.0068 F7200 ; Move to next pattern
G1 Z0.86 F7200 ; Z hop return
G1 E0.4 F2100 ; Un-retract
SET_PRESSURE_ADVANCE ADVANCE=0.025 ; Set pressure advance
M117 PA 0.025
G1 X79.5705 Y74.22 E0.99515 F6000 ; Print pattern wall
G1 X58.3573 Y95.4332 E0.99515 F6000 ; Print pattern wall
G1 E-0.4 F2100 ; Retract
G1 Z1.26 F7200 ; Z hop
G0 X58.933 Y53.0068 F7200 ; Move to start next pattern wall
G1 Z0.86 F7200 ; Z hop return
G1 E0.4 F2100 ; Un-retract
G1 X80.1462 Y74.22 E0.99515 F6000 ; Print pattern wall
G1 X58.933 Y95.4332 E0.99515 F6000 ; Print pattern wall
G1 E-0.4 F2100 ; Retract
G1 Z1.26 F7200 ; Z hop
G0 X59.5087 Y53.0068 F7200 ; Move to start next pattern wall
G1 Z0.86 F7200 ; Z hop return
G1 E0.4 F2100 ; Un-retract
G1 X80.7219 Y74.22 E0.99515 F6000 ; Print pattern wall
G1 X59.5087 Y95.4332 E0.99515 F6000 ; Print pattern wall
G1 E-0.4 F2100 ; Retract
G1 Z1.26 F7200 ; Z hop
G0 X61.9587 Y53.0068 F7200 ; Move to next pattern
G1 Z0.86 F7200 ; Z hop return
G1 E0.4 F2100 ; Un-retract
SET_PRESSURE_ADVANCE ADVANCE=0.03 ; Set pressure advance
M117 PA 0.03
G1 X83.1719 Y74.22 E0.99515 F6000 ; Print pattern wall
G1 X61.9587 Y95.4332 E0.99515 F6000 ; Print pattern wall
G1 E-0.4 F2100 ; Retract
G1 Z1.26 F7200 ; Z hop
G0 X62.5344 Y53.0068 F7200 ; Move to start next pattern wall
G1 Z0.86 F7200 ; Z hop return
G1 E0.4 F2100 ; Un-retract
G1 X83.7476 Y74.22 E0.99515 F6000 ; Print pattern wall
G1 X62.5344 Y95.4332 E0.99515 F6000 ; Print pattern wall
G1 E-0.4 F2100 ; Retract
G1 Z1.26 F7200 ; Z hop
G0 X63.1101 Y53.0068 F7200 ; Move to start next pattern wall
G1 Z0.86 F7200 ; Z hop return
G1 E0.4 F2100 ; Un-retract
G1 X84.3233 Y74.22 E0.99515 F6000 ; Print pattern wall
G1 X63.1101 Y95.4332 E0.99515 F6000 ; Print pattern wall
G1 E-0.4 F2100 ; Retract
G1 Z1.26 F7200 ; Z hop
G0 X65.5601 Y53.0068 F7200 ; Move to next pattern
G1 Z0.86 F7200 ; Z hop return
G1 E0.4 F2100 ; Un-retract
SET_PRESSURE_ADVANCE ADVANCE=0.035 ; Set pressure advance
M117 PA 0.035
G1 X86.7733 Y74.22 E0.99515 F6000 ; Print pattern wall
G1 X65.5601 Y95.4332 E0.99515 F6000 ; Print pattern wall
G1 E-0.4 F2100 ; Retract
G1 Z1.26 F7200 ; Z hop
G0 X66.1358 Y53.0068 F7200 ; Move to start next pattern wall
G1 Z0.86 F7200 ; Z hop return
G1 E0.4 F2100 ; Un-retract
G1 X87.349 Y74.22 E0.99515 F6000 ; Print pattern wall
G1 X66.1358 Y95.4332 E0.99515 F6000 ; Print pattern wall
G1 E-0.4 F2100 ; Retract
G1 Z1.26 F7200 ; Z hop
G0 X66.7115 Y53.0068 F7200 ; Move to start next pattern wall
G1 Z0.86 F7200 ; Z hop return
G1 E0.4 F2100 ; Un-retract
G1 X87.9247 Y74.22 E0.99515 F6000 ; Print pattern wall
G1 X66.7115 Y95.4332 E0.99515 F6000 ; Print pattern wall
G1 E-0.4 F2100 ; Retract
G1 Z1.26 F7200 ; Z hop
G0 X69.1615 Y53.0068 F7200 ; Move to next pattern
G1 Z0.86 F7200 ; Z hop return
G1 E0.4 F2100 ; Un-retract
SET_PRESSURE_ADVANCE ADVANCE=0.04 ; Set pressure advance
M117 PA 0.04
G1 X90.3747 Y74.22 E0.99515 F6000 ; Print pattern wall
G1 X69.1615 Y95.4332 E0.99515 F6000 ; Print pattern wall
G1 E-0.4 F2100 ; Retract
G1 Z1.26 F7200 ; Z hop
G0 X69.7372 Y53.0068 F7200 ; Move to start next pattern wall
G1 Z0.86 F7200 ; Z hop return
G1 E0.4 F2100 ; Un-retract
G1 X90.9504 Y74.22 E0.99515 F6000 ; Print pattern wall
G1 X69.7372 Y95.4332 E0.99515 F6000 ; Print pattern wall
G1 E-0.4 F2100 ; Retract
G1 Z1.26 F7200 ; Z hop
G0 X70.3128 Y53.0068 F7200 ; Move to start next pattern wall
G1 Z0.86 F7200 ; Z hop return
G1 E0.4 F2100 ; Un-retract
G1 X91.5261 Y74.22 E0.99515 F6000 ; Print pattern wall
G1 X70.3128 Y95.4332 E0.99515 F6000 ; Print pattern wall
G1 E-0.4 F2100 ; Retract
G1 Z1.26 F7200 ; Z hop
G0 X72.7628 Y53.0068 F7200 ; Move to next pattern
G1 Z0.86 F7200 ; Z hop return
G1 E0.4 F2100 ; Un-retract
SET_PRESSURE_ADVANCE ADVANCE=0.045 ; Set pressure advance
M117 PA 0.045
G1 X93.9761 Y74.22 E0.99515 F6000 ; Print pattern wall
G1 X72.7628 Y95.4332 E0.99515 F6000 ; Print pattern wall
G1 E-0.4 F2100 ; Retract
G1 Z1.26 F7200 ; Z hop
G0 X73.3385 Y53.0068 F7200 ; Move to start next pattern wall
G1 Z0.86 F7200 ; Z hop return
G1 E0.4 F2100 ; Un-retract
G1 X94.5518 Y74.22 E0.99515 F6000 ; Print pattern wall
G1 X73.3385 Y95.4332 E0.99515 F6000 ; Print pattern wall
G1 E-0.4 F2100 ; Retract
G1 Z1.26 F7200 ; Z hop
G0 X73.9142 Y53.0068 F7200 ; Move to start next pattern wall
G1 Z0.86 F7200 ; Z hop return
G1 E0.4 F2100 ; Un-retract
G1 X95.1274 Y74.22 E0.99515 F6000 ; Print pattern wall
G1 X73.9142 Y95.4332 E0.99515 F6000 ; Print pattern wall
G1 E-0.4 F2100 ; Retract
G1 Z1.26 F7200 ; Z hop
G0 X76.3642 Y53.0068 F7200 ; Move to next pattern
G1 Z0.86 F7200 ; Z hop return
G1 E0.4 F2100 ; Un-retract
SET_PRESSURE_ADVANCE ADVANCE=0.05 ; Set pressure advance
M117 PA 0.05
G1 X97.5774 Y74.22 E0.99515 F6000 ; Print pattern wall
G1 X76.3642 Y95.4332 E0.99515 F6000 ; Print pattern wall
G1 E-0.4 F2100 ; Retract
G1 Z1.26 F7200 ; Z hop
G0 X76.9399 Y53.0068 F7200 ; Move to start next pattern wall
G1 Z0.86 F7200 ; Z hop return
G1 E0.4 F2100 ; Un-retract
G1 X98.1531 Y74.22 E0.99515 F6000 ; Print pattern wall
G1 X76.9399 Y95.4332 E0.99515 F6000 ; Print pattern wall
G1 E-0.4 F2100 ; Retract
G1 Z1.26 F7200 ; Z hop
G0 X77.5156 Y53.0068 F7200 ; Move to start next pattern wall
G1 Z0.86 F7200 ; Z hop return
G1 E0.4 F2100 ; Un-retract
G1 X98.7288 Y74.22 E0.99515 F6000 ; Print pattern wall
G1 X77.5156 Y95.4332 E0.99515 F6000 ; Print pattern wall
G1 E-0.4 F2100 ; Retract
G1 Z1.26 F7200 ; Z hop
G0 X79.9656 Y53.0068 F7200 ; Move to next pattern
G1 Z0.86 F7200 ; Z hop return
G1 E0.4 F2100 ; Un-retract
SET_PRESSURE_ADVANCE ADVANCE=0.055 ; Set pressure advance
M117 PA 0.055
G1 X101.1788 Y74.22 E0.99515 F6000 ; Print pattern wall
G1 X79.9656 Y95.4332 E0.99515 F6000 ; Print pattern wall
G1 E-0.4 F2100 ; Retract
G1 Z1.26 F7200 ; Z hop
G0 X80.5413 Y53.0068 F7200 ; Move to start next pattern wall
G1 Z0.86 F7200 ; Z hop return
G1 E0.4 F2100 ; Un-retract
G1 X101.7545 Y74.22 E0.99515 F6000 ; Print pattern wall
G1 X80.5413 Y95.4332 E0.99515 F6000 ; Print pattern wall
G1 E-0.4 F2100 ; Retract
G1 Z1.26 F7200 ; Z hop
G0 X81.117 Y53.0068 F7200 ; Move to start next pattern wall
G1 Z0.86 F7200 ; Z hop return
G1 E0.4 F2100 ; Un-retract
G1 X102.3302 Y74.22 E0.99515 F6000 ; Print pattern wall
G1 X81.117 Y95.4332 E0.99515 F6000 ; Print pattern wall
G1 E-0.4 F2100 ; Retract
G1 Z1.26 F7200 ; Z hop
G0 X83.567 Y53.0068 F7200 ; Move to next pattern
G1 Z0.86 F7200 ; Z hop return
G1 E0.4 F2100 ; Un-retract
SET_PRESSURE_ADVANCE ADVANCE=0.06 ; Set pressure advance
M117 PA 0.06
G1 X104.7802 Y74.22 E0.99515 F6000 ; Print pattern wall
G1 X83.567 Y95.4332 E0.99515 F6000 ; Print pattern wall
G1 E-0.4 F2100 ; Retract
G1 Z1.26 F7200 ; Z hop
G0 X84.1427 Y53.0068 F7200 ; Move to start next pattern wall
G1 Z0.86 F7200 ; Z hop return
G1 E0.4 F2100 ; Un-retract
G1 X105.3559 Y74.22 E0.99515 F6000 ; Print pattern wall
G1 X84.1427 Y95.4332 E0.99515 F6000 ; Print pattern wall
G1 E-0.4 F2100 ; Retract
G1 Z1.26 F7200 ; Z hop
G0 X84.7184 Y53.0068 F7200 ; Move to start next pattern wall
G1 Z0.86 F7200 ; Z hop return
G1 E0.4 F2100 ; Un-retract
G1 X105.9316 Y74.22 E0.99515 F6000 ; Print pattern wall
G1 X84.7184 Y95.4332 E0.99515 F6000 ; Print pattern wall
G1 E-0.4 F2100 ; Retract
G1 Z1.26 F7200 ; Z hop
G0 X87.1684 Y53.0068 F7200 ; Move to next pattern
G1 Z0.86 F7200 ; Z hop return
G1 E0.4 F2100 ; Un-retract
SET_PRESSURE_ADVANCE ADVANCE=0.065 ; Set pressure advance
M117 PA 0.065
G1 X108.3816 Y74.22 E0.99515 F6000 ; Print pattern wall
G1 X87.1684 Y95.4332 E0.99515 F6000 ; Print pattern wall
G1 E-0.4 F2100 ; Retract
G1 Z1.26 F7200 ; Z hop
G0 X87.7441 Y53.0068 F7200 ; Move to start next pattern wall
G1 Z0.86 F7200 ; Z hop return
G1 E0.4 F2100 ; Un-retract
G1 X108.9573 Y74.22 E0.99515 F6000 ; Print pattern wall
G1 X87.7441 Y95.4332 E0.99515 F6000 ; Print pattern wall
G1 E-0.4 F2100 ; Retract
G1 Z1.26 F7200 ; Z hop
G0 X88.3198 Y53.0068 F7200 ; Move to start next pattern wall
G1 Z0.86 F7200 ; Z hop return
G1 E0.4 F2100 ; Un-retract
G1 X109.533 Y74.22 E0.99515 F6000 ; Print pattern wall
G1 X88.3198 Y95.4332 E0.99515 F6000 ; Print pattern wall
G1 E-0.4 F2100 ; Retract
G1 Z1.26 F7200 ; Z hop
G0 X90.7698 Y53.0068 F7200 ; Move to next pattern
G1 Z0.86 F7200 ; Z hop return
G1 E0.4 F2100 ; Un-retract
SET_PRESSURE_ADVANCE ADVANCE=0.07 ; Set pressure advance
M117 PA 0.07
G1 X111.983 Y74.22 E0.99515 F6000 ; Print pattern wall
G1 X90.7698 Y95.4332 E0.99515 F6000 ; Print pattern wall
G1 E-0.4 F2100 ; Retract
G1 Z1.26 F7200 ; Z hop
G0 X91.3455 Y53.0068 F7200 ; Move to start next pattern wall
G1 Z0.86 F7200 ; Z hop return
G1 E0.4 F2100 ; Un-retract
G1 X112.5587 Y74.22 E0.99515 F6000 ; Print pattern wall
G1 X91.3455 Y95.4332 E0.99515 F6000 ; Print pattern wall
G1 E-0.4 F2100 ; Retract
G1 Z1.26 F7200 ; Z hop
G0 X91.9212 Y53.0068 F7200 ; Move to start next pattern wall
G1 Z0.86 F7200 ; Z hop return
G1 E0.4 F2100 ; Un-retract
G1 X113.1344 Y74.22 E0.99515 F6000 ; Print pattern wall
G1 X91.9212 Y95.4332 E0.99515 F6000 ; Print pattern wall
G1 E-0.4 F2100 ; Retract
G1 Z1.26 F7200 ; Z hop
G0 X94.3712 Y53.0068 F7200 ; Move to next pattern
G1 Z0.86 F7200 ; Z hop return
G1 E0.4 F2100 ; Un-retract
SET_PRESSURE_ADVANCE ADVANCE=0.075 ; Set pressure advance
M117 PA 0.075
G1 X115.5844 Y74.22 E0.99515 F6000 ; Print pattern wall
G1 X94.3712 Y95.4332 E0.99515 F6000 ; Print pattern wall
G1 E-0.4 F2100 ; Retract
G1 Z1.26 F7200 ; Z hop
G0 X94.9469 Y53.0068 F7200 ; Move to start next pattern wall
G1 Z0.86 F7200 ; Z hop return
G1 E0.4 F2100 ; Un-retract
G1 X116.1601 Y74.22 E0.99515 F6000 ; Print pattern wall
G1 X94.9469 Y95.4332 E0.99515 F6000 ; Print pattern wall
G1 E-0.4 F2100 ; Retract
G1 Z1.26 F7200 ; Z hop
G0 X95.5226 Y53.0068 F7200 ; Move to start next pattern wall
G1 Z0.86 F7200 ; Z hop return
G1 E0.4 F2100 ; Un-retract
G1 X116.7358 Y74.22 E0.99515 F6000 ; Print pattern wall
G1 X95.5226 Y95.4332 E0.99515 F6000 ; Print pattern wall
G1 E-0.4 F2100 ; Retract
G1 Z1.26 F7200 ; Z hop
G0 X97.9726 Y53.0068 F7200 ; Move to next pattern
G1 Z0.86 F7200 ; Z hop return
G1 E0.4 F2100 ; Un-retract
SET_PRESSURE_ADVANCE ADVANCE=0.08 ; Set pressure advance
M117 PA 0.08
G1 X119.1858 Y74.22 E0.99515 F6000 ; Print pattern wall
G1 X97.9726 Y95.4332 E0.99515 F6000 ; Print pattern wall
G1 E-0.4 F2100 ; Retract
G1 Z1.26 F7200 ; Z hop
G0 X98.5483 Y53.0068 F7200 ; Move to start next pattern wall
G1 Z0.86 F7200 ; Z hop return
G1 E0.4 F2100 ; Un-retract
G1 X119.7615 Y74.22 E0.99515 F6000 ; Print pattern wall
G1 X98.5483 Y95.4332 E0.99515 F6000 ; Print pattern wall
G1 E-0.4 F2100 ; Retract
G1 Z1.26 F7200 ; Z hop
G0 X99.124 Y53.0068 F7200 ; Move to start next pattern wall
G1 Z0.86 F7200 ; Z hop return
G1 E0.4 F2100 ; Un-retract
G1 X120.3372 Y74.22 E0.99515 F6000 ; Print pattern wall
G1 X99.124 Y95.4332 E0.99515 F6000 ; Print pattern wall
SET_PRESSURE_ADVANCE ADVANCE=0 ; Set pressure advance back to start value
M117 PA 0
G1 E-0.4 F2100 ; Retract
G1 Z1.26 F7200 ; Z hop
G0 Z5.86 F7200 ; Z raise
M104 S0 ; Turn off hotend
M140 S0 ; Turn off bed
M107    ; Turn off fan
;
; End G-code
;
PRINT_END ; End macro. Change name to match yours
;
; FINISH
;
