; ### Klipper Pressure Advance Calibration Pattern ###
;
; Original Marlin linear advance calibration tool by Sineos [https://github.com/Sineos]
; Heavily modified/rewritten by Andrew Ellis [https://github.com/AndrewEllis93]
;
; -------------------------------------------
; Generated: Sun Dec 11 2022 13:48:58 GMT-0800 (Pacific Standard Time)
; -------------------------------------------
;
; Expert mode: false
;
; Printer:
;  - Firmware: klipper
;  - Bed Shape: Rect
;  - Bed Size X: 160 mm
;  - Bed Size Y: 160 mm
;  - Origin Bed Center: false
;  - Travel Speed: 120 mm/s
;  - Nozzle Diameter: 0.4 mm
;  - Filament Diameter: 1.75 mm
;  - Extrusion Multiplier: 0.93
;
; Retraction / Z Hop:
;  - Retraction Distance: 0.4 mm
;  - Retract Speed: 35 mm/s
;  - Unretract Speed: 35 mm/s
;  - Z Hop Enable: true
;  - Z Hop Height: 0.4mm
;
; First Layer Settings:
;  - First Layer Height: 0.25 mm
;  - First Layer Printing Speed: 30 mm/s
;  - First Layer Fan Speed: 0%
;  - Anchor Option: anchor_frame
;
; Print Settings:
;  - Layer Height: 0.2 mm
;  - Print Speed: 100 mm/s
;  - Acceleration: Disabled
;  - Fan Speed: 100%
;
; Pressure Advance Stepping:
;  - PA Start Value: 0
;  - PA End Value: 0.08
;  - PA Increment: 0.005
;
; Start / End G-code:
;  - Start G-code Type: standalone_temp_passing
;  - Hotend Temp: 255C
;  - Bed Temp: 110C
;
; Calculated Values:
;  - Print Size X: 84.59 mm
;  - Print Size Y: 53.99 mm
;  - Number of Patterns to Print: 17
;  - PA Values: 0, 0.005, 0.01, 0.015, 0.02, 0.025, 0.03, 0.035, 0.04, 0.045, 0.05, 0.055, 0.06, 0.065, 0.07, 0.075, 0.08
;
; Prepare printing
; 
PRINT_START EXTRUDER=255 BED=110; Start macro w/ temp params. Keep the variables!
;
; - Make sure the macro name AND parameter names match YOUR start macro setup!
;     (For example, some macros use EXTRUDER=X rather than HOTEND=X, or START_PRINT instead of PRINT_START)!
; - Replace any slicer variables with those listed above! It should look like the top example, !!! NOT !!! like this:
;     PRINT_START BED=[first_layer_bed_temperature](...)
G21 ; Millimeter units
G90 ; Absolute XYZ
M83 ; Relative E
G92 E0 ; Reset extruder distance
;
;  Begin printing
;
M106 S0 ; Set fan speed
G1 E-0.4 F2100 ; Retract
G0 Z5 F7200 ; Z raise
G0 X37.7043 Y53.0068 F7200 ; Move to start position
G0 Z0.25 F7200 ; Move to start layer height
G1 E0.4 F2100 ; Un-retract
G1 X37.7043 Y95.4332 E2.07656 F1800 ; Draw perimeter (up)
G1 X122.2957 Y95.4332 E4.14031 F1800 ; Draw perimeter (right)
G1 X122.2957 Y53.0068 E2.07656 F1800 ; Draw perimeter (down)
G1 X37.7043 Y53.0068 E4.14031 F1800 ; Draw perimeter (left)
G0 X38.2107 Y53.5131 F7200 ; Step inwards to print next perimeter
G1 X38.2107 Y94.9269 E2.02699 F1800 ; Draw perimeter (up)
G1 X121.7893 Y94.9269 E4.09075 F1800 ; Draw perimeter (right)
G1 X121.7893 Y53.5131 E2.02699 F1800 ; Draw perimeter (down)
G1 X38.2107 Y53.5131 E4.09075 F1800 ; Draw perimeter (left)
G0 X38.717 Y54.0195 F7200 ; Step inwards to print next perimeter
G1 X38.717 Y94.4205 E1.97742 F1800 ; Draw perimeter (up)
G1 X121.283 Y94.4205 E4.04118 F1800 ; Draw perimeter (right)
G1 X121.283 Y54.0195 E1.97742 F1800 ; Draw perimeter (down)
G1 X38.717 Y54.0195 E4.04118 F1800 ; Draw perimeter (left)
G0 X39.2234 Y54.5258 F7200 ; Step inwards to print next perimeter
G1 X39.2234 Y93.9142 E1.92786 F1800 ; Draw perimeter (up)
G1 X120.7766 Y93.9142 E3.99161 F1800 ; Draw perimeter (right)
G1 X120.7766 Y54.5258 E1.92786 F1800 ; Draw perimeter (down)
G1 X39.2234 Y54.5258 E3.99161 F1800 ; Draw perimeter (left)
G1 E-0.4 F2100 ; Retract
G1 Z0.65 F7200 ; Z hop
G0 X37.7043 Y95.9396 F7200 ; Move to box start
G1 Z0.25 F7200 ; Z hop return
G1 E0.4 F2100 ; Un-retract
G1 X37.7043 Y107.4459 E0.56318 F1800 ; Draw perimeter (up)
G1 X101.8377 Y107.4459 E3.139 F1800 ; Draw perimeter (right)
G1 X101.8377 Y95.9396 E0.56318 F1800 ; Draw perimeter (down)
G1 X37.7043 Y95.9396 E3.139 F1800 ; Draw perimeter (left)
G0 X38.2107 Y96.4459 F7200 ; Step inwards to print next perimeter
G1 X38.2107 Y106.9396 E0.51361 F1800 ; Draw perimeter (up)
G1 X101.3314 Y106.9396 E3.08943 F1800 ; Draw perimeter (right)
G1 X101.3314 Y96.4459 E0.51361 F1800 ; Draw perimeter (down)
G1 X38.2107 Y96.4459 E3.08943 F1800 ; Draw perimeter (left)
G0 X38.717 Y96.9523 F7200 ; Step inwards to print next perimeter
G1 X38.717 Y106.4332 E0.46404 F1800 ; Draw perimeter (up)
G1 X100.825 Y106.4332 E3.03987 F1800 ; Draw perimeter (right)
G1 X100.825 Y96.9523 E0.46404 F1800 ; Draw perimeter (down)
G1 X38.717 Y96.9523 E3.03987 F1800 ; Draw perimeter (left)
G0 X39.2234 Y97.4586 F7200 ; Step inwards to print next perimeter
G1 X39.2234 Y105.9269 E0.41448 F1800 ; Draw perimeter (up)
G1 X100.3187 Y105.9269 E2.9903 F1800 ; Draw perimeter (right)
G1 X100.3187 Y97.4586 E0.41448 F1800 ; Draw perimeter (down)
G1 X39.2234 Y97.4586 E2.9903 F1800 ; Draw perimeter (left)
G0 X39.5967 Y97.8319 F7200 ; Move to fill start
G0 X40.3128 Y97.8319 F7200 ; Move
G1 X39.5967 Y98.548 E0.04957 F1800 ; Fill
G0 X39.5967 Y99.2641 F7200 ; Move
G1 X41.0289 Y97.8319 E0.09913 F1800 ; Fill
G0 X41.745 Y97.8319 F7200 ; Move
G1 X39.5967 Y99.9802 E0.1487 F1800 ; Fill
G0 X39.5967 Y100.6963 F7200 ; Move
G1 X42.4611 Y97.8319 E0.19827 F1800 ; Fill
G0 X43.1771 Y97.8319 F7200 ; Move
G1 X39.5967 Y101.4124 E0.24783 F1800 ; Fill
G0 X39.5967 Y102.1285 F7200 ; Move
G1 X43.8932 Y97.8319 E0.2974 F1800 ; Fill
G0 X44.6093 Y97.8319 F7200 ; Move
G1 X39.5967 Y102.8445 E0.34697 F1800 ; Fill
G0 X39.5967 Y103.5606 F7200 ; Move
G1 X45.3254 Y97.8319 E0.39653 F1800 ; Fill
G0 X46.0415 Y97.8319 F7200 ; Move
G1 X39.5967 Y104.2767 E0.4461 F1800 ; Fill
G0 X39.5967 Y104.9928 F7200 ; Move
G1 X46.7576 Y97.8319 E0.49566 F1800 ; Fill
G0 X47.4737 Y97.8319 F7200 ; Move
G1 X39.7521 Y105.5535 E0.53448 F1800 ; Fill
G0 X40.4682 Y105.5535 F7200 ; Move
G1 X48.1898 Y97.8319 E0.53448 F1800 ; Fill
G0 X48.9058 Y97.8319 F7200 ; Move
G1 X41.1843 Y105.5535 E0.53448 F1800 ; Fill
G0 X41.9003 Y105.5535 F7200 ; Move
G1 X49.6219 Y97.8319 E0.53448 F1800 ; Fill
G0 X50.338 Y97.8319 F7200 ; Move
G1 X42.6164 Y105.5535 E0.53448 F1800 ; Fill
G0 X43.3325 Y105.5535 F7200 ; Move
G1 X51.0541 Y97.8319 E0.53448 F1800 ; Fill
G0 X51.7702 Y97.8319 F7200 ; Move
G1 X44.0486 Y105.5535 E0.53448 F1800 ; Fill
G0 X44.7647 Y105.5535 F7200 ; Move
G1 X52.4863 Y97.8319 E0.53448 F1800 ; Fill
G0 X53.2024 Y97.8319 F7200 ; Move
G1 X45.4808 Y105.5535 E0.53448 F1800 ; Fill
G0 X46.1969 Y105.5535 F7200 ; Move
G1 X53.9184 Y97.8319 E0.53448 F1800 ; Fill
G0 X54.6345 Y97.8319 F7200 ; Move
G1 X46.9129 Y105.5535 E0.53448 F1800 ; Fill
G0 X47.629 Y105.5535 F7200 ; Move
G1 X55.3506 Y97.8319 E0.53448 F1800 ; Fill
G0 X56.0667 Y97.8319 F7200 ; Move
G1 X48.3451 Y105.5535 E0.53448 F1800 ; Fill
G0 X49.0612 Y105.5535 F7200 ; Move
G1 X56.7828 Y97.8319 E0.53448 F1800 ; Fill
G0 X57.4989 Y97.8319 F7200 ; Move
G1 X49.7773 Y105.5535 E0.53448 F1800 ; Fill
G0 X50.4934 Y105.5535 F7200 ; Move
G1 X58.215 Y97.8319 E0.53448 F1800 ; Fill
G0 X58.931 Y97.8319 F7200 ; Move
G1 X51.2095 Y105.5535 E0.53448 F1800 ; Fill
G0 X51.9256 Y105.5535 F7200 ; Move
G1 X59.6471 Y97.8319 E0.53448 F1800 ; Fill
G0 X60.3632 Y97.8319 F7200 ; Move
G1 X52.6416 Y105.5535 E0.53448 F1800 ; Fill
G0 X53.3577 Y105.5535 F7200 ; Move
G1 X61.0793 Y97.8319 E0.53448 F1800 ; Fill
G0 X61.7954 Y97.8319 F7200 ; Move
G1 X54.0738 Y105.5535 E0.53448 F1800 ; Fill
G0 X54.7899 Y105.5535 F7200 ; Move
G1 X62.5115 Y97.8319 E0.53448 F1800 ; Fill
G0 X63.2276 Y97.8319 F7200 ; Move
G1 X55.506 Y105.5535 E0.53448 F1800 ; Fill
G0 X56.2221 Y105.5535 F7200 ; Move
G1 X63.9437 Y97.8319 E0.53448 F1800 ; Fill
G0 X64.6597 Y97.8319 F7200 ; Move
G1 X56.9382 Y105.5535 E0.53448 F1800 ; Fill
G0 X57.6542 Y105.5535 F7200 ; Move
G1 X65.3758 Y97.8319 E0.53448 F1800 ; Fill
G0 X66.0919 Y97.8319 F7200 ; Move
G1 X58.3703 Y105.5535 E0.53448 F1800 ; Fill
G0 X59.0864 Y105.5535 F7200 ; Move
G1 X66.808 Y97.8319 E0.53448 F1800 ; Fill
G0 X67.5241 Y97.8319 F7200 ; Move
G1 X59.8025 Y105.5535 E0.53448 F1800 ; Fill
G0 X60.5186 Y105.5535 F7200 ; Move
G1 X68.2402 Y97.8319 E0.53448 F1800 ; Fill
G0 X68.9563 Y97.8319 F7200 ; Move
G1 X61.2347 Y105.5535 E0.53448 F1800 ; Fill
G0 X61.9508 Y105.5535 F7200 ; Move
G1 X69.6723 Y97.8319 E0.53448 F1800 ; Fill
G0 X70.3884 Y97.8319 F7200 ; Move
G1 X62.6668 Y105.5535 E0.53448 F1800 ; Fill
G0 X63.3829 Y105.5535 F7200 ; Move
G1 X71.1045 Y97.8319 E0.53448 F1800 ; Fill
G0 X71.8206 Y97.8319 F7200 ; Move
G1 X64.099 Y105.5535 E0.53448 F1800 ; Fill
G0 X64.8151 Y105.5535 F7200 ; Move
G1 X72.5367 Y97.8319 E0.53448 F1800 ; Fill
G0 X73.2528 Y97.8319 F7200 ; Move
G1 X65.5312 Y105.5535 E0.53448 F1800 ; Fill
G0 X66.2473 Y105.5535 F7200 ; Move
G1 X73.9689 Y97.8319 E0.53448 F1800 ; Fill
G0 X74.685 Y97.8319 F7200 ; Move
G1 X66.9634 Y105.5535 E0.53448 F1800 ; Fill
G0 X67.6795 Y105.5535 F7200 ; Move
G1 X75.401 Y97.8319 E0.53448 F1800 ; Fill
G0 X76.1171 Y97.8319 F7200 ; Move
G1 X68.3955 Y105.5535 E0.53448 F1800 ; Fill
G0 X69.1116 Y105.5535 F7200 ; Move
G1 X76.8332 Y97.8319 E0.53448 F1800 ; Fill
G0 X77.5493 Y97.8319 F7200 ; Move
G1 X69.8277 Y105.5535 E0.53448 F1800 ; Fill
G0 X70.5438 Y105.5535 F7200 ; Move
G1 X78.2654 Y97.8319 E0.53448 F1800 ; Fill
G0 X78.9815 Y97.8319 F7200 ; Move
G1 X71.2599 Y105.5535 E0.53448 F1800 ; Fill
G0 X71.976 Y105.5535 F7200 ; Move
G1 X79.6976 Y97.8319 E0.53448 F1800 ; Fill
G0 X80.4136 Y97.8319 F7200 ; Move
G1 X72.6921 Y105.5535 E0.53448 F1800 ; Fill
G0 X73.4081 Y105.5535 F7200 ; Move
G1 X81.1297 Y97.8319 E0.53448 F1800 ; Fill
G0 X81.8458 Y97.8319 F7200 ; Move
G1 X74.1242 Y105.5535 E0.53448 F1800 ; Fill
G0 X74.8403 Y105.5535 F7200 ; Move
G1 X82.5619 Y97.8319 E0.53448 F1800 ; Fill
G0 X83.278 Y97.8319 F7200 ; Move
G1 X75.5564 Y105.5535 E0.53448 F1800 ; Fill
G0 X76.2725 Y105.5535 F7200 ; Move
G1 X83.9941 Y97.8319 E0.53448 F1800 ; Fill
G0 X84.7102 Y97.8319 F7200 ; Move
G1 X76.9886 Y105.5535 E0.53448 F1800 ; Fill
G0 X77.7047 Y105.5535 F7200 ; Move
G1 X85.4262 Y97.8319 E0.53448 F1800 ; Fill
G0 X86.1423 Y97.8319 F7200 ; Move
G1 X78.4207 Y105.5535 E0.53448 F1800 ; Fill
G0 X79.1368 Y105.5535 F7200 ; Move
G1 X86.8584 Y97.8319 E0.53448 F1800 ; Fill
G0 X87.5745 Y97.8319 F7200 ; Move
G1 X79.8529 Y105.5535 E0.53448 F1800 ; Fill
G0 X80.569 Y105.5535 F7200 ; Move
G1 X88.2906 Y97.8319 E0.53448 F1800 ; Fill
G0 X89.0067 Y97.8319 F7200 ; Move
G1 X81.2851 Y105.5535 E0.53448 F1800 ; Fill
G0 X82.0012 Y105.5535 F7200 ; Move
G1 X89.7228 Y97.8319 E0.53448 F1800 ; Fill
G0 X90.4389 Y97.8319 F7200 ; Move
G1 X82.7173 Y105.5535 E0.53448 F1800 ; Fill
G0 X83.4334 Y105.5535 F7200 ; Move
G1 X91.1549 Y97.8319 E0.53448 F1800 ; Fill
G0 X91.871 Y97.8319 F7200 ; Move
G1 X84.1494 Y105.5535 E0.53448 F1800 ; Fill
G0 X84.8655 Y105.5535 F7200 ; Move
G1 X92.5871 Y97.8319 E0.53448 F1800 ; Fill
G0 X93.3032 Y97.8319 F7200 ; Move
G1 X85.5816 Y105.5535 E0.53448 F1800 ; Fill
G0 X86.2977 Y105.5535 F7200 ; Move
G1 X94.0193 Y97.8319 E0.53448 F1800 ; Fill
G0 X94.7354 Y97.8319 F7200 ; Move
G1 X87.0138 Y105.5535 E0.53448 F1800 ; Fill
G0 X87.7299 Y105.5535 F7200 ; Move
G1 X95.4515 Y97.8319 E0.53448 F1800 ; Fill
G0 X96.1675 Y97.8319 F7200 ; Move
G1 X88.446 Y105.5535 E0.53448 F1800 ; Fill
G0 X89.162 Y105.5535 F7200 ; Move
G1 X96.8836 Y97.8319 E0.53448 F1800 ; Fill
G0 X97.5997 Y97.8319 F7200 ; Move
G1 X89.8781 Y105.5535 E0.53448 F1800 ; Fill
G0 X90.5942 Y105.5535 F7200 ; Move
G1 X98.3158 Y97.8319 E0.53448 F1800 ; Fill
G0 X99.0319 Y97.8319 F7200 ; Move
G1 X91.3103 Y105.5535 E0.53448 F1800 ; Fill
G0 X92.0264 Y105.5535 F7200 ; Move
G1 X99.748 Y97.8319 E0.53448 F1800 ; Fill
G0 X99.9453 Y98.3507 F7200 ; Move
G1 X92.7425 Y105.5535 E0.49857 F1800 ; Fill
G0 X93.4586 Y105.5535 F7200 ; Move
G1 X99.9453 Y99.0668 E0.449 F1800 ; Fill
G0 X99.9453 Y99.7828 F7200 ; Move
G1 X94.1746 Y105.5535 E0.39944 F1800 ; Fill
G0 X94.8907 Y105.5535 F7200 ; Move
G1 X99.9453 Y100.4989 E0.34987 F1800 ; Fill
G0 X99.9453 Y101.215 F7200 ; Move
G1 X95.6068 Y105.5535 E0.30031 F1800 ; Fill
G0 X96.3229 Y105.5535 F7200 ; Move
G1 X99.9453 Y101.9311 E0.25074 F1800 ; Fill
G0 X99.9453 Y102.6472 F7200 ; Move
G1 X97.039 Y105.5535 E0.20117 F1800 ; Fill
G0 X97.7551 Y105.5535 F7200 ; Move
G1 X99.9453 Y103.3633 E0.15161 F1800 ; Fill
G0 X99.9453 Y104.0794 F7200 ; Move
G1 X98.4712 Y105.5535 E0.10204 F1800 ; Fill
G0 X99.1873 Y105.5535 F7200 ; Move
G1 X99.9453 Y104.7954 E0.05247 F1800 ; Fill
G0 X99.9453 Y105.5115 F7200 ; Move
G1 X99.9033 Y105.5535 E0.00291 F1800 ; Fill
G0 Z0.25 F7200 ; Move to layer height
G1 E-0.4 F2100 ; Retract
G1 Z0.65 F7200 ; Z hop
G0 X42.3038 Y54.8992 F7200 ; Move to pattern start

G1 Z0.25 F7200 ; Z hop return
G1 E0.4 F2100 ; Un-retract
G1 X61.6247 Y74.22 E1.04155 F1800 ; Print pattern wall
G1 X42.3038 Y93.5408 E1.04155 F1800 ; Print pattern wall
G1 E-0.4 F2100 ; Retract
G1 Z0.65 F7200 ; Z hop
G0 X42.8767 Y54.8992 F7200 ; Move to start next pattern wall
G1 Z0.25 F7200 ; Z hop return
G1 E0.4 F2100 ; Un-retract
G1 X62.1975 Y74.22 E1.04155 F1800 ; Print pattern wall
G1 X42.8767 Y93.5408 E1.04155 F1800 ; Print pattern wall
G1 E-0.4 F2100 ; Retract
G1 Z0.65 F7200 ; Z hop
G0 X43.4496 Y54.8992 F7200 ; Move to start next pattern wall
G1 Z0.25 F7200 ; Z hop return
G1 E0.4 F2100 ; Un-retract
G1 X62.7704 Y74.22 E1.04155 F1800 ; Print pattern wall
G1 X43.4496 Y93.5408 E1.04155 F1800 ; Print pattern wall
G1 E-0.4 F2100 ; Retract
G1 Z0.65 F7200 ; Z hop
G0 X45.8976 Y54.8992 F7200 ; Move to next pattern
G1 Z0.25 F7200 ; Z hop return
G1 E0.4 F2100 ; Un-retract
G1 X65.2184 Y74.22 E1.04155 F1800 ; Print pattern wall
G1 X45.8976 Y93.5408 E1.04155 F1800 ; Print pattern wall
G1 E-0.4 F2100 ; Retract
G1 Z0.65 F7200 ; Z hop
G0 X46.4705 Y54.8992 F7200 ; Move to start next pattern wall
G1 Z0.25 F7200 ; Z hop return
G1 E0.4 F2100 ; Un-retract
G1 X65.7913 Y74.22 E1.04155 F1800 ; Print pattern wall
G1 X46.4705 Y93.5408 E1.04155 F1800 ; Print pattern wall
G1 E-0.4 F2100 ; Retract
G1 Z0.65 F7200 ; Z hop
G0 X47.0433 Y54.8992 F7200 ; Move to start next pattern wall
G1 Z0.25 F7200 ; Z hop return
G1 E0.4 F2100 ; Un-retract
G1 X66.3641 Y74.22 E1.04155 F1800 ; Print pattern wall
G1 X47.0433 Y93.5408 E1.04155 F1800 ; Print pattern wall
G1 E-0.4 F2100 ; Retract
G1 Z0.65 F7200 ; Z hop
G0 X49.4913 Y54.8992 F7200 ; Move to next pattern
G1 Z0.25 F7200 ; Z hop return
G1 E0.4 F2100 ; Un-retract
G1 X68.8121 Y74.22 E1.04155 F1800 ; Print pattern wall
G1 X49.4913 Y93.5408 E1.04155 F1800 ; Print pattern wall
G1 E-0.4 F2100 ; Retract
G1 Z0.65 F7200 ; Z hop
G0 X50.0642 Y54.8992 F7200 ; Move to start next pattern wall
G1 Z0.25 F7200 ; Z hop return
G1 E0.4 F2100 ; Un-retract
G1 X69.385 Y74.22 E1.04155 F1800 ; Print pattern wall
G1 X50.0642 Y93.5408 E1.04155 F1800 ; Print pattern wall
G1 E-0.4 F2100 ; Retract
G1 Z0.65 F7200 ; Z hop
G0 X50.6371 Y54.8992 F7200 ; Move to start next pattern wall
G1 Z0.25 F7200 ; Z hop return
G1 E0.4 F2100 ; Un-retract
G1 X69.9579 Y74.22 E1.04155 F1800 ; Print pattern wall
G1 X50.6371 Y93.5408 E1.04155 F1800 ; Print pattern wall
G1 E-0.4 F2100 ; Retract
G1 Z0.65 F7200 ; Z hop
G0 X53.0851 Y54.8992 F7200 ; Move to next pattern
G1 Z0.25 F7200 ; Z hop return
G1 E0.4 F2100 ; Un-retract
G1 X72.4059 Y74.22 E1.04155 F1800 ; Print pattern wall
G1 X53.0851 Y93.5408 E1.04155 F1800 ; Print pattern wall
G1 E-0.4 F2100 ; Retract
G1 Z0.65 F7200 ; Z hop
G0 X53.6579 Y54.8992 F7200 ; Move to start next pattern wall
G1 Z0.25 F7200 ; Z hop return
G1 E0.4 F2100 ; Un-retract
G1 X72.9788 Y74.22 E1.04155 F1800 ; Print pattern wall
G1 X53.6579 Y93.5408 E1.04155 F1800 ; Print pattern wall
G1 E-0.4 F2100 ; Retract
G1 Z0.65 F7200 ; Z hop
G0 X54.2308 Y54.8992 F7200 ; Move to start next pattern wall
G1 Z0.25 F7200 ; Z hop return
G1 E0.4 F2100 ; Un-retract
G1 X73.5516 Y74.22 E1.04155 F1800 ; Print pattern wall
G1 X54.2308 Y93.5408 E1.04155 F1800 ; Print pattern wall
G1 E-0.4 F2100 ; Retract
G1 Z0.65 F7200 ; Z hop
G0 X56.6788 Y54.8992 F7200 ; Move to next pattern
G1 Z0.25 F7200 ; Z hop return
G1 E0.4 F2100 ; Un-retract
G1 X75.9996 Y74.22 E1.04155 F1800 ; Print pattern wall
G1 X56.6788 Y93.5408 E1.04155 F1800 ; Print pattern wall
G1 E-0.4 F2100 ; Retract
G1 Z0.65 F7200 ; Z hop
G0 X57.2517 Y54.8992 F7200 ; Move to start next pattern wall
G1 Z0.25 F7200 ; Z hop return
G1 E0.4 F2100 ; Un-retract
G1 X76.5725 Y74.22 E1.04155 F1800 ; Print pattern wall
G1 X57.2517 Y93.5408 E1.04155 F1800 ; Print pattern wall
G1 E-0.4 F2100 ; Retract
G1 Z0.65 F7200 ; Z hop
G0 X57.8245 Y54.8992 F7200 ; Move to start next pattern wall
G1 Z0.25 F7200 ; Z hop return
G1 E0.4 F2100 ; Un-retract
G1 X77.1454 Y74.22 E1.04155 F1800 ; Print pattern wall
G1 X57.8245 Y93.5408 E1.04155 F1800 ; Print pattern wall
G1 E-0.4 F2100 ; Retract
G1 Z0.65 F7200 ; Z hop
G0 X60.2725 Y54.8992 F7200 ; Move to next pattern
G1 Z0.25 F7200 ; Z hop return
G1 E0.4 F2100 ; Un-retract
G1 X79.5934 Y74.22 E1.04155 F1800 ; Print pattern wall
G1 X60.2725 Y93.5408 E1.04155 F1800 ; Print pattern wall
G1 E-0.4 F2100 ; Retract
G1 Z0.65 F7200 ; Z hop
G0 X60.8454 Y54.8992 F7200 ; Move to start next pattern wall
G1 Z0.25 F7200 ; Z hop return
G1 E0.4 F2100 ; Un-retract
G1 X80.1662 Y74.22 E1.04155 F1800 ; Print pattern wall
G1 X60.8454 Y93.5408 E1.04155 F1800 ; Print pattern wall
G1 E-0.4 F2100 ; Retract
G1 Z0.65 F7200 ; Z hop
G0 X61.4183 Y54.8992 F7200 ; Move to start next pattern wall
G1 Z0.25 F7200 ; Z hop return
G1 E0.4 F2100 ; Un-retract
G1 X80.7391 Y74.22 E1.04155 F1800 ; Print pattern wall
G1 X61.4183 Y93.5408 E1.04155 F1800 ; Print pattern wall
G1 E-0.4 F2100 ; Retract
G1 Z0.65 F7200 ; Z hop
G0 X63.8663 Y54.8992 F7200 ; Move to next pattern
G1 Z0.25 F7200 ; Z hop return
G1 E0.4 F2100 ; Un-retract
G1 X83.1871 Y74.22 E1.04155 F1800 ; Print pattern wall
G1 X63.8663 Y93.5408 E1.04155 F1800 ; Print pattern wall
G1 E-0.4 F2100 ; Retract
G1 Z0.65 F7200 ; Z hop
G0 X64.4391 Y54.8992 F7200 ; Move to start next pattern wall
G1 Z0.25 F7200 ; Z hop return
G1 E0.4 F2100 ; Un-retract
G1 X83.76 Y74.22 E1.04155 F1800 ; Print pattern wall
G1 X64.4391 Y93.5408 E1.04155 F1800 ; Print pattern wall
G1 E-0.4 F2100 ; Retract
G1 Z0.65 F7200 ; Z hop
G0 X65.012 Y54.8992 F7200 ; Move to start next pattern wall
G1 Z0.25 F7200 ; Z hop return
G1 E0.4 F2100 ; Un-retract
G1 X84.3328 Y74.22 E1.04155 F1800 ; Print pattern wall
G1 X65.012 Y93.5408 E1.04155 F1800 ; Print pattern wall
G1 E-0.4 F2100 ; Retract
G1 Z0.65 F7200 ; Z hop
G0 X67.46 Y54.8992 F7200 ; Move to next pattern
G1 Z0.25 F7200 ; Z hop return
G1 E0.4 F2100 ; Un-retract
G1 X86.7808 Y74.22 E1.04155 F1800 ; Print pattern wall
G1 X67.46 Y93.5408 E1.04155 F1800 ; Print pattern wall
G1 E-0.4 F2100 ; Retract
G1 Z0.65 F7200 ; Z hop
G0 X68.0329 Y54.8992 F7200 ; Move to start next pattern wall
G1 Z0.25 F7200 ; Z hop return
G1 E0.4 F2100 ; Un-retract
G1 X87.3537 Y74.22 E1.04155 F1800 ; Print pattern wall
G1 X68.0329 Y93.5408 E1.04155 F1800 ; Print pattern wall
G1 E-0.4 F2100 ; Retract
G1 Z0.65 F7200 ; Z hop
G0 X68.6058 Y54.8992 F7200 ; Move to start next pattern wall
G1 Z0.25 F7200 ; Z hop return
G1 E0.4 F2100 ; Un-retract
G1 X87.9266 Y74.22 E1.04155 F1800 ; Print pattern wall
G1 X68.6058 Y93.5408 E1.04155 F1800 ; Print pattern wall
G1 E-0.4 F2100 ; Retract
G1 Z0.65 F7200 ; Z hop
G0 X71.0538 Y54.8992 F7200 ; Move to next pattern
G1 Z0.25 F7200 ; Z hop return
G1 E0.4 F2100 ; Un-retract
G1 X90.3746 Y74.22 E1.04155 F1800 ; Print pattern wall
G1 X71.0538 Y93.5408 E1.04155 F1800 ; Print pattern wall
G1 E-0.4 F2100 ; Retract
G1 Z0.65 F7200 ; Z hop
G0 X71.6266 Y54.8992 F7200 ; Move to start next pattern wall
G1 Z0.25 F7200 ; Z hop return
G1 E0.4 F2100 ; Un-retract
G1 X90.9474 Y74.22 E1.04155 F1800 ; Print pattern wall
G1 X71.6266 Y93.5408 E1.04155 F1800 ; Print pattern wall
G1 E-0.4 F2100 ; Retract
G1 Z0.65 F7200 ; Z hop
G0 X72.1995 Y54.8992 F7200 ; Move to start next pattern wall
G1 Z0.25 F7200 ; Z hop return
G1 E0.4 F2100 ; Un-retract
G1 X91.5203 Y74.22 E1.04155 F1800 ; Print pattern wall
G1 X72.1995 Y93.5408 E1.04155 F1800 ; Print pattern wall
G1 E-0.4 F2100 ; Retract
G1 Z0.65 F7200 ; Z hop
G0 X74.6475 Y54.8992 F7200 ; Move to next pattern
G1 Z0.25 F7200 ; Z hop return
G1 E0.4 F2100 ; Un-retract
G1 X93.9683 Y74.22 E1.04155 F1800 ; Print pattern wall
G1 X74.6475 Y93.5408 E1.04155 F1800 ; Print pattern wall
G1 E-0.4 F2100 ; Retract
G1 Z0.65 F7200 ; Z hop
G0 X75.2204 Y54.8992 F7200 ; Move to start next pattern wall
G1 Z0.25 F7200 ; Z hop return
G1 E0.4 F2100 ; Un-retract
G1 X94.5412 Y74.22 E1.04155 F1800 ; Print pattern wall
G1 X75.2204 Y93.5408 E1.04155 F1800 ; Print pattern wall
G1 E-0.4 F2100 ; Retract
G1 Z0.65 F7200 ; Z hop
G0 X75.7932 Y54.8992 F7200 ; Move to start next pattern wall
G1 Z0.25 F7200 ; Z hop return
G1 E0.4 F2100 ; Un-retract
G1 X95.1141 Y74.22 E1.04155 F1800 ; Print pattern wall
G1 X75.7932 Y93.5408 E1.04155 F1800 ; Print pattern wall
G1 E-0.4 F2100 ; Retract
G1 Z0.65 F7200 ; Z hop
G0 X78.2412 Y54.8992 F7200 ; Move to next pattern
G1 Z0.25 F7200 ; Z hop return
G1 E0.4 F2100 ; Un-retract
G1 X97.5621 Y74.22 E1.04155 F1800 ; Print pattern wall
G1 X78.2412 Y93.5408 E1.04155 F1800 ; Print pattern wall
G1 E-0.4 F2100 ; Retract
G1 Z0.65 F7200 ; Z hop
G0 X78.8141 Y54.8992 F7200 ; Move to start next pattern wall
G1 Z0.25 F7200 ; Z hop return
G1 E0.4 F2100 ; Un-retract
G1 X98.1349 Y74.22 E1.04155 F1800 ; Print pattern wall
G1 X78.8141 Y93.5408 E1.04155 F1800 ; Print pattern wall
G1 E-0.4 F2100 ; Retract
G1 Z0.65 F7200 ; Z hop
G0 X79.387 Y54.8992 F7200 ; Move to start next pattern wall
G1 Z0.25 F7200 ; Z hop return
G1 E0.4 F2100 ; Un-retract
G1 X98.7078 Y74.22 E1.04155 F1800 ; Print pattern wall
G1 X79.387 Y93.5408 E1.04155 F1800 ; Print pattern wall
G1 E-0.4 F2100 ; Retract
G1 Z0.65 F7200 ; Z hop
G0 X81.835 Y54.8992 F7200 ; Move to next pattern
G1 Z0.25 F7200 ; Z hop return
G1 E0.4 F2100 ; Un-retract
G1 X101.1558 Y74.22 E1.04155 F1800 ; Print pattern wall
G1 X81.835 Y93.5408 E1.04155 F1800 ; Print pattern wall
G1 E-0.4 F2100 ; Retract
G1 Z0.65 F7200 ; Z hop
G0 X82.4078 Y54.8992 F7200 ; Move to start next pattern wall
G1 Z0.25 F7200 ; Z hop return
G1 E0.4 F2100 ; Un-retract
G1 X101.7287 Y74.22 E1.04155 F1800 ; Print pattern wall
G1 X82.4078 Y93.5408 E1.04155 F1800 ; Print pattern wall
G1 E-0.4 F2100 ; Retract
G1 Z0.65 F7200 ; Z hop
G0 X82.9807 Y54.8992 F7200 ; Move to start next pattern wall
G1 Z0.25 F7200 ; Z hop return
G1 E0.4 F2100 ; Un-retract
G1 X102.3015 Y74.22 E1.04155 F1800 ; Print pattern wall
G1 X82.9807 Y93.5408 E1.04155 F1800 ; Print pattern wall
G1 E-0.4 F2100 ; Retract
G1 Z0.65 F7200 ; Z hop
G0 X85.4287 Y54.8992 F7200 ; Move to next pattern
G1 Z0.25 F7200 ; Z hop return
G1 E0.4 F2100 ; Un-retract
G1 X104.7495 Y74.22 E1.04155 F1800 ; Print pattern wall
G1 X85.4287 Y93.5408 E1.04155 F1800 ; Print pattern wall
G1 E-0.4 F2100 ; Retract
G1 Z0.65 F7200 ; Z hop
G0 X86.0016 Y54.8992 F7200 ; Move to start next pattern wall
G1 Z0.25 F7200 ; Z hop return
G1 E0.4 F2100 ; Un-retract
G1 X105.3224 Y74.22 E1.04155 F1800 ; Print pattern wall
G1 X86.0016 Y93.5408 E1.04155 F1800 ; Print pattern wall
G1 E-0.4 F2100 ; Retract
G1 Z0.65 F7200 ; Z hop
G0 X86.5744 Y54.8992 F7200 ; Move to start next pattern wall
G1 Z0.25 F7200 ; Z hop return
G1 E0.4 F2100 ; Un-retract
G1 X105.8953 Y74.22 E1.04155 F1800 ; Print pattern wall
G1 X86.5744 Y93.5408 E1.04155 F1800 ; Print pattern wall
G1 E-0.4 F2100 ; Retract
G1 Z0.65 F7200 ; Z hop
G0 X89.0224 Y54.8992 F7200 ; Move to next pattern
G1 Z0.25 F7200 ; Z hop return
G1 E0.4 F2100 ; Un-retract
G1 X108.3433 Y74.22 E1.04155 F1800 ; Print pattern wall
G1 X89.0224 Y93.5408 E1.04155 F1800 ; Print pattern wall
G1 E-0.4 F2100 ; Retract
G1 Z0.65 F7200 ; Z hop
G0 X89.5953 Y54.8992 F7200 ; Move to start next pattern wall
G1 Z0.25 F7200 ; Z hop return
G1 E0.4 F2100 ; Un-retract
G1 X108.9161 Y74.22 E1.04155 F1800 ; Print pattern wall
G1 X89.5953 Y93.5408 E1.04155 F1800 ; Print pattern wall
G1 E-0.4 F2100 ; Retract
G1 Z0.65 F7200 ; Z hop
G0 X90.1682 Y54.8992 F7200 ; Move to start next pattern wall
G1 Z0.25 F7200 ; Z hop return
G1 E0.4 F2100 ; Un-retract
G1 X109.489 Y74.22 E1.04155 F1800 ; Print pattern wall
G1 X90.1682 Y93.5408 E1.04155 F1800 ; Print pattern wall
G1 E-0.4 F2100 ; Retract
G1 Z0.65 F7200 ; Z hop
G0 X92.6162 Y54.8992 F7200 ; Move to next pattern
G1 Z0.25 F7200 ; Z hop return
G1 E0.4 F2100 ; Un-retract
G1 X111.937 Y74.22 E1.04155 F1800 ; Print pattern wall
G1 X92.6162 Y93.5408 E1.04155 F1800 ; Print pattern wall
G1 E-0.4 F2100 ; Retract
G1 Z0.65 F7200 ; Z hop
G0 X93.1891 Y54.8992 F7200 ; Move to start next pattern wall
G1 Z0.25 F7200 ; Z hop return
G1 E0.4 F2100 ; Un-retract
G1 X112.5099 Y74.22 E1.04155 F1800 ; Print pattern wall
G1 X93.1891 Y93.5408 E1.04155 F1800 ; Print pattern wall
G1 E-0.4 F2100 ; Retract
G1 Z0.65 F7200 ; Z hop
G0 X93.7619 Y54.8992 F7200 ; Move to start next pattern wall
G1 Z0.25 F7200 ; Z hop return
G1 E0.4 F2100 ; Un-retract
G1 X113.0827 Y74.22 E1.04155 F1800 ; Print pattern wall
G1 X93.7619 Y93.5408 E1.04155 F1800 ; Print pattern wall
G1 E-0.4 F2100 ; Retract
G1 Z0.65 F7200 ; Z hop
G0 X96.2099 Y54.8992 F7200 ; Move to next pattern
G1 Z0.25 F7200 ; Z hop return
G1 E0.4 F2100 ; Un-retract
G1 X115.5307 Y74.22 E1.04155 F1800 ; Print pattern wall
G1 X96.2099 Y93.5408 E1.04155 F1800 ; Print pattern wall
G1 E-0.4 F2100 ; Retract
G1 Z0.65 F7200 ; Z hop
G0 X96.7828 Y54.8992 F7200 ; Move to start next pattern wall
G1 Z0.25 F7200 ; Z hop return
G1 E0.4 F2100 ; Un-retract
G1 X116.1036 Y74.22 E1.04155 F1800 ; Print pattern wall
G1 X96.7828 Y93.5408 E1.04155 F1800 ; Print pattern wall
G1 E-0.4 F2100 ; Retract
G1 Z0.65 F7200 ; Z hop
G0 X97.3557 Y54.8992 F7200 ; Move to start next pattern wall
G1 Z0.25 F7200 ; Z hop return
G1 E0.4 F2100 ; Un-retract
G1 X116.6765 Y74.22 E1.04155 F1800 ; Print pattern wall
G1 X97.3557 Y93.5408 E1.04155 F1800 ; Print pattern wall
G1 E-0.4 F2100 ; Retract
G1 Z0.65 F7200 ; Z hop
G0 X99.8037 Y54.8992 F7200 ; Move to next pattern
G1 Z0.25 F7200 ; Z hop return
G1 E0.4 F2100 ; Un-retract
G1 X119.1245 Y74.22 E1.04155 F1800 ; Print pattern wall
G1 X99.8037 Y93.5408 E1.04155 F1800 ; Print pattern wall
G1 E-0.4 F2100 ; Retract
G1 Z0.65 F7200 ; Z hop
G0 X100.3765 Y54.8992 F7200 ; Move to start next pattern wall
G1 Z0.25 F7200 ; Z hop return
G1 E0.4 F2100 ; Un-retract
G1 X119.6974 Y74.22 E1.04155 F1800 ; Print pattern wall
G1 X100.3765 Y93.5408 E1.04155 F1800 ; Print pattern wall
G1 E-0.4 F2100 ; Retract
G1 Z0.65 F7200 ; Z hop
G0 X100.9494 Y54.8992 F7200 ; Move to start next pattern wall
G1 Z0.25 F7200 ; Z hop return
G1 E0.4 F2100 ; Un-retract
G1 X120.2702 Y74.22 E1.04155 F1800 ; Print pattern wall
G1 X100.9494 Y93.5408 E1.04155 F1800 ; Print pattern wall
G1 E-0.4 F2100 ; Retract
G1 Z0.65 F7200 ; Z hop
G0 X42.3038 Y54.8992 F7200 ; Move back to start position
G1 Z0.25 F7200 ; Z hop return
G1 E0.4 F2100 ; Un-retract
M106 S255 ; Set fan speed
G0 Z0.45 F7200 ; Move to layer height
G1 E-0.4 F2100 ; Retract
G1 Z0.85 F7200 ; Z hop
G0 X38.9843 Y96.8812 F7200 ; Move
G1 Z0.45 F7200 ; Z hop return
G1 E0.4 F2100 ; Un-retract
G1 X40.9843 Y96.8812 E0.06265 F1800 ; Glyph: 0
G1 X42.9843 Y96.8812 E0.06265 F1800 ; Glyph: 0
G1 X42.9843 Y98.8812 E0.06265 F1800 ; Glyph: 0
G1 X40.9843 Y98.8812 E0.06265 F1800 ; Glyph: 0
G1 X38.9843 Y98.8812 E0.06265 F1800 ; Glyph: 0
G1 X38.9843 Y96.8812 E0.06265 F1800 ; Glyph: 0
G1 E-0.4 F2100 ; Retract
G1 Z0.85 F7200 ; Z hop
G0 X46.1718 Y96.8812 F7200 ; Move
G1 Z0.45 F7200 ; Z hop return
G1 E0.4 F2100 ; Un-retract
G1 X48.1718 Y96.8812 E0.06265 F1800 ; Glyph: 0
G1 X50.1718 Y96.8812 E0.06265 F1800 ; Glyph: 0
G1 X50.1718 Y98.8812 E0.06265 F1800 ; Glyph: 0
G1 X48.1718 Y98.8812 E0.06265 F1800 ; Glyph: 0
G1 X46.1718 Y98.8812 E0.06265 F1800 ; Glyph: 0
G1 X46.1718 Y96.8812 E0.06265 F1800 ; Glyph: 0
G1 E-0.4 F2100 ; Retract
G1 Z0.85 F7200 ; Z hop
G0 X50.1718 Y99.8812 F7200 ; Move
G1 Z0.45 F7200 ; Z hop return
G1 E0.4 F2100 ; Un-retract
G1 X49.4218 Y99.8812 E0.02349 F1800 ; Glyph: .
G1 E-0.4 F2100 ; Retract
G1 Z0.85 F7200 ; Z hop
G0 X46.1718 Y100.8812 F7200 ; Move
G1 Z0.45 F7200 ; Z hop return
G1 E0.4 F2100 ; Un-retract
G1 X48.1718 Y100.8812 E0.06265 F1800 ; Glyph: 0
G1 X50.1718 Y100.8812 E0.06265 F1800 ; Glyph: 0
G1 X50.1718 Y102.8812 E0.06265 F1800 ; Glyph: 0
G1 X48.1718 Y102.8812 E0.06265 F1800 ; Glyph: 0
G1 X46.1718 Y102.8812 E0.06265 F1800 ; Glyph: 0
G1 X46.1718 Y100.8812 E0.06265 F1800 ; Glyph: 0
G1 E-0.4 F2100 ; Retract
G1 Z0.85 F7200 ; Z hop
G0 X46.1718 Y103.8812 F7200 ; Move
G1 Z0.45 F7200 ; Z hop return
G1 E0.4 F2100 ; Un-retract
G1 X48.1718 Y103.8812 E0.06265 F1800 ; Glyph: 1
G1 X50.1718 Y103.8812 E0.06265 F1800 ; Glyph: 1
G1 E-0.4 F2100 ; Retract
G1 Z0.85 F7200 ; Z hop
G0 X53.3593 Y96.8812 F7200 ; Move
G1 Z0.45 F7200 ; Z hop return
G1 E0.4 F2100 ; Un-retract
G1 X55.3593 Y96.8812 E0.06265 F1800 ; Glyph: 0
G1 X57.3593 Y96.8812 E0.06265 F1800 ; Glyph: 0
G1 X57.3593 Y98.8812 E0.06265 F1800 ; Glyph: 0
G1 X55.3593 Y98.8812 E0.06265 F1800 ; Glyph: 0
G1 X53.3593 Y98.8812 E0.06265 F1800 ; Glyph: 0
G1 X53.3593 Y96.8812 E0.06265 F1800 ; Glyph: 0
G1 E-0.4 F2100 ; Retract
G1 Z0.85 F7200 ; Z hop
G0 X57.3593 Y99.8812 F7200 ; Move
G1 Z0.45 F7200 ; Z hop return
G1 E0.4 F2100 ; Un-retract
G1 X56.6093 Y99.8812 E0.02349 F1800 ; Glyph: .
G1 E-0.4 F2100 ; Retract
G1 Z0.85 F7200 ; Z hop
G0 X53.3593 Y100.8812 F7200 ; Move
G1 Z0.45 F7200 ; Z hop return
G1 E0.4 F2100 ; Un-retract
G1 X55.3593 Y100.8812 E0.06265 F1800 ; Glyph: 0
G1 X57.3593 Y100.8812 E0.06265 F1800 ; Glyph: 0
G1 X57.3593 Y102.8812 E0.06265 F1800 ; Glyph: 0
G1 X55.3593 Y102.8812 E0.06265 F1800 ; Glyph: 0
G1 X53.3593 Y102.8812 E0.06265 F1800 ; Glyph: 0
G1 X53.3593 Y100.8812 E0.06265 F1800 ; Glyph: 0
G1 E-0.4 F2100 ; Retract
G1 Z0.85 F7200 ; Z hop
G0 X53.3593 Y103.8812 F7200 ; Move
G1 Z0.45 F7200 ; Z hop return
G1 E0.4 F2100 ; Un-retract
G1 X53.3593 Y105.8812 E0.06265 F1800 ; Glyph: 2
G1 X55.3593 Y105.8812 E0.06265 F1800 ; Glyph: 2
G1 X55.3593 Y103.8812 E0.06265 F1800 ; Glyph: 2
G1 X57.3593 Y103.8812 E0.06265 F1800 ; Glyph: 2
G1 X57.3593 Y105.8812 E0.06265 F1800 ; Glyph: 2
G1 E-0.4 F2100 ; Retract
G1 Z0.85 F7200 ; Z hop
G0 X60.5468 Y96.8812 F7200 ; Move
G1 Z0.45 F7200 ; Z hop return
G1 E0.4 F2100 ; Un-retract
G1 X62.5468 Y96.8812 E0.06265 F1800 ; Glyph: 0
G1 X64.5468 Y96.8812 E0.06265 F1800 ; Glyph: 0
G1 X64.5468 Y98.8812 E0.06265 F1800 ; Glyph: 0
G1 X62.5468 Y98.8812 E0.06265 F1800 ; Glyph: 0
G1 X60.5468 Y98.8812 E0.06265 F1800 ; Glyph: 0
G1 X60.5468 Y96.8812 E0.06265 F1800 ; Glyph: 0
G1 E-0.4 F2100 ; Retract
G1 Z0.85 F7200 ; Z hop
G0 X64.5468 Y99.8812 F7200 ; Move
G1 Z0.45 F7200 ; Z hop return
G1 E0.4 F2100 ; Un-retract
G1 X63.7968 Y99.8812 E0.02349 F1800 ; Glyph: .
G1 E-0.4 F2100 ; Retract
G1 Z0.85 F7200 ; Z hop
G0 X60.5468 Y100.8812 F7200 ; Move
G1 Z0.45 F7200 ; Z hop return
G1 E0.4 F2100 ; Un-retract
G1 X62.5468 Y100.8812 E0.06265 F1800 ; Glyph: 0
G1 X64.5468 Y100.8812 E0.06265 F1800 ; Glyph: 0
G1 X64.5468 Y102.8812 E0.06265 F1800 ; Glyph: 0
G1 X62.5468 Y102.8812 E0.06265 F1800 ; Glyph: 0
G1 X60.5468 Y102.8812 E0.06265 F1800 ; Glyph: 0
G1 X60.5468 Y100.8812 E0.06265 F1800 ; Glyph: 0
G1 E-0.4 F2100 ; Retract
G1 Z0.85 F7200 ; Z hop
G0 X60.5468 Y103.8812 F7200 ; Move
G1 Z0.45 F7200 ; Z hop return
G1 E0.4 F2100 ; Un-retract
G1 X60.5468 Y105.8812 E0.06265 F1800 ; Glyph: 3
G1 X62.5468 Y105.8812 E0.06265 F1800 ; Glyph: 3
G1 X62.5468 Y103.8812 E0.06265 F1800 ; Glyph: 3
G0 X62.5468 Y105.8812 F7200 ; Move
G1 X64.5468 Y105.8812 E0.06265 F1800 ; Glyph: 3
G1 X64.5468 Y103.8812 E0.06265 F1800 ; Glyph: 3
G1 E-0.4 F2100 ; Retract
G1 Z0.85 F7200 ; Z hop
G0 X67.7342 Y96.8812 F7200 ; Move
G1 Z0.45 F7200 ; Z hop return
G1 E0.4 F2100 ; Un-retract
G1 X69.7342 Y96.8812 E0.06265 F1800 ; Glyph: 0
G1 X71.7342 Y96.8812 E0.06265 F1800 ; Glyph: 0
G1 X71.7342 Y98.8812 E0.06265 F1800 ; Glyph: 0
G1 X69.7342 Y98.8812 E0.06265 F1800 ; Glyph: 0
G1 X67.7342 Y98.8812 E0.06265 F1800 ; Glyph: 0
G1 X67.7342 Y96.8812 E0.06265 F1800 ; Glyph: 0
G1 E-0.4 F2100 ; Retract
G1 Z0.85 F7200 ; Z hop
G0 X71.7342 Y99.8812 F7200 ; Move
G1 Z0.45 F7200 ; Z hop return
G1 E0.4 F2100 ; Un-retract
G1 X70.9842 Y99.8812 E0.02349 F1800 ; Glyph: .
G1 E-0.4 F2100 ; Retract
G1 Z0.85 F7200 ; Z hop
G0 X67.7342 Y100.8812 F7200 ; Move
G1 Z0.45 F7200 ; Z hop return
G1 E0.4 F2100 ; Un-retract
G1 X69.7342 Y100.8812 E0.06265 F1800 ; Glyph: 0
G1 X71.7342 Y100.8812 E0.06265 F1800 ; Glyph: 0
G1 X71.7342 Y102.8812 E0.06265 F1800 ; Glyph: 0
G1 X69.7342 Y102.8812 E0.06265 F1800 ; Glyph: 0
G1 X67.7342 Y102.8812 E0.06265 F1800 ; Glyph: 0
G1 X67.7342 Y100.8812 E0.06265 F1800 ; Glyph: 0
G1 E-0.4 F2100 ; Retract
G1 Z0.85 F7200 ; Z hop
G0 X67.7342 Y105.8812 F7200 ; Move
G1 Z0.45 F7200 ; Z hop return
G1 E0.4 F2100 ; Un-retract
G1 X69.7342 Y105.8812 E0.06265 F1800 ; Glyph: 4
G1 X71.7342 Y105.8812 E0.06265 F1800 ; Glyph: 4
G0 X69.7342 Y105.8812 F7200 ; Move
G1 X69.7342 Y103.8812 E0.06265 F1800 ; Glyph: 4
G1 X67.7342 Y103.8812 E0.06265 F1800 ; Glyph: 4
G1 E-0.4 F2100 ; Retract
G1 Z0.85 F7200 ; Z hop
G0 X74.9217 Y96.8812 F7200 ; Move
G1 Z0.45 F7200 ; Z hop return
G1 E0.4 F2100 ; Un-retract
G1 X76.9217 Y96.8812 E0.06265 F1800 ; Glyph: 0
G1 X78.9217 Y96.8812 E0.06265 F1800 ; Glyph: 0
G1 X78.9217 Y98.8812 E0.06265 F1800 ; Glyph: 0
G1 X76.9217 Y98.8812 E0.06265 F1800 ; Glyph: 0
G1 X74.9217 Y98.8812 E0.06265 F1800 ; Glyph: 0
G1 X74.9217 Y96.8812 E0.06265 F1800 ; Glyph: 0
G1 E-0.4 F2100 ; Retract
G1 Z0.85 F7200 ; Z hop
G0 X78.9217 Y99.8812 F7200 ; Move
G1 Z0.45 F7200 ; Z hop return
G1 E0.4 F2100 ; Un-retract
G1 X78.1717 Y99.8812 E0.02349 F1800 ; Glyph: .
G1 E-0.4 F2100 ; Retract
G1 Z0.85 F7200 ; Z hop
G0 X74.9217 Y100.8812 F7200 ; Move
G1 Z0.45 F7200 ; Z hop return
G1 E0.4 F2100 ; Un-retract
G1 X76.9217 Y100.8812 E0.06265 F1800 ; Glyph: 0
G1 X78.9217 Y100.8812 E0.06265 F1800 ; Glyph: 0
G1 X78.9217 Y102.8812 E0.06265 F1800 ; Glyph: 0
G1 X76.9217 Y102.8812 E0.06265 F1800 ; Glyph: 0
G1 X74.9217 Y102.8812 E0.06265 F1800 ; Glyph: 0
G1 X74.9217 Y100.8812 E0.06265 F1800 ; Glyph: 0
G1 E-0.4 F2100 ; Retract
G1 Z0.85 F7200 ; Z hop
G0 X74.9217 Y105.8812 F7200 ; Move
G1 Z0.45 F7200 ; Z hop return
G1 E0.4 F2100 ; Un-retract
G1 X74.9217 Y103.8812 E0.06265 F1800 ; Glyph: 5
G1 X76.9217 Y103.8812 E0.06265 F1800 ; Glyph: 5
G1 X76.9217 Y105.8812 E0.06265 F1800 ; Glyph: 5
G1 X78.9217 Y105.8812 E0.06265 F1800 ; Glyph: 5
G1 X78.9217 Y103.8812 E0.06265 F1800 ; Glyph: 5
G1 E-0.4 F2100 ; Retract
G1 Z0.85 F7200 ; Z hop
G0 X82.1092 Y96.8812 F7200 ; Move
G1 Z0.45 F7200 ; Z hop return
G1 E0.4 F2100 ; Un-retract
G1 X84.1092 Y96.8812 E0.06265 F1800 ; Glyph: 0
G1 X86.1092 Y96.8812 E0.06265 F1800 ; Glyph: 0
G1 X86.1092 Y98.8812 E0.06265 F1800 ; Glyph: 0
G1 X84.1092 Y98.8812 E0.06265 F1800 ; Glyph: 0
G1 X82.1092 Y98.8812 E0.06265 F1800 ; Glyph: 0
G1 X82.1092 Y96.8812 E0.06265 F1800 ; Glyph: 0
G1 E-0.4 F2100 ; Retract
G1 Z0.85 F7200 ; Z hop
G0 X86.1092 Y99.8812 F7200 ; Move
G1 Z0.45 F7200 ; Z hop return
G1 E0.4 F2100 ; Un-retract
G1 X85.3592 Y99.8812 E0.02349 F1800 ; Glyph: .
G1 E-0.4 F2100 ; Retract
G1 Z0.85 F7200 ; Z hop
G0 X82.1092 Y100.8812 F7200 ; Move
G1 Z0.45 F7200 ; Z hop return
G1 E0.4 F2100 ; Un-retract
G1 X84.1092 Y100.8812 E0.06265 F1800 ; Glyph: 0
G1 X86.1092 Y100.8812 E0.06265 F1800 ; Glyph: 0
G1 X86.1092 Y102.8812 E0.06265 F1800 ; Glyph: 0
G1 X84.1092 Y102.8812 E0.06265 F1800 ; Glyph: 0
G1 X82.1092 Y102.8812 E0.06265 F1800 ; Glyph: 0
G1 X82.1092 Y100.8812 E0.06265 F1800 ; Glyph: 0
G1 E-0.4 F2100 ; Retract
G1 Z0.85 F7200 ; Z hop
G0 X82.1092 Y105.8812 F7200 ; Move
G1 Z0.45 F7200 ; Z hop return
G1 E0.4 F2100 ; Un-retract
G1 X82.1092 Y103.8812 E0.06265 F1800 ; Glyph: 6
G1 X84.1092 Y103.8812 E0.06265 F1800 ; Glyph: 6
G1 X86.1092 Y103.8812 E0.06265 F1800 ; Glyph: 6
G1 X86.1092 Y105.8812 E0.06265 F1800 ; Glyph: 6
G1 X84.1092 Y105.8812 E0.06265 F1800 ; Glyph: 6
G1 X84.1092 Y103.8812 E0.06265 F1800 ; Glyph: 6
G1 E-0.4 F2100 ; Retract
G1 Z0.85 F7200 ; Z hop
G0 X89.2967 Y96.8812 F7200 ; Move
G1 Z0.45 F7200 ; Z hop return
G1 E0.4 F2100 ; Un-retract
G1 X91.2967 Y96.8812 E0.06265 F1800 ; Glyph: 0
G1 X93.2967 Y96.8812 E0.06265 F1800 ; Glyph: 0
G1 X93.2967 Y98.8812 E0.06265 F1800 ; Glyph: 0
G1 X91.2967 Y98.8812 E0.06265 F1800 ; Glyph: 0
G1 X89.2967 Y98.8812 E0.06265 F1800 ; Glyph: 0
G1 X89.2967 Y96.8812 E0.06265 F1800 ; Glyph: 0
G1 E-0.4 F2100 ; Retract
G1 Z0.85 F7200 ; Z hop
G0 X93.2967 Y99.8812 F7200 ; Move
G1 Z0.45 F7200 ; Z hop return
G1 E0.4 F2100 ; Un-retract
G1 X92.5467 Y99.8812 E0.02349 F1800 ; Glyph: .
G1 E-0.4 F2100 ; Retract
G1 Z0.85 F7200 ; Z hop
G0 X89.2967 Y100.8812 F7200 ; Move
G1 Z0.45 F7200 ; Z hop return
G1 E0.4 F2100 ; Un-retract
G1 X91.2967 Y100.8812 E0.06265 F1800 ; Glyph: 0
G1 X93.2967 Y100.8812 E0.06265 F1800 ; Glyph: 0
G1 X93.2967 Y102.8812 E0.06265 F1800 ; Glyph: 0
G1 X91.2967 Y102.8812 E0.06265 F1800 ; Glyph: 0
G1 X89.2967 Y102.8812 E0.06265 F1800 ; Glyph: 0
G1 X89.2967 Y100.8812 E0.06265 F1800 ; Glyph: 0
G1 E-0.4 F2100 ; Retract
G1 Z0.85 F7200 ; Z hop
G0 X89.2967 Y103.8812 F7200 ; Move
G1 Z0.45 F7200 ; Z hop return
G1 E0.4 F2100 ; Un-retract
G1 X89.2967 Y105.8812 E0.06265 F1800 ; Glyph: 7
G1 X91.2967 Y105.8812 E0.06265 F1800 ; Glyph: 7
G1 X93.2967 Y105.8812 E0.06265 F1800 ; Glyph: 7
G1 E-0.4 F2100 ; Retract
G1 Z0.85 F7200 ; Z hop
G0 X96.4841 Y96.8812 F7200 ; Move
G1 Z0.45 F7200 ; Z hop return
G1 E0.4 F2100 ; Un-retract
G1 X98.4841 Y96.8812 E0.06265 F1800 ; Glyph: 0
G1 X100.4841 Y96.8812 E0.06265 F1800 ; Glyph: 0
G1 X100.4841 Y98.8812 E0.06265 F1800 ; Glyph: 0
G1 X98.4841 Y98.8812 E0.06265 F1800 ; Glyph: 0
G1 X96.4841 Y98.8812 E0.06265 F1800 ; Glyph: 0
G1 X96.4841 Y96.8812 E0.06265 F1800 ; Glyph: 0
G1 E-0.4 F2100 ; Retract
G1 Z0.85 F7200 ; Z hop
G0 X100.4841 Y99.8812 F7200 ; Move
G1 Z0.45 F7200 ; Z hop return
G1 E0.4 F2100 ; Un-retract
G1 X99.7341 Y99.8812 E0.02349 F1800 ; Glyph: .
G1 E-0.4 F2100 ; Retract
G1 Z0.85 F7200 ; Z hop
G0 X96.4841 Y100.8812 F7200 ; Move
G1 Z0.45 F7200 ; Z hop return
G1 E0.4 F2100 ; Un-retract
G1 X98.4841 Y100.8812 E0.06265 F1800 ; Glyph: 0
G1 X100.4841 Y100.8812 E0.06265 F1800 ; Glyph: 0
G1 X100.4841 Y102.8812 E0.06265 F1800 ; Glyph: 0
G1 X98.4841 Y102.8812 E0.06265 F1800 ; Glyph: 0
G1 X96.4841 Y102.8812 E0.06265 F1800 ; Glyph: 0
G1 X96.4841 Y100.8812 E0.06265 F1800 ; Glyph: 0
G1 E-0.4 F2100 ; Retract
G1 Z0.85 F7200 ; Z hop
G0 X96.4841 Y103.8812 F7200 ; Move
G1 Z0.45 F7200 ; Z hop return
G1 E0.4 F2100 ; Un-retract
G1 X98.4841 Y103.8812 E0.06265 F1800 ; Glyph: 8
G1 X100.4841 Y103.8812 E0.06265 F1800 ; Glyph: 8
G1 X100.4841 Y105.8812 E0.06265 F1800 ; Glyph: 8
G1 X98.4841 Y105.8812 E0.06265 F1800 ; Glyph: 8
G1 X96.4841 Y105.8812 E0.06265 F1800 ; Glyph: 8
G1 X96.4841 Y103.8812 E0.06265 F1800 ; Glyph: 8
G0 X98.4841 Y103.8812 F7200 ; Move
G1 X98.4841 Y105.8812 E0.06265 F1800 ; Glyph: 8
G1 E-0.4 F2100 ; Retract
G1 Z0.85 F7200 ; Z hop
G0 X40.4115 Y53.0068 F7200 ; Move to pattern start

G1 Z0.45 F7200 ; Z hop return
G1 E0.4 F2100 ; Un-retract
SET_PRESSURE_ADVANCE ADVANCE=0 ; Set pressure advance
M117 PA 0
G1 X61.6247 Y74.22 E0.93974 F6000 ; Print pattern wall
G1 X40.4115 Y95.4332 E0.93974 F6000 ; Print pattern wall
G1 E-0.4 F2100 ; Retract
G1 Z0.85 F7200 ; Z hop
G0 X40.9843 Y53.0068 F7200 ; Move to start next pattern wall
G1 Z0.45 F7200 ; Z hop return
G1 E0.4 F2100 ; Un-retract
G1 X62.1975 Y74.22 E0.93974 F6000 ; Print pattern wall
G1 X40.9843 Y95.4332 E0.93974 F6000 ; Print pattern wall
G1 E-0.4 F2100 ; Retract
G1 Z0.85 F7200 ; Z hop
G0 X41.5572 Y53.0068 F7200 ; Move to start next pattern wall
G1 Z0.45 F7200 ; Z hop return
G1 E0.4 F2100 ; Un-retract
G1 X62.7704 Y74.22 E0.93974 F6000 ; Print pattern wall
G1 X41.5572 Y95.4332 E0.93974 F6000 ; Print pattern wall
G1 E-0.4 F2100 ; Retract
G1 Z0.85 F7200 ; Z hop
G0 X44.0052 Y53.0068 F7200 ; Move to next pattern
G1 Z0.45 F7200 ; Z hop return
G1 E0.4 F2100 ; Un-retract
SET_PRESSURE_ADVANCE ADVANCE=0.005 ; Set pressure advance
M117 PA 0.005
G1 X65.2184 Y74.22 E0.93974 F6000 ; Print pattern wall
G1 X44.0052 Y95.4332 E0.93974 F6000 ; Print pattern wall
G1 E-0.4 F2100 ; Retract
G1 Z0.85 F7200 ; Z hop
G0 X44.5781 Y53.0068 F7200 ; Move to start next pattern wall
G1 Z0.45 F7200 ; Z hop return
G1 E0.4 F2100 ; Un-retract
G1 X65.7913 Y74.22 E0.93974 F6000 ; Print pattern wall
G1 X44.5781 Y95.4332 E0.93974 F6000 ; Print pattern wall
G1 E-0.4 F2100 ; Retract
G1 Z0.85 F7200 ; Z hop
G0 X45.1509 Y53.0068 F7200 ; Move to start next pattern wall
G1 Z0.45 F7200 ; Z hop return
G1 E0.4 F2100 ; Un-retract
G1 X66.3641 Y74.22 E0.93974 F6000 ; Print pattern wall
G1 X45.1509 Y95.4332 E0.93974 F6000 ; Print pattern wall
G1 E-0.4 F2100 ; Retract
G1 Z0.85 F7200 ; Z hop
G0 X47.5989 Y53.0068 F7200 ; Move to next pattern
G1 Z0.45 F7200 ; Z hop return
G1 E0.4 F2100 ; Un-retract
SET_PRESSURE_ADVANCE ADVANCE=0.01 ; Set pressure advance
M117 PA 0.01
G1 X68.8121 Y74.22 E0.93974 F6000 ; Print pattern wall
G1 X47.5989 Y95.4332 E0.93974 F6000 ; Print pattern wall
G1 E-0.4 F2100 ; Retract
G1 Z0.85 F7200 ; Z hop
G0 X48.1718 Y53.0068 F7200 ; Move to start next pattern wall
G1 Z0.45 F7200 ; Z hop return
G1 E0.4 F2100 ; Un-retract
G1 X69.385 Y74.22 E0.93974 F6000 ; Print pattern wall
G1 X48.1718 Y95.4332 E0.93974 F6000 ; Print pattern wall
G1 E-0.4 F2100 ; Retract
G1 Z0.85 F7200 ; Z hop
G0 X48.7447 Y53.0068 F7200 ; Move to start next pattern wall
G1 Z0.45 F7200 ; Z hop return
G1 E0.4 F2100 ; Un-retract
G1 X69.9579 Y74.22 E0.93974 F6000 ; Print pattern wall
G1 X48.7447 Y95.4332 E0.93974 F6000 ; Print pattern wall
G1 E-0.4 F2100 ; Retract
G1 Z0.85 F7200 ; Z hop
G0 X51.1927 Y53.0068 F7200 ; Move to next pattern
G1 Z0.45 F7200 ; Z hop return
G1 E0.4 F2100 ; Un-retract
SET_PRESSURE_ADVANCE ADVANCE=0.015 ; Set pressure advance
M117 PA 0.015
G1 X72.4059 Y74.22 E0.93974 F6000 ; Print pattern wall
G1 X51.1927 Y95.4332 E0.93974 F6000 ; Print pattern wall
G1 E-0.4 F2100 ; Retract
G1 Z0.85 F7200 ; Z hop
G0 X51.7656 Y53.0068 F7200 ; Move to start next pattern wall
G1 Z0.45 F7200 ; Z hop return
G1 E0.4 F2100 ; Un-retract
G1 X72.9788 Y74.22 E0.93974 F6000 ; Print pattern wall
G1 X51.7656 Y95.4332 E0.93974 F6000 ; Print pattern wall
G1 E-0.4 F2100 ; Retract
G1 Z0.85 F7200 ; Z hop
G0 X52.3384 Y53.0068 F7200 ; Move to start next pattern wall
G1 Z0.45 F7200 ; Z hop return
G1 E0.4 F2100 ; Un-retract
G1 X73.5516 Y74.22 E0.93974 F6000 ; Print pattern wall
G1 X52.3384 Y95.4332 E0.93974 F6000 ; Print pattern wall
G1 E-0.4 F2100 ; Retract
G1 Z0.85 F7200 ; Z hop
G0 X54.7864 Y53.0068 F7200 ; Move to next pattern
G1 Z0.45 F7200 ; Z hop return
G1 E0.4 F2100 ; Un-retract
SET_PRESSURE_ADVANCE ADVANCE=0.02 ; Set pressure advance
M117 PA 0.02
G1 X75.9996 Y74.22 E0.93974 F6000 ; Print pattern wall
G1 X54.7864 Y95.4332 E0.93974 F6000 ; Print pattern wall
G1 E-0.4 F2100 ; Retract
G1 Z0.85 F7200 ; Z hop
G0 X55.3593 Y53.0068 F7200 ; Move to start next pattern wall
G1 Z0.45 F7200 ; Z hop return
G1 E0.4 F2100 ; Un-retract
G1 X76.5725 Y74.22 E0.93974 F6000 ; Print pattern wall
G1 X55.3593 Y95.4332 E0.93974 F6000 ; Print pattern wall
G1 E-0.4 F2100 ; Retract
G1 Z0.85 F7200 ; Z hop
G0 X55.9322 Y53.0068 F7200 ; Move to start next pattern wall
G1 Z0.45 F7200 ; Z hop return
G1 E0.4 F2100 ; Un-retract
G1 X77.1454 Y74.22 E0.93974 F6000 ; Print pattern wall
G1 X55.9322 Y95.4332 E0.93974 F6000 ; Print pattern wall
G1 E-0.4 F2100 ; Retract
G1 Z0.85 F7200 ; Z hop
G0 X58.3802 Y53.0068 F7200 ; Move to next pattern
G1 Z0.45 F7200 ; Z hop return
G1 E0.4 F2100 ; Un-retract
SET_PRESSURE_ADVANCE ADVANCE=0.025 ; Set pressure advance
M117 PA 0.025
G1 X79.5934 Y74.22 E0.93974 F6000 ; Print pattern wall
G1 X58.3802 Y95.4332 E0.93974 F6000 ; Print pattern wall
G1 E-0.4 F2100 ; Retract
G1 Z0.85 F7200 ; Z hop
G0 X58.953 Y53.0068 F7200 ; Move to start next pattern wall
G1 Z0.45 F7200 ; Z hop return
G1 E0.4 F2100 ; Un-retract
G1 X80.1662 Y74.22 E0.93974 F6000 ; Print pattern wall
G1 X58.953 Y95.4332 E0.93974 F6000 ; Print pattern wall
G1 E-0.4 F2100 ; Retract
G1 Z0.85 F7200 ; Z hop
G0 X59.5259 Y53.0068 F7200 ; Move to start next pattern wall
G1 Z0.45 F7200 ; Z hop return
G1 E0.4 F2100 ; Un-retract
G1 X80.7391 Y74.22 E0.93974 F6000 ; Print pattern wall
G1 X59.5259 Y95.4332 E0.93974 F6000 ; Print pattern wall
G1 E-0.4 F2100 ; Retract
G1 Z0.85 F7200 ; Z hop
G0 X61.9739 Y53.0068 F7200 ; Move to next pattern
G1 Z0.45 F7200 ; Z hop return
G1 E0.4 F2100 ; Un-retract
SET_PRESSURE_ADVANCE ADVANCE=0.03 ; Set pressure advance
M117 PA 0.03
G1 X83.1871 Y74.22 E0.93974 F6000 ; Print pattern wall
G1 X61.9739 Y95.4332 E0.93974 F6000 ; Print pattern wall
G1 E-0.4 F2100 ; Retract
G1 Z0.85 F7200 ; Z hop
G0 X62.5468 Y53.0068 F7200 ; Move to start next pattern wall
G1 Z0.45 F7200 ; Z hop return
G1 E0.4 F2100 ; Un-retract
G1 X83.76 Y74.22 E0.93974 F6000 ; Print pattern wall
G1 X62.5468 Y95.4332 E0.93974 F6000 ; Print pattern wall
G1 E-0.4 F2100 ; Retract
G1 Z0.85 F7200 ; Z hop
G0 X63.1196 Y53.0068 F7200 ; Move to start next pattern wall
G1 Z0.45 F7200 ; Z hop return
G1 E0.4 F2100 ; Un-retract
G1 X84.3328 Y74.22 E0.93974 F6000 ; Print pattern wall
G1 X63.1196 Y95.4332 E0.93974 F6000 ; Print pattern wall
G1 E-0.4 F2100 ; Retract
G1 Z0.85 F7200 ; Z hop
G0 X65.5676 Y53.0068 F7200 ; Move to next pattern
G1 Z0.45 F7200 ; Z hop return
G1 E0.4 F2100 ; Un-retract
SET_PRESSURE_ADVANCE ADVANCE=0.035 ; Set pressure advance
M117 PA 0.035
G1 X86.7808 Y74.22 E0.93974 F6000 ; Print pattern wall
G1 X65.5676 Y95.4332 E0.93974 F6000 ; Print pattern wall
G1 E-0.4 F2100 ; Retract
G1 Z0.85 F7200 ; Z hop
G0 X66.1405 Y53.0068 F7200 ; Move to start next pattern wall
G1 Z0.45 F7200 ; Z hop return
G1 E0.4 F2100 ; Un-retract
G1 X87.3537 Y74.22 E0.93974 F6000 ; Print pattern wall
G1 X66.1405 Y95.4332 E0.93974 F6000 ; Print pattern wall
G1 E-0.4 F2100 ; Retract
G1 Z0.85 F7200 ; Z hop
G0 X66.7134 Y53.0068 F7200 ; Move to start next pattern wall
G1 Z0.45 F7200 ; Z hop return
G1 E0.4 F2100 ; Un-retract
G1 X87.9266 Y74.22 E0.93974 F6000 ; Print pattern wall
G1 X66.7134 Y95.4332 E0.93974 F6000 ; Print pattern wall
G1 E-0.4 F2100 ; Retract
G1 Z0.85 F7200 ; Z hop
G0 X69.1614 Y53.0068 F7200 ; Move to next pattern
G1 Z0.45 F7200 ; Z hop return
G1 E0.4 F2100 ; Un-retract
SET_PRESSURE_ADVANCE ADVANCE=0.04 ; Set pressure advance
M117 PA 0.04
G1 X90.3746 Y74.22 E0.93974 F6000 ; Print pattern wall
G1 X69.1614 Y95.4332 E0.93974 F6000 ; Print pattern wall
G1 E-0.4 F2100 ; Retract
G1 Z0.85 F7200 ; Z hop
G0 X69.7342 Y53.0068 F7200 ; Move to start next pattern wall
G1 Z0.45 F7200 ; Z hop return
G1 E0.4 F2100 ; Un-retract
G1 X90.9474 Y74.22 E0.93974 F6000 ; Print pattern wall
G1 X69.7342 Y95.4332 E0.93974 F6000 ; Print pattern wall
G1 E-0.4 F2100 ; Retract
G1 Z0.85 F7200 ; Z hop
G0 X70.3071 Y53.0068 F7200 ; Move to start next pattern wall
G1 Z0.45 F7200 ; Z hop return
G1 E0.4 F2100 ; Un-retract
G1 X91.5203 Y74.22 E0.93974 F6000 ; Print pattern wall
G1 X70.3071 Y95.4332 E0.93974 F6000 ; Print pattern wall
G1 E-0.4 F2100 ; Retract
G1 Z0.85 F7200 ; Z hop
G0 X72.7551 Y53.0068 F7200 ; Move to next pattern
G1 Z0.45 F7200 ; Z hop return
G1 E0.4 F2100 ; Un-retract
SET_PRESSURE_ADVANCE ADVANCE=0.045 ; Set pressure advance
M117 PA 0.045
G1 X93.9683 Y74.22 E0.93974 F6000 ; Print pattern wall
G1 X72.7551 Y95.4332 E0.93974 F6000 ; Print pattern wall
G1 E-0.4 F2100 ; Retract
G1 Z0.85 F7200 ; Z hop
G0 X73.328 Y53.0068 F7200 ; Move to start next pattern wall
G1 Z0.45 F7200 ; Z hop return
G1 E0.4 F2100 ; Un-retract
G1 X94.5412 Y74.22 E0.93974 F6000 ; Print pattern wall
G1 X73.328 Y95.4332 E0.93974 F6000 ; Print pattern wall
G1 E-0.4 F2100 ; Retract
G1 Z0.85 F7200 ; Z hop
G0 X73.9008 Y53.0068 F7200 ; Move to start next pattern wall
G1 Z0.45 F7200 ; Z hop return
G1 E0.4 F2100 ; Un-retract
G1 X95.1141 Y74.22 E0.93974 F6000 ; Print pattern wall
G1 X73.9008 Y95.4332 E0.93974 F6000 ; Print pattern wall
G1 E-0.4 F2100 ; Retract
G1 Z0.85 F7200 ; Z hop
G0 X76.3488 Y53.0068 F7200 ; Move to next pattern
G1 Z0.45 F7200 ; Z hop return
G1 E0.4 F2100 ; Un-retract
SET_PRESSURE_ADVANCE ADVANCE=0.05 ; Set pressure advance
M117 PA 0.05
G1 X97.5621 Y74.22 E0.93974 F6000 ; Print pattern wall
G1 X76.3488 Y95.4332 E0.93974 F6000 ; Print pattern wall
G1 E-0.4 F2100 ; Retract
G1 Z0.85 F7200 ; Z hop
G0 X76.9217 Y53.0068 F7200 ; Move to start next pattern wall
G1 Z0.45 F7200 ; Z hop return
G1 E0.4 F2100 ; Un-retract
G1 X98.1349 Y74.22 E0.93974 F6000 ; Print pattern wall
G1 X76.9217 Y95.4332 E0.93974 F6000 ; Print pattern wall
G1 E-0.4 F2100 ; Retract
G1 Z0.85 F7200 ; Z hop
G0 X77.4946 Y53.0068 F7200 ; Move to start next pattern wall
G1 Z0.45 F7200 ; Z hop return
G1 E0.4 F2100 ; Un-retract
G1 X98.7078 Y74.22 E0.93974 F6000 ; Print pattern wall
G1 X77.4946 Y95.4332 E0.93974 F6000 ; Print pattern wall
G1 E-0.4 F2100 ; Retract
G1 Z0.85 F7200 ; Z hop
G0 X79.9426 Y53.0068 F7200 ; Move to next pattern
G1 Z0.45 F7200 ; Z hop return
G1 E0.4 F2100 ; Un-retract
SET_PRESSURE_ADVANCE ADVANCE=0.055 ; Set pressure advance
M117 PA 0.055
G1 X101.1558 Y74.22 E0.93974 F6000 ; Print pattern wall
G1 X79.9426 Y95.4332 E0.93974 F6000 ; Print pattern wall
G1 E-0.4 F2100 ; Retract
G1 Z0.85 F7200 ; Z hop
G0 X80.5155 Y53.0068 F7200 ; Move to start next pattern wall
G1 Z0.45 F7200 ; Z hop return
G1 E0.4 F2100 ; Un-retract
G1 X101.7287 Y74.22 E0.93974 F6000 ; Print pattern wall
G1 X80.5155 Y95.4332 E0.93974 F6000 ; Print pattern wall
G1 E-0.4 F2100 ; Retract
G1 Z0.85 F7200 ; Z hop
G0 X81.0883 Y53.0068 F7200 ; Move to start next pattern wall
G1 Z0.45 F7200 ; Z hop return
G1 E0.4 F2100 ; Un-retract
G1 X102.3015 Y74.22 E0.93974 F6000 ; Print pattern wall
G1 X81.0883 Y95.4332 E0.93974 F6000 ; Print pattern wall
G1 E-0.4 F2100 ; Retract
G1 Z0.85 F7200 ; Z hop
G0 X83.5363 Y53.0068 F7200 ; Move to next pattern
G1 Z0.45 F7200 ; Z hop return
G1 E0.4 F2100 ; Un-retract
SET_PRESSURE_ADVANCE ADVANCE=0.06 ; Set pressure advance
M117 PA 0.06
G1 X104.7495 Y74.22 E0.93974 F6000 ; Print pattern wall
G1 X83.5363 Y95.4332 E0.93974 F6000 ; Print pattern wall
G1 E-0.4 F2100 ; Retract
G1 Z0.85 F7200 ; Z hop
G0 X84.1092 Y53.0068 F7200 ; Move to start next pattern wall
G1 Z0.45 F7200 ; Z hop return
G1 E0.4 F2100 ; Un-retract
G1 X105.3224 Y74.22 E0.93974 F6000 ; Print pattern wall
G1 X84.1092 Y95.4332 E0.93974 F6000 ; Print pattern wall
G1 E-0.4 F2100 ; Retract
G1 Z0.85 F7200 ; Z hop
G0 X84.6821 Y53.0068 F7200 ; Move to start next pattern wall
G1 Z0.45 F7200 ; Z hop return
G1 E0.4 F2100 ; Un-retract
G1 X105.8953 Y74.22 E0.93974 F6000 ; Print pattern wall
G1 X84.6821 Y95.4332 E0.93974 F6000 ; Print pattern wall
G1 E-0.4 F2100 ; Retract
G1 Z0.85 F7200 ; Z hop
G0 X87.1301 Y53.0068 F7200 ; Move to next pattern
G1 Z0.45 F7200 ; Z hop return
G1 E0.4 F2100 ; Un-retract
SET_PRESSURE_ADVANCE ADVANCE=0.065 ; Set pressure advance
M117 PA 0.065
G1 X108.3433 Y74.22 E0.93974 F6000 ; Print pattern wall
G1 X87.1301 Y95.4332 E0.93974 F6000 ; Print pattern wall
G1 E-0.4 F2100 ; Retract
G1 Z0.85 F7200 ; Z hop
G0 X87.7029 Y53.0068 F7200 ; Move to start next pattern wall
G1 Z0.45 F7200 ; Z hop return
G1 E0.4 F2100 ; Un-retract
G1 X108.9161 Y74.22 E0.93974 F6000 ; Print pattern wall
G1 X87.7029 Y95.4332 E0.93974 F6000 ; Print pattern wall
G1 E-0.4 F2100 ; Retract
G1 Z0.85 F7200 ; Z hop
G0 X88.2758 Y53.0068 F7200 ; Move to start next pattern wall
G1 Z0.45 F7200 ; Z hop return
G1 E0.4 F2100 ; Un-retract
G1 X109.489 Y74.22 E0.93974 F6000 ; Print pattern wall
G1 X88.2758 Y95.4332 E0.93974 F6000 ; Print pattern wall
G1 E-0.4 F2100 ; Retract
G1 Z0.85 F7200 ; Z hop
G0 X90.7238 Y53.0068 F7200 ; Move to next pattern
G1 Z0.45 F7200 ; Z hop return
G1 E0.4 F2100 ; Un-retract
SET_PRESSURE_ADVANCE ADVANCE=0.07 ; Set pressure advance
M117 PA 0.07
G1 X111.937 Y74.22 E0.93974 F6000 ; Print pattern wall
G1 X90.7238 Y95.4332 E0.93974 F6000 ; Print pattern wall
G1 E-0.4 F2100 ; Retract
G1 Z0.85 F7200 ; Z hop
G0 X91.2967 Y53.0068 F7200 ; Move to start next pattern wall
G1 Z0.45 F7200 ; Z hop return
G1 E0.4 F2100 ; Un-retract
G1 X112.5099 Y74.22 E0.93974 F6000 ; Print pattern wall
G1 X91.2967 Y95.4332 E0.93974 F6000 ; Print pattern wall
G1 E-0.4 F2100 ; Retract
G1 Z0.85 F7200 ; Z hop
G0 X91.8695 Y53.0068 F7200 ; Move to start next pattern wall
G1 Z0.45 F7200 ; Z hop return
G1 E0.4 F2100 ; Un-retract
G1 X113.0827 Y74.22 E0.93974 F6000 ; Print pattern wall
G1 X91.8695 Y95.4332 E0.93974 F6000 ; Print pattern wall
G1 E-0.4 F2100 ; Retract
G1 Z0.85 F7200 ; Z hop
G0 X94.3175 Y53.0068 F7200 ; Move to next pattern
G1 Z0.45 F7200 ; Z hop return
G1 E0.4 F2100 ; Un-retract
SET_PRESSURE_ADVANCE ADVANCE=0.075 ; Set pressure advance
M117 PA 0.075
G1 X115.5307 Y74.22 E0.93974 F6000 ; Print pattern wall
G1 X94.3175 Y95.4332 E0.93974 F6000 ; Print pattern wall
G1 E-0.4 F2100 ; Retract
G1 Z0.85 F7200 ; Z hop
G0 X94.8904 Y53.0068 F7200 ; Move to start next pattern wall
G1 Z0.45 F7200 ; Z hop return
G1 E0.4 F2100 ; Un-retract
G1 X116.1036 Y74.22 E0.93974 F6000 ; Print pattern wall
G1 X94.8904 Y95.4332 E0.93974 F6000 ; Print pattern wall
G1 E-0.4 F2100 ; Retract
G1 Z0.85 F7200 ; Z hop
G0 X95.4633 Y53.0068 F7200 ; Move to start next pattern wall
G1 Z0.45 F7200 ; Z hop return
G1 E0.4 F2100 ; Un-retract
G1 X116.6765 Y74.22 E0.93974 F6000 ; Print pattern wall
G1 X95.4633 Y95.4332 E0.93974 F6000 ; Print pattern wall
G1 E-0.4 F2100 ; Retract
G1 Z0.85 F7200 ; Z hop
G0 X97.9113 Y53.0068 F7200 ; Move to next pattern
G1 Z0.45 F7200 ; Z hop return
G1 E0.4 F2100 ; Un-retract
SET_PRESSURE_ADVANCE ADVANCE=0.08 ; Set pressure advance
M117 PA 0.08
G1 X119.1245 Y74.22 E0.93974 F6000 ; Print pattern wall
G1 X97.9113 Y95.4332 E0.93974 F6000 ; Print pattern wall
G1 E-0.4 F2100 ; Retract
G1 Z0.85 F7200 ; Z hop
G0 X98.4841 Y53.0068 F7200 ; Move to start next pattern wall
G1 Z0.45 F7200 ; Z hop return
G1 E0.4 F2100 ; Un-retract
G1 X119.6974 Y74.22 E0.93974 F6000 ; Print pattern wall
G1 X98.4841 Y95.4332 E0.93974 F6000 ; Print pattern wall
G1 E-0.4 F2100 ; Retract
G1 Z0.85 F7200 ; Z hop
G0 X99.057 Y53.0068 F7200 ; Move to start next pattern wall
G1 Z0.45 F7200 ; Z hop return
G1 E0.4 F2100 ; Un-retract
G1 X120.2702 Y74.22 E0.93974 F6000 ; Print pattern wall
G1 X99.057 Y95.4332 E0.93974 F6000 ; Print pattern wall
G1 E-0.4 F2100 ; Retract
G1 Z0.85 F7200 ; Z hop
G0 X40.4115 Y53.0068 F7200 ; Move back to start position
G1 Z0.45 F7200 ; Z hop return
G1 E0.4 F2100 ; Un-retract
G0 Z0.65 F7200 ; Move to layer height
SET_PRESSURE_ADVANCE ADVANCE=0 ; Set pressure advance
M117 PA 0
G1 X61.6247 Y74.22 E0.93974 F6000 ; Print pattern wall
G1 X40.4115 Y95.4332 E0.93974 F6000 ; Print pattern wall
G1 E-0.4 F2100 ; Retract
G1 Z1.05 F7200 ; Z hop
G0 X40.9843 Y53.0068 F7200 ; Move to start next pattern wall
G1 Z0.65 F7200 ; Z hop return
G1 E0.4 F2100 ; Un-retract
G1 X62.1975 Y74.22 E0.93974 F6000 ; Print pattern wall
G1 X40.9843 Y95.4332 E0.93974 F6000 ; Print pattern wall
G1 E-0.4 F2100 ; Retract
G1 Z1.05 F7200 ; Z hop
G0 X41.5572 Y53.0068 F7200 ; Move to start next pattern wall
G1 Z0.65 F7200 ; Z hop return
G1 E0.4 F2100 ; Un-retract
G1 X62.7704 Y74.22 E0.93974 F6000 ; Print pattern wall
G1 X41.5572 Y95.4332 E0.93974 F6000 ; Print pattern wall
G1 E-0.4 F2100 ; Retract
G1 Z1.05 F7200 ; Z hop
G0 X44.0052 Y53.0068 F7200 ; Move to next pattern
G1 Z0.65 F7200 ; Z hop return
G1 E0.4 F2100 ; Un-retract
SET_PRESSURE_ADVANCE ADVANCE=0.005 ; Set pressure advance
M117 PA 0.005
G1 X65.2184 Y74.22 E0.93974 F6000 ; Print pattern wall
G1 X44.0052 Y95.4332 E0.93974 F6000 ; Print pattern wall
G1 E-0.4 F2100 ; Retract
G1 Z1.05 F7200 ; Z hop
G0 X44.5781 Y53.0068 F7200 ; Move to start next pattern wall
G1 Z0.65 F7200 ; Z hop return
G1 E0.4 F2100 ; Un-retract
G1 X65.7913 Y74.22 E0.93974 F6000 ; Print pattern wall
G1 X44.5781 Y95.4332 E0.93974 F6000 ; Print pattern wall
G1 E-0.4 F2100 ; Retract
G1 Z1.05 F7200 ; Z hop
G0 X45.1509 Y53.0068 F7200 ; Move to start next pattern wall
G1 Z0.65 F7200 ; Z hop return
G1 E0.4 F2100 ; Un-retract
G1 X66.3641 Y74.22 E0.93974 F6000 ; Print pattern wall
G1 X45.1509 Y95.4332 E0.93974 F6000 ; Print pattern wall
G1 E-0.4 F2100 ; Retract
G1 Z1.05 F7200 ; Z hop
G0 X47.5989 Y53.0068 F7200 ; Move to next pattern
G1 Z0.65 F7200 ; Z hop return
G1 E0.4 F2100 ; Un-retract
SET_PRESSURE_ADVANCE ADVANCE=0.01 ; Set pressure advance
M117 PA 0.01
G1 X68.8121 Y74.22 E0.93974 F6000 ; Print pattern wall
G1 X47.5989 Y95.4332 E0.93974 F6000 ; Print pattern wall
G1 E-0.4 F2100 ; Retract
G1 Z1.05 F7200 ; Z hop
G0 X48.1718 Y53.0068 F7200 ; Move to start next pattern wall
G1 Z0.65 F7200 ; Z hop return
G1 E0.4 F2100 ; Un-retract
G1 X69.385 Y74.22 E0.93974 F6000 ; Print pattern wall
G1 X48.1718 Y95.4332 E0.93974 F6000 ; Print pattern wall
G1 E-0.4 F2100 ; Retract
G1 Z1.05 F7200 ; Z hop
G0 X48.7447 Y53.0068 F7200 ; Move to start next pattern wall
G1 Z0.65 F7200 ; Z hop return
G1 E0.4 F2100 ; Un-retract
G1 X69.9579 Y74.22 E0.93974 F6000 ; Print pattern wall
G1 X48.7447 Y95.4332 E0.93974 F6000 ; Print pattern wall
G1 E-0.4 F2100 ; Retract
G1 Z1.05 F7200 ; Z hop
G0 X51.1927 Y53.0068 F7200 ; Move to next pattern
G1 Z0.65 F7200 ; Z hop return
G1 E0.4 F2100 ; Un-retract
SET_PRESSURE_ADVANCE ADVANCE=0.015 ; Set pressure advance
M117 PA 0.015
G1 X72.4059 Y74.22 E0.93974 F6000 ; Print pattern wall
G1 X51.1927 Y95.4332 E0.93974 F6000 ; Print pattern wall
G1 E-0.4 F2100 ; Retract
G1 Z1.05 F7200 ; Z hop
G0 X51.7656 Y53.0068 F7200 ; Move to start next pattern wall
G1 Z0.65 F7200 ; Z hop return
G1 E0.4 F2100 ; Un-retract
G1 X72.9788 Y74.22 E0.93974 F6000 ; Print pattern wall
G1 X51.7656 Y95.4332 E0.93974 F6000 ; Print pattern wall
G1 E-0.4 F2100 ; Retract
G1 Z1.05 F7200 ; Z hop
G0 X52.3384 Y53.0068 F7200 ; Move to start next pattern wall
G1 Z0.65 F7200 ; Z hop return
G1 E0.4 F2100 ; Un-retract
G1 X73.5516 Y74.22 E0.93974 F6000 ; Print pattern wall
G1 X52.3384 Y95.4332 E0.93974 F6000 ; Print pattern wall
G1 E-0.4 F2100 ; Retract
G1 Z1.05 F7200 ; Z hop
G0 X54.7864 Y53.0068 F7200 ; Move to next pattern
G1 Z0.65 F7200 ; Z hop return
G1 E0.4 F2100 ; Un-retract
SET_PRESSURE_ADVANCE ADVANCE=0.02 ; Set pressure advance
M117 PA 0.02
G1 X75.9996 Y74.22 E0.93974 F6000 ; Print pattern wall
G1 X54.7864 Y95.4332 E0.93974 F6000 ; Print pattern wall
G1 E-0.4 F2100 ; Retract
G1 Z1.05 F7200 ; Z hop
G0 X55.3593 Y53.0068 F7200 ; Move to start next pattern wall
G1 Z0.65 F7200 ; Z hop return
G1 E0.4 F2100 ; Un-retract
G1 X76.5725 Y74.22 E0.93974 F6000 ; Print pattern wall
G1 X55.3593 Y95.4332 E0.93974 F6000 ; Print pattern wall
G1 E-0.4 F2100 ; Retract
G1 Z1.05 F7200 ; Z hop
G0 X55.9322 Y53.0068 F7200 ; Move to start next pattern wall
G1 Z0.65 F7200 ; Z hop return
G1 E0.4 F2100 ; Un-retract
G1 X77.1454 Y74.22 E0.93974 F6000 ; Print pattern wall
G1 X55.9322 Y95.4332 E0.93974 F6000 ; Print pattern wall
G1 E-0.4 F2100 ; Retract
G1 Z1.05 F7200 ; Z hop
G0 X58.3802 Y53.0068 F7200 ; Move to next pattern
G1 Z0.65 F7200 ; Z hop return
G1 E0.4 F2100 ; Un-retract
SET_PRESSURE_ADVANCE ADVANCE=0.025 ; Set pressure advance
M117 PA 0.025
G1 X79.5934 Y74.22 E0.93974 F6000 ; Print pattern wall
G1 X58.3802 Y95.4332 E0.93974 F6000 ; Print pattern wall
G1 E-0.4 F2100 ; Retract
G1 Z1.05 F7200 ; Z hop
G0 X58.953 Y53.0068 F7200 ; Move to start next pattern wall
G1 Z0.65 F7200 ; Z hop return
G1 E0.4 F2100 ; Un-retract
G1 X80.1662 Y74.22 E0.93974 F6000 ; Print pattern wall
G1 X58.953 Y95.4332 E0.93974 F6000 ; Print pattern wall
G1 E-0.4 F2100 ; Retract
G1 Z1.05 F7200 ; Z hop
G0 X59.5259 Y53.0068 F7200 ; Move to start next pattern wall
G1 Z0.65 F7200 ; Z hop return
G1 E0.4 F2100 ; Un-retract
G1 X80.7391 Y74.22 E0.93974 F6000 ; Print pattern wall
G1 X59.5259 Y95.4332 E0.93974 F6000 ; Print pattern wall
G1 E-0.4 F2100 ; Retract
G1 Z1.05 F7200 ; Z hop
G0 X61.9739 Y53.0068 F7200 ; Move to next pattern
G1 Z0.65 F7200 ; Z hop return
G1 E0.4 F2100 ; Un-retract
SET_PRESSURE_ADVANCE ADVANCE=0.03 ; Set pressure advance
M117 PA 0.03
G1 X83.1871 Y74.22 E0.93974 F6000 ; Print pattern wall
G1 X61.9739 Y95.4332 E0.93974 F6000 ; Print pattern wall
G1 E-0.4 F2100 ; Retract
G1 Z1.05 F7200 ; Z hop
G0 X62.5468 Y53.0068 F7200 ; Move to start next pattern wall
G1 Z0.65 F7200 ; Z hop return
G1 E0.4 F2100 ; Un-retract
G1 X83.76 Y74.22 E0.93974 F6000 ; Print pattern wall
G1 X62.5468 Y95.4332 E0.93974 F6000 ; Print pattern wall
G1 E-0.4 F2100 ; Retract
G1 Z1.05 F7200 ; Z hop
G0 X63.1196 Y53.0068 F7200 ; Move to start next pattern wall
G1 Z0.65 F7200 ; Z hop return
G1 E0.4 F2100 ; Un-retract
G1 X84.3328 Y74.22 E0.93974 F6000 ; Print pattern wall
G1 X63.1196 Y95.4332 E0.93974 F6000 ; Print pattern wall
G1 E-0.4 F2100 ; Retract
G1 Z1.05 F7200 ; Z hop
G0 X65.5676 Y53.0068 F7200 ; Move to next pattern
G1 Z0.65 F7200 ; Z hop return
G1 E0.4 F2100 ; Un-retract
SET_PRESSURE_ADVANCE ADVANCE=0.035 ; Set pressure advance
M117 PA 0.035
G1 X86.7808 Y74.22 E0.93974 F6000 ; Print pattern wall
G1 X65.5676 Y95.4332 E0.93974 F6000 ; Print pattern wall
G1 E-0.4 F2100 ; Retract
G1 Z1.05 F7200 ; Z hop
G0 X66.1405 Y53.0068 F7200 ; Move to start next pattern wall
G1 Z0.65 F7200 ; Z hop return
G1 E0.4 F2100 ; Un-retract
G1 X87.3537 Y74.22 E0.93974 F6000 ; Print pattern wall
G1 X66.1405 Y95.4332 E0.93974 F6000 ; Print pattern wall
G1 E-0.4 F2100 ; Retract
G1 Z1.05 F7200 ; Z hop
G0 X66.7134 Y53.0068 F7200 ; Move to start next pattern wall
G1 Z0.65 F7200 ; Z hop return
G1 E0.4 F2100 ; Un-retract
G1 X87.9266 Y74.22 E0.93974 F6000 ; Print pattern wall
G1 X66.7134 Y95.4332 E0.93974 F6000 ; Print pattern wall
G1 E-0.4 F2100 ; Retract
G1 Z1.05 F7200 ; Z hop
G0 X69.1614 Y53.0068 F7200 ; Move to next pattern
G1 Z0.65 F7200 ; Z hop return
G1 E0.4 F2100 ; Un-retract
SET_PRESSURE_ADVANCE ADVANCE=0.04 ; Set pressure advance
M117 PA 0.04
G1 X90.3746 Y74.22 E0.93974 F6000 ; Print pattern wall
G1 X69.1614 Y95.4332 E0.93974 F6000 ; Print pattern wall
G1 E-0.4 F2100 ; Retract
G1 Z1.05 F7200 ; Z hop
G0 X69.7342 Y53.0068 F7200 ; Move to start next pattern wall
G1 Z0.65 F7200 ; Z hop return
G1 E0.4 F2100 ; Un-retract
G1 X90.9474 Y74.22 E0.93974 F6000 ; Print pattern wall
G1 X69.7342 Y95.4332 E0.93974 F6000 ; Print pattern wall
G1 E-0.4 F2100 ; Retract
G1 Z1.05 F7200 ; Z hop
G0 X70.3071 Y53.0068 F7200 ; Move to start next pattern wall
G1 Z0.65 F7200 ; Z hop return
G1 E0.4 F2100 ; Un-retract
G1 X91.5203 Y74.22 E0.93974 F6000 ; Print pattern wall
G1 X70.3071 Y95.4332 E0.93974 F6000 ; Print pattern wall
G1 E-0.4 F2100 ; Retract
G1 Z1.05 F7200 ; Z hop
G0 X72.7551 Y53.0068 F7200 ; Move to next pattern
G1 Z0.65 F7200 ; Z hop return
G1 E0.4 F2100 ; Un-retract
SET_PRESSURE_ADVANCE ADVANCE=0.045 ; Set pressure advance
M117 PA 0.045
G1 X93.9683 Y74.22 E0.93974 F6000 ; Print pattern wall
G1 X72.7551 Y95.4332 E0.93974 F6000 ; Print pattern wall
G1 E-0.4 F2100 ; Retract
G1 Z1.05 F7200 ; Z hop
G0 X73.328 Y53.0068 F7200 ; Move to start next pattern wall
G1 Z0.65 F7200 ; Z hop return
G1 E0.4 F2100 ; Un-retract
G1 X94.5412 Y74.22 E0.93974 F6000 ; Print pattern wall
G1 X73.328 Y95.4332 E0.93974 F6000 ; Print pattern wall
G1 E-0.4 F2100 ; Retract
G1 Z1.05 F7200 ; Z hop
G0 X73.9008 Y53.0068 F7200 ; Move to start next pattern wall
G1 Z0.65 F7200 ; Z hop return
G1 E0.4 F2100 ; Un-retract
G1 X95.1141 Y74.22 E0.93974 F6000 ; Print pattern wall
G1 X73.9008 Y95.4332 E0.93974 F6000 ; Print pattern wall
G1 E-0.4 F2100 ; Retract
G1 Z1.05 F7200 ; Z hop
G0 X76.3488 Y53.0068 F7200 ; Move to next pattern
G1 Z0.65 F7200 ; Z hop return
G1 E0.4 F2100 ; Un-retract
SET_PRESSURE_ADVANCE ADVANCE=0.05 ; Set pressure advance
M117 PA 0.05
G1 X97.5621 Y74.22 E0.93974 F6000 ; Print pattern wall
G1 X76.3488 Y95.4332 E0.93974 F6000 ; Print pattern wall
G1 E-0.4 F2100 ; Retract
G1 Z1.05 F7200 ; Z hop
G0 X76.9217 Y53.0068 F7200 ; Move to start next pattern wall
G1 Z0.65 F7200 ; Z hop return
G1 E0.4 F2100 ; Un-retract
G1 X98.1349 Y74.22 E0.93974 F6000 ; Print pattern wall
G1 X76.9217 Y95.4332 E0.93974 F6000 ; Print pattern wall
G1 E-0.4 F2100 ; Retract
G1 Z1.05 F7200 ; Z hop
G0 X77.4946 Y53.0068 F7200 ; Move to start next pattern wall
G1 Z0.65 F7200 ; Z hop return
G1 E0.4 F2100 ; Un-retract
G1 X98.7078 Y74.22 E0.93974 F6000 ; Print pattern wall
G1 X77.4946 Y95.4332 E0.93974 F6000 ; Print pattern wall
G1 E-0.4 F2100 ; Retract
G1 Z1.05 F7200 ; Z hop
G0 X79.9426 Y53.0068 F7200 ; Move to next pattern
G1 Z0.65 F7200 ; Z hop return
G1 E0.4 F2100 ; Un-retract
SET_PRESSURE_ADVANCE ADVANCE=0.055 ; Set pressure advance
M117 PA 0.055
G1 X101.1558 Y74.22 E0.93974 F6000 ; Print pattern wall
G1 X79.9426 Y95.4332 E0.93974 F6000 ; Print pattern wall
G1 E-0.4 F2100 ; Retract
G1 Z1.05 F7200 ; Z hop
G0 X80.5155 Y53.0068 F7200 ; Move to start next pattern wall
G1 Z0.65 F7200 ; Z hop return
G1 E0.4 F2100 ; Un-retract
G1 X101.7287 Y74.22 E0.93974 F6000 ; Print pattern wall
G1 X80.5155 Y95.4332 E0.93974 F6000 ; Print pattern wall
G1 E-0.4 F2100 ; Retract
G1 Z1.05 F7200 ; Z hop
G0 X81.0883 Y53.0068 F7200 ; Move to start next pattern wall
G1 Z0.65 F7200 ; Z hop return
G1 E0.4 F2100 ; Un-retract
G1 X102.3015 Y74.22 E0.93974 F6000 ; Print pattern wall
G1 X81.0883 Y95.4332 E0.93974 F6000 ; Print pattern wall
G1 E-0.4 F2100 ; Retract
G1 Z1.05 F7200 ; Z hop
G0 X83.5363 Y53.0068 F7200 ; Move to next pattern
G1 Z0.65 F7200 ; Z hop return
G1 E0.4 F2100 ; Un-retract
SET_PRESSURE_ADVANCE ADVANCE=0.06 ; Set pressure advance
M117 PA 0.06
G1 X104.7495 Y74.22 E0.93974 F6000 ; Print pattern wall
G1 X83.5363 Y95.4332 E0.93974 F6000 ; Print pattern wall
G1 E-0.4 F2100 ; Retract
G1 Z1.05 F7200 ; Z hop
G0 X84.1092 Y53.0068 F7200 ; Move to start next pattern wall
G1 Z0.65 F7200 ; Z hop return
G1 E0.4 F2100 ; Un-retract
G1 X105.3224 Y74.22 E0.93974 F6000 ; Print pattern wall
G1 X84.1092 Y95.4332 E0.93974 F6000 ; Print pattern wall
G1 E-0.4 F2100 ; Retract
G1 Z1.05 F7200 ; Z hop
G0 X84.6821 Y53.0068 F7200 ; Move to start next pattern wall
G1 Z0.65 F7200 ; Z hop return
G1 E0.4 F2100 ; Un-retract
G1 X105.8953 Y74.22 E0.93974 F6000 ; Print pattern wall
G1 X84.6821 Y95.4332 E0.93974 F6000 ; Print pattern wall
G1 E-0.4 F2100 ; Retract
G1 Z1.05 F7200 ; Z hop
G0 X87.1301 Y53.0068 F7200 ; Move to next pattern
G1 Z0.65 F7200 ; Z hop return
G1 E0.4 F2100 ; Un-retract
SET_PRESSURE_ADVANCE ADVANCE=0.065 ; Set pressure advance
M117 PA 0.065
G1 X108.3433 Y74.22 E0.93974 F6000 ; Print pattern wall
G1 X87.1301 Y95.4332 E0.93974 F6000 ; Print pattern wall
G1 E-0.4 F2100 ; Retract
G1 Z1.05 F7200 ; Z hop
G0 X87.7029 Y53.0068 F7200 ; Move to start next pattern wall
G1 Z0.65 F7200 ; Z hop return
G1 E0.4 F2100 ; Un-retract
G1 X108.9161 Y74.22 E0.93974 F6000 ; Print pattern wall
G1 X87.7029 Y95.4332 E0.93974 F6000 ; Print pattern wall
G1 E-0.4 F2100 ; Retract
G1 Z1.05 F7200 ; Z hop
G0 X88.2758 Y53.0068 F7200 ; Move to start next pattern wall
G1 Z0.65 F7200 ; Z hop return
G1 E0.4 F2100 ; Un-retract
G1 X109.489 Y74.22 E0.93974 F6000 ; Print pattern wall
G1 X88.2758 Y95.4332 E0.93974 F6000 ; Print pattern wall
G1 E-0.4 F2100 ; Retract
G1 Z1.05 F7200 ; Z hop
G0 X90.7238 Y53.0068 F7200 ; Move to next pattern
G1 Z0.65 F7200 ; Z hop return
G1 E0.4 F2100 ; Un-retract
SET_PRESSURE_ADVANCE ADVANCE=0.07 ; Set pressure advance
M117 PA 0.07
G1 X111.937 Y74.22 E0.93974 F6000 ; Print pattern wall
G1 X90.7238 Y95.4332 E0.93974 F6000 ; Print pattern wall
G1 E-0.4 F2100 ; Retract
G1 Z1.05 F7200 ; Z hop
G0 X91.2967 Y53.0068 F7200 ; Move to start next pattern wall
G1 Z0.65 F7200 ; Z hop return
G1 E0.4 F2100 ; Un-retract
G1 X112.5099 Y74.22 E0.93974 F6000 ; Print pattern wall
G1 X91.2967 Y95.4332 E0.93974 F6000 ; Print pattern wall
G1 E-0.4 F2100 ; Retract
G1 Z1.05 F7200 ; Z hop
G0 X91.8695 Y53.0068 F7200 ; Move to start next pattern wall
G1 Z0.65 F7200 ; Z hop return
G1 E0.4 F2100 ; Un-retract
G1 X113.0827 Y74.22 E0.93974 F6000 ; Print pattern wall
G1 X91.8695 Y95.4332 E0.93974 F6000 ; Print pattern wall
G1 E-0.4 F2100 ; Retract
G1 Z1.05 F7200 ; Z hop
G0 X94.3175 Y53.0068 F7200 ; Move to next pattern
G1 Z0.65 F7200 ; Z hop return
G1 E0.4 F2100 ; Un-retract
SET_PRESSURE_ADVANCE ADVANCE=0.075 ; Set pressure advance
M117 PA 0.075
G1 X115.5307 Y74.22 E0.93974 F6000 ; Print pattern wall
G1 X94.3175 Y95.4332 E0.93974 F6000 ; Print pattern wall
G1 E-0.4 F2100 ; Retract
G1 Z1.05 F7200 ; Z hop
G0 X94.8904 Y53.0068 F7200 ; Move to start next pattern wall
G1 Z0.65 F7200 ; Z hop return
G1 E0.4 F2100 ; Un-retract
G1 X116.1036 Y74.22 E0.93974 F6000 ; Print pattern wall
G1 X94.8904 Y95.4332 E0.93974 F6000 ; Print pattern wall
G1 E-0.4 F2100 ; Retract
G1 Z1.05 F7200 ; Z hop
G0 X95.4633 Y53.0068 F7200 ; Move to start next pattern wall
G1 Z0.65 F7200 ; Z hop return
G1 E0.4 F2100 ; Un-retract
G1 X116.6765 Y74.22 E0.93974 F6000 ; Print pattern wall
G1 X95.4633 Y95.4332 E0.93974 F6000 ; Print pattern wall
G1 E-0.4 F2100 ; Retract
G1 Z1.05 F7200 ; Z hop
G0 X97.9113 Y53.0068 F7200 ; Move to next pattern
G1 Z0.65 F7200 ; Z hop return
G1 E0.4 F2100 ; Un-retract
SET_PRESSURE_ADVANCE ADVANCE=0.08 ; Set pressure advance
M117 PA 0.08
G1 X119.1245 Y74.22 E0.93974 F6000 ; Print pattern wall
G1 X97.9113 Y95.4332 E0.93974 F6000 ; Print pattern wall
G1 E-0.4 F2100 ; Retract
G1 Z1.05 F7200 ; Z hop
G0 X98.4841 Y53.0068 F7200 ; Move to start next pattern wall
G1 Z0.65 F7200 ; Z hop return
G1 E0.4 F2100 ; Un-retract
G1 X119.6974 Y74.22 E0.93974 F6000 ; Print pattern wall
G1 X98.4841 Y95.4332 E0.93974 F6000 ; Print pattern wall
G1 E-0.4 F2100 ; Retract
G1 Z1.05 F7200 ; Z hop
G0 X99.057 Y53.0068 F7200 ; Move to start next pattern wall
G1 Z0.65 F7200 ; Z hop return
G1 E0.4 F2100 ; Un-retract
G1 X120.2702 Y74.22 E0.93974 F6000 ; Print pattern wall
G1 X99.057 Y95.4332 E0.93974 F6000 ; Print pattern wall
G1 E-0.4 F2100 ; Retract
G1 Z1.05 F7200 ; Z hop
G0 X40.4115 Y53.0068 F7200 ; Move back to start position
G1 Z0.65 F7200 ; Z hop return
G1 E0.4 F2100 ; Un-retract
G0 Z0.85 F7200 ; Move to layer height
SET_PRESSURE_ADVANCE ADVANCE=0 ; Set pressure advance
M117 PA 0
G1 X61.6247 Y74.22 E0.93974 F6000 ; Print pattern wall
G1 X40.4115 Y95.4332 E0.93974 F6000 ; Print pattern wall
G1 E-0.4 F2100 ; Retract
G1 Z1.25 F7200 ; Z hop
G0 X40.9843 Y53.0068 F7200 ; Move to start next pattern wall
G1 Z0.85 F7200 ; Z hop return
G1 E0.4 F2100 ; Un-retract
G1 X62.1975 Y74.22 E0.93974 F6000 ; Print pattern wall
G1 X40.9843 Y95.4332 E0.93974 F6000 ; Print pattern wall
G1 E-0.4 F2100 ; Retract
G1 Z1.25 F7200 ; Z hop
G0 X41.5572 Y53.0068 F7200 ; Move to start next pattern wall
G1 Z0.85 F7200 ; Z hop return
G1 E0.4 F2100 ; Un-retract
G1 X62.7704 Y74.22 E0.93974 F6000 ; Print pattern wall
G1 X41.5572 Y95.4332 E0.93974 F6000 ; Print pattern wall
G1 E-0.4 F2100 ; Retract
G1 Z1.25 F7200 ; Z hop
G0 X44.0052 Y53.0068 F7200 ; Move to next pattern
G1 Z0.85 F7200 ; Z hop return
G1 E0.4 F2100 ; Un-retract
SET_PRESSURE_ADVANCE ADVANCE=0.005 ; Set pressure advance
M117 PA 0.005
G1 X65.2184 Y74.22 E0.93974 F6000 ; Print pattern wall
G1 X44.0052 Y95.4332 E0.93974 F6000 ; Print pattern wall
G1 E-0.4 F2100 ; Retract
G1 Z1.25 F7200 ; Z hop
G0 X44.5781 Y53.0068 F7200 ; Move to start next pattern wall
G1 Z0.85 F7200 ; Z hop return
G1 E0.4 F2100 ; Un-retract
G1 X65.7913 Y74.22 E0.93974 F6000 ; Print pattern wall
G1 X44.5781 Y95.4332 E0.93974 F6000 ; Print pattern wall
G1 E-0.4 F2100 ; Retract
G1 Z1.25 F7200 ; Z hop
G0 X45.1509 Y53.0068 F7200 ; Move to start next pattern wall
G1 Z0.85 F7200 ; Z hop return
G1 E0.4 F2100 ; Un-retract
G1 X66.3641 Y74.22 E0.93974 F6000 ; Print pattern wall
G1 X45.1509 Y95.4332 E0.93974 F6000 ; Print pattern wall
G1 E-0.4 F2100 ; Retract
G1 Z1.25 F7200 ; Z hop
G0 X47.5989 Y53.0068 F7200 ; Move to next pattern
G1 Z0.85 F7200 ; Z hop return
G1 E0.4 F2100 ; Un-retract
SET_PRESSURE_ADVANCE ADVANCE=0.01 ; Set pressure advance
M117 PA 0.01
G1 X68.8121 Y74.22 E0.93974 F6000 ; Print pattern wall
G1 X47.5989 Y95.4332 E0.93974 F6000 ; Print pattern wall
G1 E-0.4 F2100 ; Retract
G1 Z1.25 F7200 ; Z hop
G0 X48.1718 Y53.0068 F7200 ; Move to start next pattern wall
G1 Z0.85 F7200 ; Z hop return
G1 E0.4 F2100 ; Un-retract
G1 X69.385 Y74.22 E0.93974 F6000 ; Print pattern wall
G1 X48.1718 Y95.4332 E0.93974 F6000 ; Print pattern wall
G1 E-0.4 F2100 ; Retract
G1 Z1.25 F7200 ; Z hop
G0 X48.7447 Y53.0068 F7200 ; Move to start next pattern wall
G1 Z0.85 F7200 ; Z hop return
G1 E0.4 F2100 ; Un-retract
G1 X69.9579 Y74.22 E0.93974 F6000 ; Print pattern wall
G1 X48.7447 Y95.4332 E0.93974 F6000 ; Print pattern wall
G1 E-0.4 F2100 ; Retract
G1 Z1.25 F7200 ; Z hop
G0 X51.1927 Y53.0068 F7200 ; Move to next pattern
G1 Z0.85 F7200 ; Z hop return
G1 E0.4 F2100 ; Un-retract
SET_PRESSURE_ADVANCE ADVANCE=0.015 ; Set pressure advance
M117 PA 0.015
G1 X72.4059 Y74.22 E0.93974 F6000 ; Print pattern wall
G1 X51.1927 Y95.4332 E0.93974 F6000 ; Print pattern wall
G1 E-0.4 F2100 ; Retract
G1 Z1.25 F7200 ; Z hop
G0 X51.7656 Y53.0068 F7200 ; Move to start next pattern wall
G1 Z0.85 F7200 ; Z hop return
G1 E0.4 F2100 ; Un-retract
G1 X72.9788 Y74.22 E0.93974 F6000 ; Print pattern wall
G1 X51.7656 Y95.4332 E0.93974 F6000 ; Print pattern wall
G1 E-0.4 F2100 ; Retract
G1 Z1.25 F7200 ; Z hop
G0 X52.3384 Y53.0068 F7200 ; Move to start next pattern wall
G1 Z0.85 F7200 ; Z hop return
G1 E0.4 F2100 ; Un-retract
G1 X73.5516 Y74.22 E0.93974 F6000 ; Print pattern wall
G1 X52.3384 Y95.4332 E0.93974 F6000 ; Print pattern wall
G1 E-0.4 F2100 ; Retract
G1 Z1.25 F7200 ; Z hop
G0 X54.7864 Y53.0068 F7200 ; Move to next pattern
G1 Z0.85 F7200 ; Z hop return
G1 E0.4 F2100 ; Un-retract
SET_PRESSURE_ADVANCE ADVANCE=0.02 ; Set pressure advance
M117 PA 0.02
G1 X75.9996 Y74.22 E0.93974 F6000 ; Print pattern wall
G1 X54.7864 Y95.4332 E0.93974 F6000 ; Print pattern wall
G1 E-0.4 F2100 ; Retract
G1 Z1.25 F7200 ; Z hop
G0 X55.3593 Y53.0068 F7200 ; Move to start next pattern wall
G1 Z0.85 F7200 ; Z hop return
G1 E0.4 F2100 ; Un-retract
G1 X76.5725 Y74.22 E0.93974 F6000 ; Print pattern wall
G1 X55.3593 Y95.4332 E0.93974 F6000 ; Print pattern wall
G1 E-0.4 F2100 ; Retract
G1 Z1.25 F7200 ; Z hop
G0 X55.9322 Y53.0068 F7200 ; Move to start next pattern wall
G1 Z0.85 F7200 ; Z hop return
G1 E0.4 F2100 ; Un-retract
G1 X77.1454 Y74.22 E0.93974 F6000 ; Print pattern wall
G1 X55.9322 Y95.4332 E0.93974 F6000 ; Print pattern wall
G1 E-0.4 F2100 ; Retract
G1 Z1.25 F7200 ; Z hop
G0 X58.3802 Y53.0068 F7200 ; Move to next pattern
G1 Z0.85 F7200 ; Z hop return
G1 E0.4 F2100 ; Un-retract
SET_PRESSURE_ADVANCE ADVANCE=0.025 ; Set pressure advance
M117 PA 0.025
G1 X79.5934 Y74.22 E0.93974 F6000 ; Print pattern wall
G1 X58.3802 Y95.4332 E0.93974 F6000 ; Print pattern wall
G1 E-0.4 F2100 ; Retract
G1 Z1.25 F7200 ; Z hop
G0 X58.953 Y53.0068 F7200 ; Move to start next pattern wall
G1 Z0.85 F7200 ; Z hop return
G1 E0.4 F2100 ; Un-retract
G1 X80.1662 Y74.22 E0.93974 F6000 ; Print pattern wall
G1 X58.953 Y95.4332 E0.93974 F6000 ; Print pattern wall
G1 E-0.4 F2100 ; Retract
G1 Z1.25 F7200 ; Z hop
G0 X59.5259 Y53.0068 F7200 ; Move to start next pattern wall
G1 Z0.85 F7200 ; Z hop return
G1 E0.4 F2100 ; Un-retract
G1 X80.7391 Y74.22 E0.93974 F6000 ; Print pattern wall
G1 X59.5259 Y95.4332 E0.93974 F6000 ; Print pattern wall
G1 E-0.4 F2100 ; Retract
G1 Z1.25 F7200 ; Z hop
G0 X61.9739 Y53.0068 F7200 ; Move to next pattern
G1 Z0.85 F7200 ; Z hop return
G1 E0.4 F2100 ; Un-retract
SET_PRESSURE_ADVANCE ADVANCE=0.03 ; Set pressure advance
M117 PA 0.03
G1 X83.1871 Y74.22 E0.93974 F6000 ; Print pattern wall
G1 X61.9739 Y95.4332 E0.93974 F6000 ; Print pattern wall
G1 E-0.4 F2100 ; Retract
G1 Z1.25 F7200 ; Z hop
G0 X62.5468 Y53.0068 F7200 ; Move to start next pattern wall
G1 Z0.85 F7200 ; Z hop return
G1 E0.4 F2100 ; Un-retract
G1 X83.76 Y74.22 E0.93974 F6000 ; Print pattern wall
G1 X62.5468 Y95.4332 E0.93974 F6000 ; Print pattern wall
G1 E-0.4 F2100 ; Retract
G1 Z1.25 F7200 ; Z hop
G0 X63.1196 Y53.0068 F7200 ; Move to start next pattern wall
G1 Z0.85 F7200 ; Z hop return
G1 E0.4 F2100 ; Un-retract
G1 X84.3328 Y74.22 E0.93974 F6000 ; Print pattern wall
G1 X63.1196 Y95.4332 E0.93974 F6000 ; Print pattern wall
G1 E-0.4 F2100 ; Retract
G1 Z1.25 F7200 ; Z hop
G0 X65.5676 Y53.0068 F7200 ; Move to next pattern
G1 Z0.85 F7200 ; Z hop return
G1 E0.4 F2100 ; Un-retract
SET_PRESSURE_ADVANCE ADVANCE=0.035 ; Set pressure advance
M117 PA 0.035
G1 X86.7808 Y74.22 E0.93974 F6000 ; Print pattern wall
G1 X65.5676 Y95.4332 E0.93974 F6000 ; Print pattern wall
G1 E-0.4 F2100 ; Retract
G1 Z1.25 F7200 ; Z hop
G0 X66.1405 Y53.0068 F7200 ; Move to start next pattern wall
G1 Z0.85 F7200 ; Z hop return
G1 E0.4 F2100 ; Un-retract
G1 X87.3537 Y74.22 E0.93974 F6000 ; Print pattern wall
G1 X66.1405 Y95.4332 E0.93974 F6000 ; Print pattern wall
G1 E-0.4 F2100 ; Retract
G1 Z1.25 F7200 ; Z hop
G0 X66.7134 Y53.0068 F7200 ; Move to start next pattern wall
G1 Z0.85 F7200 ; Z hop return
G1 E0.4 F2100 ; Un-retract
G1 X87.9266 Y74.22 E0.93974 F6000 ; Print pattern wall
G1 X66.7134 Y95.4332 E0.93974 F6000 ; Print pattern wall
G1 E-0.4 F2100 ; Retract
G1 Z1.25 F7200 ; Z hop
G0 X69.1614 Y53.0068 F7200 ; Move to next pattern
G1 Z0.85 F7200 ; Z hop return
G1 E0.4 F2100 ; Un-retract
SET_PRESSURE_ADVANCE ADVANCE=0.04 ; Set pressure advance
M117 PA 0.04
G1 X90.3746 Y74.22 E0.93974 F6000 ; Print pattern wall
G1 X69.1614 Y95.4332 E0.93974 F6000 ; Print pattern wall
G1 E-0.4 F2100 ; Retract
G1 Z1.25 F7200 ; Z hop
G0 X69.7342 Y53.0068 F7200 ; Move to start next pattern wall
G1 Z0.85 F7200 ; Z hop return
G1 E0.4 F2100 ; Un-retract
G1 X90.9474 Y74.22 E0.93974 F6000 ; Print pattern wall
G1 X69.7342 Y95.4332 E0.93974 F6000 ; Print pattern wall
G1 E-0.4 F2100 ; Retract
G1 Z1.25 F7200 ; Z hop
G0 X70.3071 Y53.0068 F7200 ; Move to start next pattern wall
G1 Z0.85 F7200 ; Z hop return
G1 E0.4 F2100 ; Un-retract
G1 X91.5203 Y74.22 E0.93974 F6000 ; Print pattern wall
G1 X70.3071 Y95.4332 E0.93974 F6000 ; Print pattern wall
G1 E-0.4 F2100 ; Retract
G1 Z1.25 F7200 ; Z hop
G0 X72.7551 Y53.0068 F7200 ; Move to next pattern
G1 Z0.85 F7200 ; Z hop return
G1 E0.4 F2100 ; Un-retract
SET_PRESSURE_ADVANCE ADVANCE=0.045 ; Set pressure advance
M117 PA 0.045
G1 X93.9683 Y74.22 E0.93974 F6000 ; Print pattern wall
G1 X72.7551 Y95.4332 E0.93974 F6000 ; Print pattern wall
G1 E-0.4 F2100 ; Retract
G1 Z1.25 F7200 ; Z hop
G0 X73.328 Y53.0068 F7200 ; Move to start next pattern wall
G1 Z0.85 F7200 ; Z hop return
G1 E0.4 F2100 ; Un-retract
G1 X94.5412 Y74.22 E0.93974 F6000 ; Print pattern wall
G1 X73.328 Y95.4332 E0.93974 F6000 ; Print pattern wall
G1 E-0.4 F2100 ; Retract
G1 Z1.25 F7200 ; Z hop
G0 X73.9008 Y53.0068 F7200 ; Move to start next pattern wall
G1 Z0.85 F7200 ; Z hop return
G1 E0.4 F2100 ; Un-retract
G1 X95.1141 Y74.22 E0.93974 F6000 ; Print pattern wall
G1 X73.9008 Y95.4332 E0.93974 F6000 ; Print pattern wall
G1 E-0.4 F2100 ; Retract
G1 Z1.25 F7200 ; Z hop
G0 X76.3488 Y53.0068 F7200 ; Move to next pattern
G1 Z0.85 F7200 ; Z hop return
G1 E0.4 F2100 ; Un-retract
SET_PRESSURE_ADVANCE ADVANCE=0.05 ; Set pressure advance
M117 PA 0.05
G1 X97.5621 Y74.22 E0.93974 F6000 ; Print pattern wall
G1 X76.3488 Y95.4332 E0.93974 F6000 ; Print pattern wall
G1 E-0.4 F2100 ; Retract
G1 Z1.25 F7200 ; Z hop
G0 X76.9217 Y53.0068 F7200 ; Move to start next pattern wall
G1 Z0.85 F7200 ; Z hop return
G1 E0.4 F2100 ; Un-retract
G1 X98.1349 Y74.22 E0.93974 F6000 ; Print pattern wall
G1 X76.9217 Y95.4332 E0.93974 F6000 ; Print pattern wall
G1 E-0.4 F2100 ; Retract
G1 Z1.25 F7200 ; Z hop
G0 X77.4946 Y53.0068 F7200 ; Move to start next pattern wall
G1 Z0.85 F7200 ; Z hop return
G1 E0.4 F2100 ; Un-retract
G1 X98.7078 Y74.22 E0.93974 F6000 ; Print pattern wall
G1 X77.4946 Y95.4332 E0.93974 F6000 ; Print pattern wall
G1 E-0.4 F2100 ; Retract
G1 Z1.25 F7200 ; Z hop
G0 X79.9426 Y53.0068 F7200 ; Move to next pattern
G1 Z0.85 F7200 ; Z hop return
G1 E0.4 F2100 ; Un-retract
SET_PRESSURE_ADVANCE ADVANCE=0.055 ; Set pressure advance
M117 PA 0.055
G1 X101.1558 Y74.22 E0.93974 F6000 ; Print pattern wall
G1 X79.9426 Y95.4332 E0.93974 F6000 ; Print pattern wall
G1 E-0.4 F2100 ; Retract
G1 Z1.25 F7200 ; Z hop
G0 X80.5155 Y53.0068 F7200 ; Move to start next pattern wall
G1 Z0.85 F7200 ; Z hop return
G1 E0.4 F2100 ; Un-retract
G1 X101.7287 Y74.22 E0.93974 F6000 ; Print pattern wall
G1 X80.5155 Y95.4332 E0.93974 F6000 ; Print pattern wall
G1 E-0.4 F2100 ; Retract
G1 Z1.25 F7200 ; Z hop
G0 X81.0883 Y53.0068 F7200 ; Move to start next pattern wall
G1 Z0.85 F7200 ; Z hop return
G1 E0.4 F2100 ; Un-retract
G1 X102.3015 Y74.22 E0.93974 F6000 ; Print pattern wall
G1 X81.0883 Y95.4332 E0.93974 F6000 ; Print pattern wall
G1 E-0.4 F2100 ; Retract
G1 Z1.25 F7200 ; Z hop
G0 X83.5363 Y53.0068 F7200 ; Move to next pattern
G1 Z0.85 F7200 ; Z hop return
G1 E0.4 F2100 ; Un-retract
SET_PRESSURE_ADVANCE ADVANCE=0.06 ; Set pressure advance
M117 PA 0.06
G1 X104.7495 Y74.22 E0.93974 F6000 ; Print pattern wall
G1 X83.5363 Y95.4332 E0.93974 F6000 ; Print pattern wall
G1 E-0.4 F2100 ; Retract
G1 Z1.25 F7200 ; Z hop
G0 X84.1092 Y53.0068 F7200 ; Move to start next pattern wall
G1 Z0.85 F7200 ; Z hop return
G1 E0.4 F2100 ; Un-retract
G1 X105.3224 Y74.22 E0.93974 F6000 ; Print pattern wall
G1 X84.1092 Y95.4332 E0.93974 F6000 ; Print pattern wall
G1 E-0.4 F2100 ; Retract
G1 Z1.25 F7200 ; Z hop
G0 X84.6821 Y53.0068 F7200 ; Move to start next pattern wall
G1 Z0.85 F7200 ; Z hop return
G1 E0.4 F2100 ; Un-retract
G1 X105.8953 Y74.22 E0.93974 F6000 ; Print pattern wall
G1 X84.6821 Y95.4332 E0.93974 F6000 ; Print pattern wall
G1 E-0.4 F2100 ; Retract
G1 Z1.25 F7200 ; Z hop
G0 X87.1301 Y53.0068 F7200 ; Move to next pattern
G1 Z0.85 F7200 ; Z hop return
G1 E0.4 F2100 ; Un-retract
SET_PRESSURE_ADVANCE ADVANCE=0.065 ; Set pressure advance
M117 PA 0.065
G1 X108.3433 Y74.22 E0.93974 F6000 ; Print pattern wall
G1 X87.1301 Y95.4332 E0.93974 F6000 ; Print pattern wall
G1 E-0.4 F2100 ; Retract
G1 Z1.25 F7200 ; Z hop
G0 X87.7029 Y53.0068 F7200 ; Move to start next pattern wall
G1 Z0.85 F7200 ; Z hop return
G1 E0.4 F2100 ; Un-retract
G1 X108.9161 Y74.22 E0.93974 F6000 ; Print pattern wall
G1 X87.7029 Y95.4332 E0.93974 F6000 ; Print pattern wall
G1 E-0.4 F2100 ; Retract
G1 Z1.25 F7200 ; Z hop
G0 X88.2758 Y53.0068 F7200 ; Move to start next pattern wall
G1 Z0.85 F7200 ; Z hop return
G1 E0.4 F2100 ; Un-retract
G1 X109.489 Y74.22 E0.93974 F6000 ; Print pattern wall
G1 X88.2758 Y95.4332 E0.93974 F6000 ; Print pattern wall
G1 E-0.4 F2100 ; Retract
G1 Z1.25 F7200 ; Z hop
G0 X90.7238 Y53.0068 F7200 ; Move to next pattern
G1 Z0.85 F7200 ; Z hop return
G1 E0.4 F2100 ; Un-retract
SET_PRESSURE_ADVANCE ADVANCE=0.07 ; Set pressure advance
M117 PA 0.07
G1 X111.937 Y74.22 E0.93974 F6000 ; Print pattern wall
G1 X90.7238 Y95.4332 E0.93974 F6000 ; Print pattern wall
G1 E-0.4 F2100 ; Retract
G1 Z1.25 F7200 ; Z hop
G0 X91.2967 Y53.0068 F7200 ; Move to start next pattern wall
G1 Z0.85 F7200 ; Z hop return
G1 E0.4 F2100 ; Un-retract
G1 X112.5099 Y74.22 E0.93974 F6000 ; Print pattern wall
G1 X91.2967 Y95.4332 E0.93974 F6000 ; Print pattern wall
G1 E-0.4 F2100 ; Retract
G1 Z1.25 F7200 ; Z hop
G0 X91.8695 Y53.0068 F7200 ; Move to start next pattern wall
G1 Z0.85 F7200 ; Z hop return
G1 E0.4 F2100 ; Un-retract
G1 X113.0827 Y74.22 E0.93974 F6000 ; Print pattern wall
G1 X91.8695 Y95.4332 E0.93974 F6000 ; Print pattern wall
G1 E-0.4 F2100 ; Retract
G1 Z1.25 F7200 ; Z hop
G0 X94.3175 Y53.0068 F7200 ; Move to next pattern
G1 Z0.85 F7200 ; Z hop return
G1 E0.4 F2100 ; Un-retract
SET_PRESSURE_ADVANCE ADVANCE=0.075 ; Set pressure advance
M117 PA 0.075
G1 X115.5307 Y74.22 E0.93974 F6000 ; Print pattern wall
G1 X94.3175 Y95.4332 E0.93974 F6000 ; Print pattern wall
G1 E-0.4 F2100 ; Retract
G1 Z1.25 F7200 ; Z hop
G0 X94.8904 Y53.0068 F7200 ; Move to start next pattern wall
G1 Z0.85 F7200 ; Z hop return
G1 E0.4 F2100 ; Un-retract
G1 X116.1036 Y74.22 E0.93974 F6000 ; Print pattern wall
G1 X94.8904 Y95.4332 E0.93974 F6000 ; Print pattern wall
G1 E-0.4 F2100 ; Retract
G1 Z1.25 F7200 ; Z hop
G0 X95.4633 Y53.0068 F7200 ; Move to start next pattern wall
G1 Z0.85 F7200 ; Z hop return
G1 E0.4 F2100 ; Un-retract
G1 X116.6765 Y74.22 E0.93974 F6000 ; Print pattern wall
G1 X95.4633 Y95.4332 E0.93974 F6000 ; Print pattern wall
G1 E-0.4 F2100 ; Retract
G1 Z1.25 F7200 ; Z hop
G0 X97.9113 Y53.0068 F7200 ; Move to next pattern
G1 Z0.85 F7200 ; Z hop return
G1 E0.4 F2100 ; Un-retract
SET_PRESSURE_ADVANCE ADVANCE=0.08 ; Set pressure advance
M117 PA 0.08
G1 X119.1245 Y74.22 E0.93974 F6000 ; Print pattern wall
G1 X97.9113 Y95.4332 E0.93974 F6000 ; Print pattern wall
G1 E-0.4 F2100 ; Retract
G1 Z1.25 F7200 ; Z hop
G0 X98.4841 Y53.0068 F7200 ; Move to start next pattern wall
G1 Z0.85 F7200 ; Z hop return
G1 E0.4 F2100 ; Un-retract
G1 X119.6974 Y74.22 E0.93974 F6000 ; Print pattern wall
G1 X98.4841 Y95.4332 E0.93974 F6000 ; Print pattern wall
G1 E-0.4 F2100 ; Retract
G1 Z1.25 F7200 ; Z hop
G0 X99.057 Y53.0068 F7200 ; Move to start next pattern wall
G1 Z0.85 F7200 ; Z hop return
G1 E0.4 F2100 ; Un-retract
G1 X120.2702 Y74.22 E0.93974 F6000 ; Print pattern wall
G1 X99.057 Y95.4332 E0.93974 F6000 ; Print pattern wall
SET_PRESSURE_ADVANCE ADVANCE=0 ; Set pressure advance back to start value
M117 PA 0
G1 E-0.4 F2100 ; Retract
G1 Z1.25 F7200 ; Z hop
G0 Z5.85 F7200 ; Z raise
M104 S0 ; Turn off hotend
M140 S0 ; Turn off bed
M107    ; Turn off fan
;
; End G-code
;
PRINT_END ; End macro. Change name to match yours
;
; FINISH
;
