;FLAVOR:Marlin
;TIME:1216
;Filament used: 0.751647m
;Layer height: 0.2
;MINX:67.771
;MINY:56.27
;MINZ:0.2
;MAXX:99.457
;MAXY:104.198
;MAXZ:16.4
;Generated with Cura_SteamEngine 5.2.1
M82 ;absolute extrusion mode


; Pre-Processed for Cancel-Object support by preprocess_cancellation v0.2.0
; 4 known objects
EXCLUDE_OBJECT_DEFINE NAME=Status_LED_logo_diffuser_stl CENTER=80.230,67.159 POLYGON=[[73.733,61.9],[73.733,72.5],[86.267,72.5],[86.267,61.9]]
EXCLUDE_OBJECT_DEFINE NAME=c__stealthburner_LED_diffuser_beta3_stl CENTER=80.015,80.099 POLYGON=[[73.301,74.433],[73.301,85.567],[86.699,85.567],[86.699,74.433]]
EXCLUDE_OBJECT_DEFINE NAME=Status_LED_Carrier_stl CENTER=91.251,79.987 POLYGON=[[88.573,73.449],[88.573,86.551],[93.827,86.551],[93.827,73.449]]
EXCLUDE_OBJECT_DEFINE NAME=c__stealthburner_LED_diffuser_beta3_stl_1 CENTER=80.016,93.198 POLYGON=[[73.301,87.533],[73.301,98.667],[86.699,98.667],[86.699,87.533]]
PRINT_START BED=110 EXTRUDER=255 STANDBY=120 CHAMBER=0
G92 E0
G92 E0
G1 F7200 E-0.4
;LAYER_COUNT:82
;LAYER:0
M107
G1 F600 Z0.6
G0 F7200 X69.562 Y59.744 Z0.6
;TYPE:SKIRT
G1 F600 Z0.2
G1 F2880 E0
G1 F1800 X69.836 Y59.454 E0.01549
G1 X71.026 Y58.26 E0.08096
G1 X71.497 Y57.805 E0.10639
G1 X71.998 Y57.377 E0.13198
G1 X72.547 Y57.012 E0.15758
G1 X73.136 Y56.717 E0.18317
G1 X73.756 Y56.495 E0.20874
G1 X74.399 Y56.35 E0.23434
G1 X75.173 Y56.281 E0.26452
G1 X75.827 Y56.27 E0.28992
G1 X84.028 Y56.27 E0.6084
G1 X84.806 Y56.281 E0.63862
G1 X85.463 Y56.33 E0.66421
G1 X86.11 Y56.458 E0.68982
G1 X86.735 Y56.664 E0.71538
G1 X87.332 Y56.944 E0.74098
G1 X87.89 Y57.295 E0.76658
G1 X88.409 Y57.717 E0.79256
G1 X88.715 Y58.004 E0.80885
G1 X89.819 Y59.104 E0.86938
G1 X90.352 Y59.653 E0.89909
G1 X90.782 Y60.153 E0.9247
G1 X91.174 Y60.746 E0.95231
G1 X91.529 Y61.369 E0.98016
G1 X92.921 Y63.739 E1.0869
G1 X94.353 Y66.024 E1.19162
G1 X95.822 Y68.23 E1.29455
G1 X98.118 Y71.43 E1.4475
G1 X98.357 Y71.749 E1.46298
G1 X98.719 Y72.299 E1.48855
G1 X99.012 Y72.889 E1.51413
G1 X99.231 Y73.511 E1.53974
G1 X99.374 Y74.154 E1.56532
G1 X99.44 Y74.907 E1.59468
G1 X99.457 Y75.887 E1.63274
G1 X99.456 Y76.628 E1.66152
G1 X99.426 Y78.576 E1.73718
G1 X99.422 Y81.338 E1.84444
G1 X99.456 Y82.979 E1.90818
G1 X99.456 Y84.36 E1.96181
G1 X99.446 Y85.063 E1.98912
G1 X99.397 Y85.72 E2.0147
G1 X99.269 Y86.366 E2.04028
G1 X99.063 Y86.992 E2.06587
G1 X98.646 Y87.825 E2.10205
G1 X98.163 Y88.611 E2.13787
G1 X97.63 Y89.449 E2.17644
G1 X96.262 Y91.741 E2.2801
G1 X94.947 Y94.094 E2.38478
G1 X93.722 Y96.44 E2.48756
G1 X92.556 Y98.835 E2.59101
G1 X92.099 Y99.845 E2.63406
G1 X91.7 Y100.698 E2.67063
G1 X91.385 Y101.276 E2.69619
G1 X91.002 Y101.813 E2.72181
G1 X90.563 Y102.294 E2.7471
G1 X90.191 Y102.655 E2.76723
G1 X89.691 Y103.084 E2.79282
G1 X89.143 Y103.45 E2.81841
G1 X88.555 Y103.746 E2.84397
G1 X87.935 Y103.969 E2.86956
G1 X87.292 Y104.116 E2.89518
G1 X86.503 Y104.187 E2.92594
G1 X85.831 Y104.198 E2.95204
G1 X75.891 Y104.196 E3.33806
G1 X75.196 Y104.186 E3.36505
G1 X74.539 Y104.137 E3.39064
G1 X73.893 Y104.008 E3.41622
G1 X73.267 Y103.803 E3.4418
G1 X72.671 Y103.522 E3.46739
G1 X72.113 Y103.172 E3.49297
G1 X71.601 Y102.757 E3.51857
G1 X71.144 Y102.283 E3.54414
G1 X70.611 Y101.539 E3.57968
G1 X70.18 Y100.816 E3.61237
G1 X68.802 Y98.43 E3.71937
G1 X68.472 Y97.84 E3.74562
G1 X68.186 Y97.246 E3.77123
G1 X67.974 Y96.623 E3.79678
G1 X67.839 Y95.978 E3.82238
G1 X67.783 Y95.338 E3.84732
G1 X67.771 Y94.825 E3.86725
G1 X67.772 Y89.449 E4.07603
G1 X67.794 Y87.873 E4.13724
G1 X67.825 Y86.807 E4.17866
G1 X67.827 Y84.114 E4.28324
G1 X67.771 Y81.727 E4.37596
G1 X67.772 Y76.318 E4.58602
G1 X67.782 Y75.646 E4.61212
G1 X67.795 Y75.344 E4.62386
G1 X67.864 Y74.376 E4.66155
G1 X68.017 Y71.673 E4.76669
G1 X68.093 Y68.961 E4.87205
G1 X68.103 Y67.6 E4.92491
G1 X68.104 Y64.041 E5.06312
G1 X68.114 Y63.358 E5.08965
G1 X68.163 Y62.701 E5.11523
G1 X68.292 Y62.055 E5.14081
G1 X68.498 Y61.429 E5.16641
G1 X68.778 Y60.833 E5.19198
G1 X69.129 Y60.275 E5.21758
G1 X69.562 Y59.744 E5.24419
G0 F7200 X69.958 Y60.111
G1 F1800 X70.219 Y59.835 E5.25894
G1 X71.402 Y58.648 E5.32402
G1 X71.873 Y58.193 E5.34946
G1 X72.349 Y57.788 E5.37373
G1 X72.873 Y57.448 E5.39798
G1 X73.437 Y57.177 E5.42228
G1 X74.03 Y56.98 E5.44655
G1 X74.643 Y56.86 E5.47081
G1 X75.182 Y56.821 E5.4918
G1 X75.827 Y56.81 E5.51685
G1 X84.098 Y56.81 E5.83805
G1 X84.799 Y56.82 E5.86528
G1 X85.422 Y56.869 E5.88955
G1 X86.034 Y56.997 E5.91383
G1 X86.624 Y57.202 E5.93809
G1 X87.184 Y57.481 E5.96238
G1 X87.704 Y57.829 E5.98668
G1 X88.043 Y58.114 E6.00388
G1 X88.333 Y58.387 E6.01935
G1 X89.494 Y59.544 E6.083
G1 X89.965 Y60.029 E6.10926
G1 X90.371 Y60.505 E6.13355
G1 X90.705 Y61.014 E6.1572
G1 X91.085 Y61.68 E6.18697
G1 X92.458 Y64.017 E6.29224
G1 X93.895 Y66.311 E6.39736
G1 X95.365 Y68.519 E6.50037
G1 X97.729 Y71.813 E6.65783
G1 X97.924 Y72.073 E6.67045
G1 X98.267 Y72.596 E6.69474
G1 X98.539 Y73.159 E6.71902
G1 X98.738 Y73.752 E6.74331
G1 X98.859 Y74.365 E6.76758
G1 X98.9 Y74.916 E6.78903
G1 X98.917 Y75.887 E6.82675
G1 X98.916 Y76.62 E6.85522
G1 X98.886 Y78.575 E6.93115
G1 X98.882 Y81.348 E7.03884
G1 X98.916 Y82.99 E7.10262
G1 X98.917 Y84.353 E7.15555
G1 X98.907 Y85.056 E7.18285
G1 X98.858 Y85.679 E7.20712
G1 X98.73 Y86.291 E7.2314
G1 X98.525 Y86.881 E7.25566
G1 X98.186 Y87.542 E7.28451
G1 X97.75 Y88.253 E7.3169
G1 X97.18 Y89.149 E7.35814
G1 X95.781 Y91.495 E7.46422
G1 X94.487 Y93.81 E7.56721
G1 X93.234 Y96.209 E7.67232
G1 X92.062 Y98.618 E7.77636
G1 X91.636 Y99.559 E7.81647
G1 X91.21 Y100.469 E7.85549
G1 X90.91 Y101.017 E7.87975
G1 X90.542 Y101.522 E7.90402
G1 X90.186 Y101.906 E7.92435
G1 X89.814 Y102.267 E7.94448
G1 X89.339 Y102.673 E7.96875
G1 X88.816 Y103.015 E7.99302
G1 X88.253 Y103.287 E8.0173
G1 X87.66 Y103.485 E8.04158
G1 X87.047 Y103.606 E8.06585
G1 X86.494 Y103.647 E8.08738
G1 X85.832 Y103.658 E8.11309
G1 X75.899 Y103.656 E8.49884
G1 X75.204 Y103.646 E8.52583
G1 X74.58 Y103.598 E8.55014
G1 X73.969 Y103.47 E8.57438
G1 X73.378 Y103.264 E8.59869
G1 X72.818 Y102.986 E8.62297
G1 X72.299 Y102.638 E8.64723
G1 X71.828 Y102.227 E8.67151
G1 X71.414 Y101.759 E8.69578
G1 X71.075 Y101.263 E8.71911
G1 X70.648 Y100.546 E8.75152
G1 X69.273 Y98.166 E8.85826
G1 X68.943 Y97.576 E8.88451
G1 X68.674 Y97.012 E8.90878
G1 X68.478 Y96.418 E8.93307
G1 X68.36 Y95.804 E8.95735
G1 X68.323 Y95.323 E8.97609
G1 X68.311 Y94.825 E8.99543
G1 X68.311 Y89.456 E9.20394
G1 X68.334 Y87.889 E9.2648
G1 X68.365 Y86.823 E9.30621
G1 X68.367 Y84.142 E9.41033
G1 X68.312 Y81.844 E9.4996
G1 X68.312 Y76.326 E9.71389
G1 X68.333 Y75.382 E9.75056
G1 X68.405 Y74.365 E9.79015
G1 X68.557 Y71.682 E9.89452
G1 X68.633 Y68.981 E9.99945
G1 X68.643 Y67.604 E10.05293
G1 X68.644 Y64.048 E10.19103
G1 X68.654 Y63.365 E10.21755
G1 X68.703 Y62.742 E10.24182
G1 X68.831 Y62.13 E10.2661
G1 X69.036 Y61.54 E10.29036
G1 X69.315 Y60.98 E10.31466
G1 X69.663 Y60.461 E10.33892
G1 X69.958 Y60.111 E10.3567
G0 F7200 X70.354 Y60.479
G1 F1800 X70.601 Y60.216 E10.37071
G1 X71.777 Y59.036 E10.43541
G1 X72.248 Y58.581 E10.46084
G1 X72.699 Y58.201 E10.48374
G1 X73.197 Y57.886 E10.50663
G1 X73.733 Y57.641 E10.52952
G1 X74.297 Y57.47 E10.5524
G1 X74.879 Y57.378 E10.57529
G1 X75.192 Y57.361 E10.58746
G1 X75.827 Y57.35 E10.61212
G1 X84.09 Y57.35 E10.93302
G1 X84.791 Y57.36 E10.96024
G1 X85.379 Y57.409 E10.98316
G1 X85.954 Y57.536 E11.00602
G1 X86.507 Y57.74 E11.02892
G1 X87.028 Y58.017 E11.05183
G1 X87.677 Y58.511 E11.0835
G1 X87.952 Y58.77 E11.09818
G1 X89.107 Y59.92 E11.16147
G1 X89.578 Y60.405 E11.18773
G1 X89.959 Y60.855 E11.21063
G1 X90.236 Y61.281 E11.23036
G1 X90.598 Y61.916 E11.25874
G1 X92.019 Y64.335 E11.3677
G1 X93.412 Y66.559 E11.46961
G1 X94.935 Y68.847 E11.57635
G1 X97.285 Y72.12 E11.73283
G1 X97.492 Y72.397 E11.74625
G1 X97.813 Y72.891 E11.76913
G1 X98.064 Y73.425 E11.79205
G1 X98.24 Y73.988 E11.81496
G1 X98.339 Y74.569 E11.83784
G1 X98.36 Y74.926 E11.85173
G1 X98.377 Y75.887 E11.88906
G1 X98.376 Y76.612 E11.91721
G1 X98.346 Y78.574 E11.99342
G1 X98.342 Y81.358 E12.10153
G1 X98.377 Y83.091 E12.16885
G1 X98.377 Y84.345 E12.21755
G1 X98.367 Y85.048 E12.24485
G1 X98.318 Y85.635 E12.26773
G1 X98.191 Y86.211 E12.29063
G1 X97.987 Y86.764 E12.31352
G1 X97.725 Y87.26 E12.33531
G1 X97.251 Y88.032 E12.37049
G1 X96.721 Y88.866 E12.40886
G1 X95.312 Y91.227 E12.51564
G1 X94.006 Y93.564 E12.61961
G1 X92.753 Y95.964 E12.72475
G1 X91.566 Y98.401 E12.83002
G1 X91.12 Y99.387 E12.87205
G1 X90.721 Y100.24 E12.90862
G1 X90.436 Y100.756 E12.93151
G1 X90.083 Y101.229 E12.95443
G1 X89.81 Y101.519 E12.9699
G1 X89.438 Y101.88 E12.99003
G1 X88.988 Y102.261 E13.01293
G1 X88.491 Y102.577 E13.0358
G1 X87.956 Y102.824 E13.05868
G1 X87.392 Y102.996 E13.08158
G1 X86.809 Y103.09 E13.10451
G1 X86.484 Y103.107 E13.11715
G1 X85.832 Y103.118 E13.14248
G1 X75.906 Y103.117 E13.52795
G1 X75.211 Y103.107 E13.55495
G1 X74.624 Y103.058 E13.57782
G1 X74.048 Y102.931 E13.60073
G1 X73.495 Y102.727 E13.62362
G1 X72.975 Y102.45 E13.6465
G1 X72.496 Y102.105 E13.66942
G1 X72.069 Y101.698 E13.69233
G1 X71.701 Y101.238 E13.71521
G1 X71.538 Y100.986 E13.72687
G1 X71.115 Y100.276 E13.75896
G1 X69.774 Y97.955 E13.86306
G1 X69.415 Y97.312 E13.89166
G1 X69.162 Y96.78 E13.91454
G1 X68.984 Y96.217 E13.93747
G1 X68.884 Y95.637 E13.96032
G1 X68.863 Y95.308 E13.97313
G1 X68.851 Y94.825 E13.99189
G1 X68.851 Y89.464 E14.20009
G1 X68.872 Y87.97 E14.25811
G1 X68.905 Y86.838 E14.30209
G1 X68.907 Y84.129 E14.40729
G1 X68.852 Y81.831 E14.49656
G1 X68.851 Y76.334 E14.71004
G1 X68.861 Y75.662 E14.73614
G1 X68.941 Y74.441 E14.78366
G1 X69.097 Y71.694 E14.89051
G1 X69.174 Y68.955 E14.99692
G1 X69.183 Y67.607 E15.04927
G1 X69.183 Y64.056 E15.18718
G1 X69.193 Y63.373 E15.2137
G1 X69.242 Y62.786 E15.23658
G1 X69.37 Y62.21 E15.25949
G1 X69.574 Y61.657 E15.28238
G1 X69.851 Y61.137 E15.30526
G1 X70.354 Y60.479 E15.33743
G0 F7200 X70.75 Y60.846
G1 F1800 X70.984 Y60.597 E15.3507
G1 X72.152 Y59.425 E15.41496
G1 X72.623 Y58.97 E15.44039
G1 X73.046 Y58.616 E15.46181
G1 X73.517 Y58.327 E15.48327
G1 X74.023 Y58.11 E15.50465
G1 X74.557 Y57.967 E15.52612
G1 X75.202 Y57.901 E15.5513
G1 X75.827 Y57.89 E15.57557
G1 X84.082 Y57.89 E15.89616
G1 X84.783 Y57.9 E15.92338
G1 X85.333 Y57.948 E15.94482
G1 X85.87 Y58.075 E15.96625
G1 X86.383 Y58.278 E15.98768
G1 X86.861 Y58.553 E16.00909
G1 X87.311 Y58.908 E16.03135
G1 X87.571 Y59.152 E16.0452
G1 X88.719 Y60.297 E16.10817
G1 X89.19 Y60.782 E16.13442
G1 X89.545 Y61.204 E16.15584
G1 X89.767 Y61.549 E16.17177
G1 X90.132 Y62.19 E16.20042
G1 X91.531 Y64.571 E16.30766
G1 X92.99 Y66.9 E16.41439
G1 X94.482 Y69.141 E16.51895
G1 X96.857 Y72.45 E16.67712
G1 X97.06 Y72.721 E16.69027
G1 X97.358 Y73.185 E16.71169
G1 X97.586 Y73.687 E16.7331
G1 X97.739 Y74.218 E16.75456
G1 X97.82 Y74.936 E16.78262
G1 X97.837 Y75.887 E16.81956
G1 X97.837 Y76.603 E16.84737
G1 X97.806 Y78.626 E16.92594
G1 X97.802 Y81.369 E17.03246
G1 X97.837 Y83.091 E17.09935
G1 X97.837 Y84.337 E17.14774
G1 X97.827 Y85.04 E17.17504
G1 X97.779 Y85.59 E17.19648
G1 X97.652 Y86.127 E17.21791
G1 X97.449 Y86.64 E17.23934
G1 X97.265 Y86.978 E17.25428
G1 X96.796 Y87.742 E17.2891
G1 X96.245 Y88.607 E17.32893
G1 X94.861 Y90.928 E17.43387
G1 X93.516 Y93.334 E17.54092
G1 X92.286 Y95.691 E17.64417
G1 X91.066 Y98.197 E17.75241
G1 X90.631 Y99.158 E17.79337
G1 X90.232 Y100.011 E17.82994
G1 X89.963 Y100.493 E17.85138
G1 X89.627 Y100.93 E17.87279
G1 X89.434 Y101.131 E17.88361
G1 X89.062 Y101.492 E17.90374
G1 X88.64 Y101.847 E17.92516
G1 X88.17 Y102.137 E17.9466
G1 X87.664 Y102.355 E17.968
G1 X87.131 Y102.499 E17.98944
G1 X86.475 Y102.567 E18.01505
G1 X85.832 Y102.578 E18.04003
G1 X75.914 Y102.577 E18.42519
G1 X75.219 Y102.567 E18.45219
G1 X74.67 Y102.519 E18.47359
G1 X74.133 Y102.392 E18.49502
G1 X73.62 Y102.189 E18.51644
G1 X73.141 Y101.914 E18.53789
G1 X72.708 Y101.573 E18.5593
G1 X72.328 Y101.173 E18.58072
G1 X72.002 Y100.709 E18.60275
G1 X71.583 Y100.006 E18.63453
G1 X70.216 Y97.639 E18.74068
G1 X69.886 Y97.049 E18.76693
G1 X69.652 Y96.549 E18.78837
G1 X69.493 Y96.021 E18.80979
G1 X69.402 Y95.294 E18.83824
G1 X69.392 Y94.93 E18.85238
G1 X69.391 Y89.471 E19.06438
G1 X69.412 Y87.977 E19.12241
G1 X69.445 Y86.855 E19.166
G1 X69.447 Y84.117 E19.27233
G1 X69.392 Y81.818 E19.36164
G1 X69.391 Y76.342 E19.5743
G1 X69.401 Y75.67 E19.6004
G1 X69.479 Y74.494 E19.64617
G1 X69.637 Y71.703 E19.75473
G1 X69.713 Y69.018 E19.85904
G1 X69.723 Y67.611 E19.91368
G1 X69.723 Y64.064 E20.05143
G1 X69.733 Y63.381 E20.07796
G1 X69.781 Y62.832 E20.09936
G1 X69.908 Y62.295 E20.12079
G1 X70.111 Y61.782 E20.14222
G1 X70.386 Y61.303 E20.16367
G1 X70.75 Y60.846 E20.18636
G0 F7200 X71.146 Y61.213
G1 F1800 X71.367 Y60.978 E20.19888
G1 X72.527 Y59.813 E20.26273
G1 X72.998 Y59.358 E20.28816
G1 X73.392 Y59.033 E20.308
G1 X73.832 Y58.773 E20.32784
G1 X74.308 Y58.585 E20.34772
G1 X74.806 Y58.473 E20.36754
G1 X75.211 Y58.441 E20.38332
G1 X75.827 Y58.43 E20.40724
G1 X84.075 Y58.43 E20.72756
G1 X84.776 Y58.44 E20.75478
G1 X85.285 Y58.488 E20.77464
G1 X85.78 Y58.613 E20.79446
G1 X86.25 Y58.815 E20.81433
G1 X86.682 Y59.087 E20.83416
G1 X86.945 Y59.305 E20.84742
G1 X87.19 Y59.535 E20.86047
G1 X88.332 Y60.673 E20.92308
G1 X88.803 Y61.158 E20.94934
G1 X89.129 Y61.551 E20.96917
G1 X89.298 Y61.816 E20.98137
G1 X89.687 Y62.5 E21.01193
G1 X91.067 Y64.849 E21.11773
G1 X92.526 Y67.178 E21.22446
G1 X94.03 Y69.437 E21.32985
G1 X96.419 Y72.764 E21.48892
G1 X96.628 Y73.044 E21.50249
G1 X96.902 Y73.476 E21.52235
G1 X97.104 Y73.945 E21.54219
G1 X97.232 Y74.44 E21.56204
G1 X97.28 Y74.946 E21.58178
G1 X97.297 Y75.887 E21.61833
G1 X97.297 Y76.595 E21.64582
G1 X97.266 Y78.618 E21.7244
G1 X97.262 Y81.379 E21.83162
G1 X97.297 Y83.091 E21.89812
G1 X97.297 Y84.33 E21.94624
G1 X97.287 Y85.033 E21.97354
G1 X97.239 Y85.541 E21.99336
G1 X97.114 Y86.037 E22.01322
G1 X96.805 Y86.695 E22.04145
G1 X96.34 Y87.452 E22.07595
G1 X95.786 Y88.324 E22.11607
G1 X94.385 Y90.671 E22.22222
G1 X93.064 Y93.035 E22.32739
G1 X91.783 Y95.488 E22.43486
G1 X90.584 Y97.951 E22.54124
G1 X90.142 Y98.929 E22.58292
G1 X89.743 Y99.782 E22.61949
G1 X89.491 Y100.227 E22.63935
G1 X89.058 Y100.744 E22.66554
G1 X88.686 Y101.105 E22.68567
G1 X88.293 Y101.431 E22.7055
G1 X87.853 Y101.692 E22.72537
G1 X87.379 Y101.881 E22.74519
G1 X86.88 Y101.994 E22.76506
G1 X86.466 Y102.028 E22.78119
G1 X85.832 Y102.038 E22.80581
G1 X75.922 Y102.037 E23.19067
G1 X75.227 Y102.027 E23.21766
G1 X74.718 Y101.979 E23.23752
G1 X74.223 Y101.853 E23.25735
G1 X73.753 Y101.652 E23.2772
G1 X73.321 Y101.379 E23.29705
G1 X72.936 Y101.043 E23.3169
G1 X72.608 Y100.651 E23.33674
G1 X72.466 Y100.432 E23.34688
G1 X72.051 Y99.736 E23.37835
G1 X70.687 Y97.375 E23.48424
G1 X70.357 Y96.785 E23.51049
G1 X70.143 Y96.321 E23.53034
G1 X70.004 Y95.829 E23.55019
G1 X69.942 Y95.279 E23.57169
G1 X69.932 Y94.915 E23.58583
G1 X69.931 Y89.479 E23.79694
G1 X69.953 Y87.936 E23.85686
G1 X69.985 Y86.836 E23.8996
G1 X69.987 Y84.104 E24.0057
G1 X69.931 Y81.727 E24.09803
G1 X69.931 Y76.35 E24.30685
G1 X69.949 Y75.496 E24.34002
G1 X70.021 Y74.479 E24.37962
G1 X70.175 Y71.749 E24.48581
G1 X70.253 Y68.991 E24.59296
G1 X70.263 Y67.615 E24.64639
G1 X70.263 Y64.072 E24.78399
G1 X70.273 Y63.389 E24.81051
G1 X70.321 Y62.88 E24.83037
G1 X70.447 Y62.385 E24.8502
G1 X70.649 Y61.915 E24.87007
G1 X70.921 Y61.483 E24.8899
G1 X71.146 Y61.213 E24.90355
G1 F7200 E24.50355
G1 F600 Z0.6
;MESH:Status_LED_logo_diffuser.stl
EXCLUDE_OBJECT_START NAME=Status_LED_logo_diffuser_stl
G0 F7200 X75.213 Y64.129 Z0.6
;TYPE:WALL-INNER
G1 F600 Z0.2
G1 F2880 E24.90355
G1 F1800 X75.213 Y70.092 E25.10939
G1 X76.141 Y71.02 E25.15469
G1 X83.859 Y71.02 E25.42112
G1 X84.787 Y70.092 E25.46642
G1 X84.787 Y64.658 E25.654
G1 X84.787 Y64.129 E25.67226
G1 X84.038 Y63.38 E25.70883
G1 X75.962 Y63.38 E25.98761
G1 X75.213 Y64.129 E26.02418
G0 F7200 X74.733 Y63.93
G1 F1800 X74.733 Y70.291 E26.24376
G1 X75.942 Y71.5 E26.30278
G1 X84.058 Y71.5 E26.58295
G1 X85.267 Y70.291 E26.64197
G1 X85.267 Y64.658 E26.83642
G1 X85.267 Y63.93 E26.86155
G1 X84.237 Y62.9 E26.91183
G1 X75.763 Y62.9 E27.20436
G1 X74.733 Y63.93 E27.25464
G0 F7200 X74.253 Y63.732
G1 F1800 X74.253 Y70.489 E27.48789
G1 X75.743 Y71.98 E27.56066
