;FLAVOR:Marlin
;TIME:1066
;Filament used: 1.11495m
;Layer height: 0.2
;MINX:62.246
;MINY:55.761
;MINZ:0.2
;MAXX:98.025
;MAXY:105.129
;MAXZ:10.4
;Generated with Cura_SteamEngine 5.2.1
M82 ;absolute extrusion mode


; Pre-Processed for Cancel-Object support by preprocess_cancellation v0.2.0
; 1 known objects
EXCLUDE_OBJECT_DEFINE NAME=a__latch_1_stl CENTER=76.751,83.783 POLYGON=[[67.576,60.234],[67.576,99.825],[92.416,99.825],[92.416,60.234]]
PRINT_START BED=110 EXTRUDER=255 STANDBY=200 CHAMBER=36
G92 E0
G92 E0
G1 F2100 E-0.4
;LAYER_COUNT:52
;LAYER:0
M107
G1 F600 Z0.6
G0 F7200 X65.079 Y69.083 Z0.6
;TYPE:SKIRT
G1 F600 Z0.2
G1 F840 E0
G1 F1800 X65.572 Y68.645 E0.02561
G1 X66.114 Y68.271 E0.05118
G1 X66.445 Y68.087 E0.06589
G1 X67.153 Y67.725 E0.09677
G1 X71.185 Y65.738 E0.27134
G1 X71.98 Y65.364 E0.30546
G1 X74.37 Y64.344 E0.40637
G1 X76.778 Y63.24 E0.50924
G1 X79.182 Y62.055 E0.61333
G1 X81.526 Y60.815 E0.71631
G1 X83.877 Y59.485 E0.82121
G1 X86.169 Y58.101 E0.92519
G1 X87.319 Y57.357 E0.97838
G1 X88.508 Y56.602 E1.03308
G1 X89.085 Y56.283 E1.05868
G1 X89.696 Y56.037 E1.08426
G1 X90.332 Y55.866 E1.10984
G1 X90.984 Y55.773 E1.13542
G1 X91.643 Y55.761 E1.16101
G1 X92.298 Y55.828 E1.18658
G1 X92.941 Y55.974 E1.21219
G1 X93.561 Y56.196 E1.23776
G1 X94.307 Y56.588 E1.27049
G1 X94.678 Y56.821 E1.2875
G1 X95.214 Y57.204 E1.31309
G1 X95.699 Y57.65 E1.33868
G1 X96.126 Y58.151 E1.36424
G1 X96.49 Y58.7 E1.38982
G1 X96.877 Y59.52 E1.42503
G1 X97.023 Y59.911 E1.44124
G1 X97.216 Y60.541 E1.46683
G1 X97.33 Y61.189 E1.49238
G1 X97.365 Y61.721 E1.51309
G1 X97.382 Y62.777 E1.5541
G1 X97.384 Y63.565 E1.5847
G1 X97.465 Y66.194 E1.68685
G1 X97.625 Y68.917 E1.79278
G1 X97.856 Y71.551 E1.89546
G1 X97.927 Y72.182 E1.92012
G1 X98.002 Y72.959 E1.95044
G1 X98.025 Y73.618 E1.97605
G1 X97.969 Y74.274 E2.00161
G1 X97.833 Y74.919 E2.02721
G1 X97.621 Y75.542 E2.05277
G1 X97.36 Y76.088 E2.07627
G1 X97.134 Y76.494 E2.09432
G1 X96.039 Y78.329 E2.1773
G1 X95.678 Y78.914 E2.204
G1 X95.466 Y79.231 E2.21881
G1 X93.897 Y81.414 E2.32321
G1 X92.405 Y83.618 E2.42657
G1 X90.968 Y85.876 E2.53051
G1 X89.604 Y88.161 E2.63386
G1 X88.271 Y90.542 E2.73983
G1 X87.05 Y92.876 E2.84212
G1 X85.876 Y95.283 E2.94613
G1 X84.778 Y97.707 E3.04947
G1 X83.779 Y100.129 E3.15122
G1 X83.389 Y101.056 E3.19027
G1 X83.148 Y101.57 E3.21232
G1 X82.825 Y102.144 E3.2379
G1 X82.293 Y102.837 E3.27183
G1 X82.106 Y103.044 E3.28266
G1 X81.636 Y103.505 E3.30823
G1 X81.144 Y103.885 E3.33237
G1 X80.865 Y104.076 E3.3455
G1 X80.3 Y104.414 E3.37107
G1 X79.515 Y104.746 E3.40417
G1 X79.212 Y104.847 E3.41657
G1 X78.576 Y105.017 E3.44214
G1 X77.915 Y105.11 E3.46806
G1 X77.67 Y105.129 E3.4776
G1 X76.744 Y105.121 E3.51356
G1 X76.541 Y105.102 E3.52148
G1 X75.89 Y105.001 E3.54707
G1 X75.293 Y104.835 E3.57113
G1 X74.959 Y104.721 E3.58484
G1 X74.51 Y104.545 E3.60357
G1 X73.751 Y104.208 E3.63582
G1 X71.3 Y103.162 E3.73931
G1 X68.766 Y102.165 E3.84506
G1 X67.533 Y101.698 E3.89626
G1 X66.911 Y101.416 E3.92278
G1 X66.53 Y101.214 E3.93953
G1 X65.809 Y100.756 E3.9727
G1 X65.494 Y100.519 E3.98801
G1 X65.124 Y100.214 E4.00663
G1 X64.942 Y100.05 E4.01615
G1 X64.629 Y99.744 E4.03314
G1 X64.477 Y99.583 E4.04174
G1 X64.207 Y99.275 E4.05765
G1 X64.057 Y99.09 E4.0669
G1 X63.78 Y98.716 E4.08497
G1 X63.635 Y98.502 E4.09501
G1 X63.402 Y98.127 E4.11216
G1 X63.289 Y97.927 E4.12108
G1 X63.082 Y97.521 E4.13878
G1 X62.976 Y97.29 E4.14865
G1 X62.812 Y96.893 E4.16533
G1 X62.712 Y96.62 E4.17662
G1 X62.513 Y95.941 E4.2041
G1 X62.436 Y95.598 E4.21775
G1 X62.356 Y95.159 E4.23508
G1 X62.321 Y94.908 E4.24492
G1 X62.27 Y94.262 E4.27009
G1 X62.246 Y92.953 E4.32093
G1 X62.247 Y74.777 E5.02679
G1 X62.257 Y74.117 E5.05243
G1 X62.307 Y73.46 E5.07802
G1 X62.436 Y72.814 E5.1036
G1 X62.642 Y72.188 E5.12919
G1 X62.923 Y71.592 E5.15478
G1 X63.273 Y71.035 E5.18033
G1 X63.723 Y70.487 E5.20787
G1 X64.36 Y69.807 E5.24405
G1 X65.079 Y69.083 E5.28368
G0 F7200 X65.461 Y69.464
G1 F1800 X65.93 Y69.051 E5.30795
G1 X66.691 Y68.568 E5.34295
G1 X67.392 Y68.209 E5.37354
G1 X71.417 Y66.225 E5.5478
G1 X72.192 Y65.861 E5.58106
G1 X74.55 Y64.855 E5.68061
G1 X77.029 Y63.718 E5.78653
G1 X79.433 Y62.533 E5.89062
G1 X81.788 Y61.287 E5.99408
G1 X84.165 Y59.943 E6.10013
G1 X86.449 Y58.563 E6.20376
G1 X87.609 Y57.813 E6.25741
G1 X88.798 Y57.058 E6.3121
G1 X89.346 Y56.757 E6.33638
G1 X89.928 Y56.529 E6.36066
G1 X90.534 Y56.377 E6.38492
G1 X91.155 Y56.303 E6.40921
G1 X91.78 Y56.309 E6.43348
G1 X92.399 Y56.395 E6.45775
G1 X93.002 Y56.559 E6.48202
G1 X93.58 Y56.799 E6.50632
G1 X94.02 Y57.045 E6.5259
G1 X94.391 Y57.278 E6.54291
G1 X94.898 Y57.644 E6.5672
G1 X95.354 Y58.071 E6.59146
G1 X95.752 Y58.553 E6.61573
G1 X96.085 Y59.082 E6.64001
G1 X96.371 Y59.708 E6.66674
G1 X96.517 Y60.099 E6.68295
G1 X96.698 Y60.698 E6.70725
G1 X96.801 Y61.314 E6.7315
G1 X96.825 Y61.73 E6.74768
G1 X96.842 Y62.778 E6.78839
G1 X96.844 Y63.548 E6.81829
G1 X96.926 Y66.225 E6.9223
G1 X97.086 Y68.96 E7.0287
G1 X97.32 Y71.625 E7.13259
G1 X97.389 Y72.234 E7.15639
G1 X97.464 Y73.011 E7.18671
G1 X97.485 Y73.636 E7.21099
G1 X97.425 Y74.258 E7.23526
G1 X97.286 Y74.868 E7.25956
G1 X97.071 Y75.455 E7.28383
G1 X96.886 Y75.829 E7.30004
G1 X96.67 Y76.218 E7.31732
G1 X95.618 Y77.982 E7.39708
G1 X95.218 Y78.63 E7.42665
G1 X95.028 Y78.916 E7.43999
G1 X93.455 Y81.104 E7.54464
G1 X91.951 Y83.325 E7.64881
G1 X90.493 Y85.618 E7.75433
G1 X89.128 Y87.903 E7.8577
G1 X87.819 Y90.242 E7.96179
G1 X86.563 Y92.644 E8.06705
G1 X85.382 Y95.065 E8.17166
G1 X84.286 Y97.484 E8.2748
G1 X82.891 Y100.846 E8.41616
G1 X82.662 Y101.334 E8.43709
G1 X82.354 Y101.878 E8.46137
G1 X81.893 Y102.475 E8.49066
G1 X81.706 Y102.682 E8.50149
G1 X81.258 Y103.118 E8.52577
G1 X80.839 Y103.439 E8.54627
G1 X80.56 Y103.63 E8.5594
G1 X80.023 Y103.949 E8.58366
G1 X79.344 Y104.234 E8.61225
G1 X79.041 Y104.335 E8.62466
G1 X78.437 Y104.494 E8.64891
G1 X77.873 Y104.571 E8.67102
G1 X77.628 Y104.59 E8.68056
G1 X76.794 Y104.584 E8.71295
G1 X76.591 Y104.565 E8.72087
G1 X75.974 Y104.467 E8.74513
G1 X75.467 Y104.324 E8.76559
G1 X75.133 Y104.21 E8.77929
G1 X74.729 Y104.051 E8.79615
G1 X74.019 Y103.736 E8.82632
G1 X71.467 Y102.647 E8.93407
G1 X68.982 Y101.669 E9.03778
G1 X67.724 Y101.193 E9.09002
G1 X67.164 Y100.939 E9.1139
G1 X66.783 Y100.737 E9.13064
G1 X66.134 Y100.325 E9.1605
G1 X65.819 Y100.088 E9.17581
G1 X65.486 Y99.813 E9.19258
G1 X65.304 Y99.649 E9.20209
G1 X65.021 Y99.373 E9.21744
G1 X64.869 Y99.212 E9.22604
G1 X64.627 Y98.935 E9.24033
G1 X64.477 Y98.75 E9.24958
G1 X64.227 Y98.413 E9.26587
G1 X64.082 Y98.199 E9.27591
G1 X63.873 Y97.861 E9.29134
G1 X63.76 Y97.661 E9.30026
G1 X63.573 Y97.295 E9.31623
G1 X63.467 Y97.064 E9.3261
G1 X63.319 Y96.707 E9.3411
G1 X63.219 Y96.434 E9.3524
G1 X63.04 Y95.823 E9.37712
G1 X62.963 Y95.48 E9.39077
G1 X62.891 Y95.084 E9.4064
G1 X62.856 Y94.833 E9.41625
G1 X62.81 Y94.251 E9.43892
G1 X62.786 Y92.953 E9.48933
G1 X62.787 Y74.785 E10.19489
G1 X62.797 Y74.125 E10.22052
G1 X62.846 Y73.502 E10.24479
G1 X62.974 Y72.89 E10.26907
G1 X63.18 Y72.3 E10.29334
G1 X63.459 Y71.74 E10.31764
G1 X63.807 Y71.221 E10.34191
G1 X64.117 Y70.856 E10.3605
G1 X64.862 Y70.064 E10.40273
G1 X65.461 Y69.464 E10.43566
G0 F7200 X65.844 Y69.846
G1 F1800 X66.287 Y69.458 E10.45853
G1 X66.938 Y69.048 E10.4884
G1 X67.631 Y68.693 E10.51864
G1 X71.65 Y66.713 E10.69263
G1 X72.403 Y66.358 E10.72496
G1 X74.774 Y65.347 E10.82506
G1 X77.251 Y64.21 E10.93091
G1 X79.668 Y63.019 E11.03555
G1 X82.066 Y61.75 E11.14091
G1 X84.443 Y60.406 E11.24695
G1 X86.715 Y59.034 E11.35003
G1 X87.898 Y58.269 E11.40474
G1 X89.087 Y57.514 E11.45944
G1 X89.605 Y57.232 E11.48234
G1 X90.156 Y57.023 E11.50523
G1 X90.731 Y56.891 E11.52814
G1 X91.318 Y56.837 E11.55103
G1 X91.907 Y56.863 E11.57393
G1 X92.487 Y56.969 E11.59682
G1 X93.048 Y57.152 E11.61974
G1 X93.733 Y57.502 E11.64961
G1 X94.104 Y57.735 E11.66663
G1 X94.58 Y58.082 E11.6895
G1 X95.006 Y58.49 E11.71241
G1 X95.373 Y58.952 E11.73532
G1 X95.673 Y59.459 E11.7582
G1 X95.865 Y59.897 E11.77677
G1 X96.011 Y60.288 E11.79298
G1 X96.18 Y60.853 E11.81588
G1 X96.27 Y61.436 E11.83879
G1 X96.285 Y61.739 E11.85057
G1 X96.302 Y62.78 E11.89101
G1 X96.304 Y63.565 E11.92149
G1 X96.387 Y66.257 E12.02609
G1 X96.548 Y69.003 E12.13291
G1 X96.781 Y71.656 E12.23634
G1 X96.852 Y72.286 E12.26096
G1 X96.927 Y73.063 E12.29127
G1 X96.944 Y73.652 E12.31416
G1 X96.881 Y74.239 E12.33708
G1 X96.739 Y74.811 E12.35997
G1 X96.413 Y75.57 E12.39205
G1 X96.206 Y75.941 E12.40855
G1 X95.12 Y77.761 E12.49086
G1 X94.759 Y78.346 E12.51755
G1 X94.589 Y78.601 E12.52945
G1 X93.019 Y80.786 E12.63394
G1 X91.498 Y83.032 E12.73928
G1 X90.049 Y85.308 E12.84406
G1 X88.654 Y87.645 E12.94976
G1 X87.33 Y90.011 E13.05505
G1 X86.096 Y92.37 E13.15844
G1 X84.888 Y94.847 E13.26547
G1 X83.783 Y97.285 E13.36942
G1 X82.784 Y99.71 E13.47127
G1 X82.394 Y100.637 E13.51033
G1 X82.177 Y101.098 E13.53011
G1 X81.884 Y101.61 E13.55302
G1 X81.492 Y102.113 E13.57779
G1 X81.305 Y102.32 E13.58862
G1 X80.881 Y102.73 E13.61153
G1 X80.534 Y102.993 E13.62844
G1 X80.255 Y103.184 E13.64157
G1 X79.747 Y103.484 E13.66448
G1 X79.174 Y103.722 E13.68857
G1 X78.871 Y103.823 E13.70098
G1 X78.3 Y103.971 E13.72389
G1 X77.831 Y104.033 E13.74226
G1 X77.586 Y104.052 E13.7518
G1 X76.845 Y104.046 E13.78058
G1 X76.642 Y104.027 E13.7885
G1 X76.06 Y103.932 E13.8114
G1 X75.642 Y103.813 E13.82828
G1 X75.308 Y103.699 E13.84198
G1 X74.948 Y103.558 E13.857
G1 X74.187 Y103.22 E13.88933
G1 X71.694 Y102.156 E13.9946
G1 X69.12 Y101.143 E14.10202
G1 X67.916 Y100.687 E14.15202
G1 X67.417 Y100.462 E14.17328
G1 X67.036 Y100.26 E14.19002
G1 X66.459 Y99.893 E14.21658
G1 X66.144 Y99.656 E14.23189
G1 X65.847 Y99.412 E14.24682
G1 X65.665 Y99.248 E14.25633
G1 X65.414 Y99.002 E14.26998
G1 X65.046 Y98.595 E14.29129
G1 X64.896 Y98.41 E14.30054
G1 X64.674 Y98.11 E14.31503
G1 X64.529 Y97.896 E14.32507
G1 X64.343 Y97.596 E14.33878
G1 X64.23 Y97.396 E14.3477
G1 X64.063 Y97.07 E14.36192
G1 X63.957 Y96.839 E14.37179
G1 X63.826 Y96.521 E14.38515
G1 X63.726 Y96.248 E14.39644
G1 X63.567 Y95.705 E14.41841
G1 X63.49 Y95.362 E14.43207
G1 X63.426 Y95.01 E14.44596
G1 X63.391 Y94.759 E14.4558
G1 X63.35 Y94.241 E14.47598
G1 X63.326 Y92.953 E14.52601
G1 X63.326 Y74.793 E15.23125
G1 X63.336 Y74.133 E15.25689
G1 X63.385 Y73.546 E15.27976
G1 X63.513 Y72.97 E15.30268
G1 X63.718 Y72.417 E15.32558
G1 X63.995 Y71.897 E15.34846
G1 X64.511 Y71.225 E15.38137
G1 X65.148 Y70.545 E15.41755
G1 X65.844 Y69.846 E15.45586
G0 F7200 X66.226 Y70.227
G1 F1800 X66.643 Y69.866 E15.47728
G1 X67.184 Y69.529 E15.50203
G1 X67.869 Y69.178 E15.53192
G1 X71.882 Y67.2 E15.70567
G1 X72.615 Y66.854 E15.73715
G1 X75.016 Y65.83 E15.83852
G1 X77.503 Y64.689 E15.94478
G1 X79.891 Y63.512 E16.04817
G1 X82.328 Y62.222 E16.15525
G1 X84.705 Y60.878 E16.2613
G1 X87.019 Y59.481 E16.36627
G1 X88.188 Y58.725 E16.42033
G1 X89.377 Y57.97 E16.47503
G1 X89.863 Y57.708 E16.49647
G1 X90.381 Y57.52 E16.51787
G1 X90.922 Y57.409 E16.53932
G1 X91.472 Y57.376 E16.56072
G1 X92.022 Y57.424 E16.58216
G1 X92.559 Y57.551 E16.60359
G1 X93.072 Y57.753 E16.625
G1 X93.445 Y57.96 E16.64157
G1 X93.816 Y58.193 E16.65858
G1 X94.261 Y58.519 E16.68
G1 X94.654 Y58.906 E16.70142
G1 X94.987 Y59.346 E16.72285
G1 X95.253 Y59.83 E16.7443
G1 X95.359 Y60.086 E16.75506
G1 X95.505 Y60.477 E16.77127
G1 X95.66 Y61.007 E16.79271
G1 X95.745 Y61.748 E16.82168
G1 X95.762 Y62.781 E16.8618
G1 X95.764 Y63.583 E16.89295
G1 X95.848 Y66.305 E16.9987
G1 X96.007 Y69.011 E17.10397
G1 X96.245 Y71.726 E17.20981
G1 X96.314 Y72.338 E17.23373
G1 X96.389 Y73.115 E17.26405
G1 X96.402 Y73.667 E17.28549
G1 X96.336 Y74.214 E17.30689
G1 X96.191 Y74.746 E17.3283
G1 X95.939 Y75.31 E17.35229
G1 X95.742 Y75.664 E17.36802
G1 X94.66 Y77.478 E17.45005
G1 X94.299 Y78.063 E17.47675
G1 X94.151 Y78.286 E17.48714
G1 X92.565 Y80.492 E17.59265
G1 X91.05 Y82.73 E17.69761
G1 X89.574 Y85.05 E17.80439
G1 X88.194 Y87.361 E17.90892
G1 X86.864 Y89.738 E18.0147
G1 X85.593 Y92.167 E18.12117
G1 X84.406 Y94.6 E18.2263
G1 X83.296 Y97.052 E18.33082
G1 X82.286 Y99.5 E18.43367
G1 X81.896 Y100.427 E18.47272
G1 X81.691 Y100.862 E18.4914
G1 X81.415 Y101.339 E18.5128
G1 X81.091 Y101.751 E18.53315
G1 X80.904 Y101.958 E18.54399
G1 X80.506 Y102.34 E18.56541
G1 X80.229 Y102.548 E18.57886
G1 X79.95 Y102.739 E18.59199
G1 X79.474 Y103.017 E18.6134
G1 X79.003 Y103.209 E18.63315
G1 X78.7 Y103.31 E18.64556
G1 X78.165 Y103.447 E18.667
G1 X77.79 Y103.495 E18.68169
G1 X77.545 Y103.514 E18.69123
G1 X76.895 Y103.508 E18.71647
G1 X76.692 Y103.489 E18.72439
G1 X76.148 Y103.398 E18.74581
G1 X75.816 Y103.302 E18.75923
G1 X75.482 Y103.188 E18.77294
G1 X75.167 Y103.064 E18.78609
G1 X74.406 Y102.726 E18.81842
G1 X71.903 Y101.658 E18.92411
G1 X69.317 Y100.64 E19.03203
G1 X68.107 Y100.182 E19.08228
G1 X67.67 Y99.985 E19.10089
G1 X67.289 Y99.783 E19.11764
G1 X66.783 Y99.462 E19.14091
G1 X66.468 Y99.225 E19.15622
G1 X66.209 Y99.01 E19.16929
G1 X66.027 Y98.846 E19.17881
G1 X65.807 Y98.632 E19.19073
G1 X65.466 Y98.255 E19.21047
G1 X65.316 Y98.07 E19.21972
G1 X65.121 Y97.807 E19.23243
G1 X64.976 Y97.593 E19.24247
G1 X64.813 Y97.33 E19.25449
G1 X64.7 Y97.13 E19.26341
G1 X64.554 Y96.845 E19.27584
G1 X64.448 Y96.614 E19.28571
G1 X64.333 Y96.335 E19.29743
G1 X64.233 Y96.062 E19.30872
G1 X64.094 Y95.587 E19.32794
G1 X64.017 Y95.244 E19.3416
G1 X63.961 Y94.935 E19.35379
G1 X63.926 Y94.684 E19.36363
G1 X63.89 Y94.231 E19.38128
G1 X63.866 Y92.953 E19.43092
G1 X63.866 Y74.801 E20.13585
G1 X63.876 Y74.141 E20.16149
G1 X63.925 Y73.592 E20.18289
G1 X64.052 Y73.055 E20.20432
G1 X64.255 Y72.542 E20.22575
G1 X64.531 Y72.064 E20.24718
G1 X64.905 Y71.594 E20.27051
G1 X65.542 Y70.914 E20.3067
G1 X66.226 Y70.227 E20.34434
G0 F7200 X66.608 Y70.609
G1 F1800 X66.996 Y70.276 E20.3642
G1 X67.43 Y70.009 E20.38399
G1 X68.108 Y69.662 E20.41357
G1 X72.114 Y67.688 E20.587
G1 X72.827 Y67.351 E20.61763
G1 X75.241 Y66.321 E20.71955
G1 X77.697 Y65.195 E20.82448
G1 X80.168 Y63.977 E20.93146
G1 X82.578 Y62.701 E21.03737
G1 X84.967 Y61.35 E21.14395
G1 X87.314 Y59.933 E21.25042
G1 X88.477 Y59.181 E21.3042
G1 X89.666 Y58.426 E21.3589
G1 X90.118 Y58.186 E21.37878
G1 X90.601 Y58.02 E21.39861
G1 X91.104 Y57.931 E21.41845
G1 X91.615 Y57.922 E21.4383
G1 X92.121 Y57.992 E21.45813
G1 X92.611 Y58.141 E21.47802
G1 X93.158 Y58.417 E21.50182
G1 X93.529 Y58.65 E21.51883
G1 X93.939 Y58.955 E21.53868
G1 X94.297 Y59.32 E21.55853
G1 X94.594 Y59.736 E21.57838
G1 X94.853 Y60.275 E21.6016
G1 X94.999 Y60.666 E21.61781
G1 X95.14 Y61.157 E21.63765
G1 X95.206 Y61.757 E21.66109
G1 X95.222 Y62.782 E21.7009
G1 X95.224 Y63.601 E21.73271
G1 X95.307 Y66.312 E21.83804
G1 X95.465 Y69.005 E21.9428
G1 X95.71 Y71.796 E22.05161
G1 X95.777 Y72.39 E22.07482
G1 X95.852 Y73.167 E22.10514
G1 X95.861 Y73.678 E22.12499
G1 X95.791 Y74.184 E22.14482
G1 X95.642 Y74.673 E22.16468
G1 X95.465 Y75.051 E22.18088
G1 X95.278 Y75.388 E22.19585
G1 X94.201 Y77.194 E22.27751
G1 X93.84 Y77.779 E22.30421
G1 X93.712 Y77.97 E22.31314
G1 X92.14 Y80.157 E22.41773
G1 X90.591 Y82.445 E22.52504
G1 X89.124 Y84.751 E22.63118
G1 X87.734 Y87.078 E22.73644
G1 X86.375 Y89.508 E22.84456
G1 X85.127 Y91.893 E22.9491
G1 X83.92 Y94.367 E23.056
G1 X82.794 Y96.853 E23.16199
G1 X81.788 Y99.291 E23.26441
G1 X81.398 Y100.218 E23.30347
G1 X81.205 Y100.626 E23.321
G1 X80.947 Y101.067 E23.34084
G1 X80.69 Y101.389 E23.35684
G1 X80.503 Y101.596 E23.36767
G1 X80.132 Y101.947 E23.3875
G1 X79.924 Y102.102 E23.39758
G1 X79.645 Y102.293 E23.41071
G1 X79.202 Y102.548 E23.43056
G1 X78.832 Y102.697 E23.44605
G1 X78.529 Y102.798 E23.45845
G1 X78.033 Y102.921 E23.4783
G1 X77.748 Y102.956 E23.48945
G1 X77.503 Y102.975 E23.49899
G1 X76.945 Y102.971 E23.52066
G1 X76.742 Y102.952 E23.52858
G1 X76.239 Y102.865 E23.54841
G1 X75.991 Y102.791 E23.55846
G1 X75.657 Y102.677 E23.57216
G1 X75.386 Y102.571 E23.58346
G1 X74.654 Y102.246 E23.61457
G1 X72.088 Y101.151 E23.72291
G1 X69.515 Y100.138 E23.8303
G1 X68.298 Y99.677 E23.88084
G1 X67.923 Y99.508 E23.89681
G1 X67.542 Y99.306 E23.91356
G1 X67.108 Y99.03 E23.93353
G1 X66.793 Y98.793 E23.94884
G1 X66.57 Y98.609 E23.96007
G1 X66.199 Y98.261 E23.97982
G1 X66.047 Y98.1 E23.98842
G1 X65.735 Y97.729 E24.00725
