;FLAVOR:Marlin
;TIME:752
;Filament used: 0.566418m
;Layer height: 0.2
;MINX:65.22
;MINY:51.775
;MINZ:0.2
;MAXX:94.01
;MAXY:92.326
;MAXZ:7.4
;Generated with Cura_SteamEngine 5.2.1
M82 ;absolute extrusion mode


; Pre-Processed for Cancel-Object support by preprocess_cancellation v0.2.0
; 2 known objects
EXCLUDE_OBJECT_DEFINE NAME=o__stealthburner_LED_carrier_beta2_stl_1 CENTER=83.710,62.544 POLYGON=[[70.59,57.095],[70.59,71.105],[89.478,71.105],[89.478,57.095]]
EXCLUDE_OBJECT_DEFINE NAME=o__stealthburner_LED_carrier_beta2_stl CENTER=83.667,78.440 POLYGON=[[70.548,72.995],[70.548,87.005],[89.436,87.005],[89.436,72.995]]
PRINT_START BED=110 EXTRUDER=245 STANDBY=200 CHAMBER=36
G92 E0
G92 E0
G1 F7200 E-0.4
;LAYER_COUNT:35
;LAYER:0
M107
G1 F600 Z0.6
G0 F7200 X66.496 Y55.102 Z0.6
;TYPE:SKIRT
G1 F600 Z0.2
G1 F2880 E0
G1 F1200 X66.723 Y54.843 E0.01337
G1 X67.064 Y54.482 E0.03266
G1 X67.7 Y53.846 E0.06759
G1 X68.242 Y53.32 E0.09692
G1 X68.742 Y52.89 E0.12253
G1 X69.29 Y52.524 E0.14812
G1 X69.878 Y52.228 E0.17369
G1 X70.497 Y52.004 E0.19925
G1 X71.14 Y51.858 E0.22486
G1 X71.928 Y51.786 E0.25559
G1 X72.583 Y51.775 E0.28103
G1 X87.154 Y51.775 E0.84689
G1 X87.933 Y51.786 E0.87715
G1 X88.59 Y51.835 E0.90274
G1 X89.236 Y51.963 E0.92831
G1 X89.862 Y52.169 E0.9539
G1 X90.459 Y52.449 E0.97951
G1 X91.016 Y52.8 E1.00508
G1 X91.586 Y53.269 E1.03375
G1 X92.029 Y53.695 E1.05761
G1 X92.469 Y54.149 E1.08217
G1 X92.898 Y54.649 E1.10775
G1 X93.263 Y55.197 E1.13332
G1 X93.56 Y55.786 E1.15894
G1 X93.782 Y56.406 E1.18451
G1 X93.928 Y57.048 E1.21008
G1 X93.999 Y57.831 E1.24061
G1 X94.01 Y58.489 E1.26617
G1 X94.01 Y69.128 E1.67934
G1 X93.983 Y71.067 E1.75465
G1 X93.967 Y71.65 E1.77729
G1 X93.969 Y84.951 E2.29384
G1 X93.958 Y85.735 E2.32429
G1 X93.909 Y86.392 E2.34987
G1 X93.781 Y87.038 E2.37545
G1 X93.575 Y87.664 E2.40104
G1 X93.295 Y88.26 E2.42662
G1 X92.945 Y88.818 E2.4522
G1 X92.53 Y89.33 E2.47779
G1 X92.065 Y89.779 E2.50289
G1 X91.769 Y90.03 E2.51797
G1 X90.954 Y90.685 E2.55857
G1 X90.337 Y91.166 E2.58895
G1 X89.794 Y91.539 E2.61454
G1 X89.21 Y91.844 E2.64012
G1 X88.593 Y92.076 E2.66572
G1 X87.953 Y92.231 E2.69129
G1 X87.086 Y92.315 E2.72512
G1 X86.39 Y92.326 E2.75215
G1 X71.284 Y92.324 E3.3388
G1 X70.59 Y92.314 E3.36575
G1 X69.933 Y92.265 E3.39134
G1 X69.287 Y92.136 E3.41692
G1 X68.661 Y91.93 E3.44251
G1 X68.065 Y91.65 E3.46809
G1 X67.507 Y91.3 E3.49367
G1 X66.995 Y90.885 E3.51926
G1 X66.538 Y90.41 E3.54486
G1 X66.142 Y89.884 E3.57043
G1 X65.812 Y89.314 E3.59601
G1 X65.553 Y88.708 E3.6216
G1 X65.37 Y88.075 E3.64719
G1 X65.265 Y87.425 E3.67276
G1 X65.24 Y87.044 E3.68759
G1 X65.228 Y86.548 E3.70685
G1 X65.228 Y85.041 E3.76538
G1 X65.242 Y84.205 E3.79785
G1 X65.264 Y83.696 E3.81763
G1 X65.34 Y80.97 E3.92354
G1 X65.338 Y78.307 E4.02696
G1 X65.259 Y75.547 E4.13419
G1 X65.223 Y74.648 E4.16913
G1 X65.22 Y74.319 E4.1819
G1 X65.249 Y72.932 E4.23578
G1 X65.27 Y70.862 E4.31617
G1 X65.27 Y69.139 E4.38309
G1 X65.284 Y68.315 E4.41509
G1 X65.305 Y67.806 E4.43487
G1 X65.382 Y65.07 E4.54117
G1 X65.38 Y62.407 E4.64459
G1 X65.303 Y59.711 E4.74933
G1 X65.265 Y58.769 E4.78594
G1 X65.279 Y58.11 E4.81154
G1 X65.372 Y57.458 E4.83712
G1 X65.543 Y56.822 E4.86269
G1 X65.79 Y56.211 E4.88829
G1 X66.11 Y55.635 E4.91387
G1 X66.496 Y55.102 E4.93943
G0 F7200 X67.118 Y55.212
G1 F1200 X67.446 Y54.864 E4.958
G1 X68.133 Y54.178 E4.99571
G1 X68.618 Y53.707 E5.02196
G1 X69.094 Y53.301 E5.04626
G1 X69.617 Y52.959 E5.07053
G1 X70.18 Y52.687 E5.09481
G1 X70.772 Y52.488 E5.11906
G1 X71.386 Y52.367 E5.14337
G1 X71.937 Y52.326 E5.16482
G1 X72.583 Y52.315 E5.18991
G1 X87.224 Y52.315 E5.7585
G1 X87.926 Y52.325 E5.78576
G1 X88.549 Y52.374 E5.81003
G1 X89.161 Y52.502 E5.83431
G1 X89.751 Y52.707 E5.85857
G1 X90.311 Y52.986 E5.88287
G1 X90.83 Y53.334 E5.90713
G1 X91.215 Y53.661 E5.92675
G1 X91.489 Y53.92 E5.94139
G1 X92.081 Y54.525 E5.97426
G1 X92.487 Y55.001 E5.99856
G1 X92.828 Y55.524 E6.02281
G1 X93.1 Y56.087 E6.04709
G1 X93.298 Y56.68 E6.07137
G1 X93.419 Y57.294 E6.09567
G1 X93.459 Y57.841 E6.11697
G1 X93.47 Y58.49 E6.14218
G1 X93.471 Y69.12 E6.55499
G1 X93.445 Y70.986 E6.62747
G1 X93.427 Y71.635 E6.65268
G1 X93.429 Y85.021 E7.17253
G1 X93.419 Y85.727 E7.19995
G1 X93.37 Y86.35 E7.22422
G1 X93.242 Y86.962 E7.2485
G1 X93.037 Y87.553 E7.27279
G1 X92.758 Y88.113 E7.29709
G1 X92.411 Y88.632 E7.32133
G1 X91.999 Y89.103 E7.34564
G1 X91.713 Y89.369 E7.3608
G1 X91.43 Y89.609 E7.37521
G1 X90.561 Y90.307 E7.4185
G1 X90.005 Y90.741 E7.44589
G1 X89.489 Y91.093 E7.47015
G1 X88.931 Y91.377 E7.49446
G1 X88.343 Y91.587 E7.51871
G1 X87.732 Y91.72 E7.543
G1 X87.077 Y91.775 E7.56852
G1 X86.39 Y91.786 E7.5952
G1 X71.292 Y91.784 E8.18154
G1 X70.598 Y91.774 E8.20849
G1 X69.974 Y91.726 E8.2328
G1 X69.362 Y91.597 E8.25708
G1 X68.772 Y91.392 E8.28134
G1 X68.212 Y91.114 E8.30562
G1 X67.693 Y90.766 E8.32989
G1 X67.222 Y90.355 E8.35416
G1 X66.808 Y89.887 E8.37843
G1 X66.456 Y89.37 E8.40272
G1 X66.174 Y88.812 E8.427
G1 X65.965 Y88.223 E8.45127
G1 X65.832 Y87.612 E8.47555
G1 X65.78 Y87.028 E8.49832
G1 X65.768 Y86.547 E8.51701
G1 X65.768 Y85.048 E8.57522
G1 X65.781 Y84.228 E8.60707
G1 X65.805 Y83.667 E8.62888
G1 X65.88 Y80.984 E8.73311
G1 X65.878 Y78.292 E8.83766
G1 X65.799 Y75.532 E8.94489
G1 X65.763 Y74.627 E8.98006
G1 X65.76 Y74.331 E8.99155
G1 X65.789 Y72.944 E9.04543
G1 X65.81 Y70.867 E9.12609
G1 X65.81 Y69.147 E9.19289
G1 X65.823 Y68.338 E9.22431
G1 X65.847 Y67.77 E9.24639
G1 X65.922 Y65.084 E9.35074
G1 X65.92 Y62.392 E9.45529
G1 X65.841 Y59.632 E9.56251
G1 X65.805 Y58.747 E9.59691
G1 X65.82 Y58.122 E9.62119
G1 X65.914 Y57.504 E9.64547
G1 X66.087 Y56.903 E9.66975
G1 X66.334 Y56.329 E9.69402
G1 X66.653 Y55.792 E9.71828
G1 X67.118 Y55.212 E9.74715
G0 F7200 X67.512 Y55.58
G1 F1200 X67.828 Y55.246 E9.765
G1 X68.509 Y54.565 E9.80241
G1 X68.994 Y54.094 E9.82866
G1 X69.444 Y53.713 E9.85156
G1 X69.941 Y53.396 E9.87445
G1 X70.477 Y53.15 E9.89736
G1 X71.041 Y52.978 E9.92025
G1 X71.623 Y52.884 E9.94315
G1 X71.947 Y52.866 E9.95575
G1 X72.583 Y52.855 E9.98045
G1 X87.216 Y52.855 E10.54873
G1 X87.918 Y52.865 E10.57599
G1 X88.506 Y52.914 E10.59891
G1 X89.081 Y53.041 E10.62177
G1 X89.634 Y53.245 E10.64466
G1 X90.155 Y53.522 E10.66758
G1 X90.844 Y54.054 E10.70138
G1 X91.254 Y54.447 E10.72344
G1 X91.694 Y54.901 E10.74799
G1 X92.074 Y55.351 E10.77087
G1 X92.391 Y55.848 E10.79376
G1 X92.637 Y56.384 E10.81666
G1 X92.808 Y56.948 E10.83955
G1 X92.902 Y57.53 E10.86244
G1 X92.919 Y57.851 E10.87493
G1 X92.93 Y58.49 E10.89975
G1 X92.931 Y69.113 E11.31229
G1 X92.905 Y70.979 E11.38477
G1 X92.887 Y71.62 E11.40967
G1 X92.889 Y85.014 E11.92982
G1 X92.879 Y85.72 E11.95725
G1 X92.83 Y86.307 E11.98012
G1 X92.703 Y86.883 E12.00303
G1 X92.499 Y87.436 E12.02592
G1 X92.222 Y87.957 E12.04883
G1 X91.877 Y88.435 E12.07173
G1 X91.362 Y88.959 E12.10026
G1 X91.092 Y89.188 E12.11401
G1 X90.229 Y89.881 E12.15699
G1 X89.673 Y90.315 E12.18438
G1 X89.184 Y90.645 E12.20729
G1 X88.656 Y90.907 E12.23018
G1 X88.097 Y91.094 E12.25307
G1 X87.518 Y91.205 E12.27597
G1 X87.068 Y91.235 E12.29348
G1 X86.39 Y91.246 E12.31982
G1 X71.299 Y91.245 E12.90588
G1 X70.605 Y91.235 E12.93283
G1 X70.018 Y91.186 E12.95571
G1 X69.442 Y91.059 E12.97861
G1 X68.889 Y90.855 E13.0015
G1 X68.369 Y90.578 E13.02438
G1 X67.89 Y90.233 E13.04731
G1 X67.463 Y89.826 E13.07022
G1 X67.095 Y89.366 E13.09309
G1 X66.792 Y88.86 E13.116
G1 X66.561 Y88.318 E13.13888
G1 X66.405 Y87.749 E13.16179
G1 X66.32 Y87.013 E13.19056
G1 X66.308 Y86.547 E13.20867
G1 X66.307 Y85.056 E13.26657
G1 X66.317 Y84.373 E13.2931
G1 X66.345 Y83.69 E13.31964
G1 X66.42 Y81 E13.42415
G1 X66.418 Y78.276 E13.52994
G1 X66.34 Y75.564 E13.6353
G1 X66.302 Y74.605 E13.67257
G1 X66.3 Y74.342 E13.68279
G1 X66.328 Y73.001 E13.73488
G1 X66.35 Y70.873 E13.81752
G1 X66.349 Y69.155 E13.88424
G1 X66.359 Y68.48 E13.91046
G1 X66.387 Y67.792 E13.9372
G1 X66.462 Y65.1 E14.04178
G1 X66.46 Y62.376 E14.14757
G1 X66.381 Y59.617 E14.25476
G1 X66.345 Y58.725 E14.28943
G1 X66.361 Y58.136 E14.31231
G1 X66.457 Y57.554 E14.33522
G1 X66.63 Y56.991 E14.35809
G1 X66.878 Y56.456 E14.38099
G1 X67.196 Y55.96 E14.40387
G1 X67.512 Y55.58 E14.42306
G0 F7200 X67.907 Y55.949
G1 F1200 X68.21 Y55.628 E14.44021
G1 X68.886 Y54.953 E14.47731
G1 X69.371 Y54.482 E14.50356
G1 X69.793 Y54.127 E14.52498
G1 X70.263 Y53.837 E14.54642
G1 X70.769 Y53.618 E14.56784
G1 X71.302 Y53.474 E14.58928
G1 X71.957 Y53.406 E14.61485
G1 X72.583 Y53.395 E14.63917
G1 X87.208 Y53.395 E15.20713
G1 X87.91 Y53.405 E15.23439
G1 X88.46 Y53.453 E15.25583
G1 X88.997 Y53.58 E15.27726
G1 X89.51 Y53.783 E15.29869
G1 X89.988 Y54.058 E15.32011
G1 X90.473 Y54.446 E15.34423
G1 X90.866 Y54.822 E15.36535
G1 X91.306 Y55.276 E15.3899
G1 X91.66 Y55.699 E15.41132
G1 X91.95 Y56.169 E15.43277
G1 X92.168 Y56.676 E15.4542
G1 X92.311 Y57.208 E15.47559
G1 X92.379 Y57.86 E15.50105
G1 X92.39 Y58.49 E15.52552
G1 X92.391 Y69.105 E15.93776
G1 X92.364 Y71.023 E16.01225
G1 X92.347 Y71.642 E16.0363
G1 X92.349 Y85.006 E16.55529
G1 X92.339 Y85.712 E16.58271
G1 X92.291 Y86.262 E16.60415
G1 X92.164 Y86.799 E16.62558
G1 X91.961 Y87.312 E16.647
G1 X91.687 Y87.79 E16.6684
G1 X91.346 Y88.224 E16.68984
G1 X91.01 Y88.55 E16.70802
G1 X90.754 Y88.767 E16.72105
G1 X89.939 Y89.422 E16.76165
G1 X89.34 Y89.889 E16.79115
G1 X88.882 Y90.196 E16.81256
G1 X88.384 Y90.434 E16.834
G1 X87.857 Y90.597 E16.85542
G1 X87.059 Y90.695 E16.88664
G1 X86.39 Y90.706 E16.91263
G1 X71.307 Y90.705 E17.49838
G1 X70.613 Y90.695 E17.52533
G1 X70.063 Y90.647 E17.54677
G1 X69.526 Y90.52 E17.5682
G1 X69.013 Y90.317 E17.58963
G1 X68.535 Y90.042 E17.61104
G1 X68.102 Y89.701 E17.63245
G1 X67.722 Y89.301 E17.65387
G1 X67.404 Y88.85 E17.6753
G1 X67.154 Y88.358 E17.69674
G1 X66.978 Y87.835 E17.71817
G1 X66.88 Y87.292 E17.73959
G1 X66.86 Y86.997 E17.75108
G1 X66.848 Y86.547 E17.76856
G1 X66.847 Y85.064 E17.82615
G1 X66.86 Y84.274 E17.85684
G1 X66.884 Y83.713 E17.87864
G1 X66.96 Y80.98 E17.98482
G1 X66.958 Y78.26 E18.09045
G1 X66.88 Y75.543 E18.19601
G1 X66.842 Y74.584 E18.23328
G1 X66.84 Y74.353 E18.24225
G1 X66.868 Y73.007 E18.29453
G1 X66.89 Y70.879 E18.37718
G1 X66.889 Y69.163 E18.44382
G1 X66.902 Y68.383 E18.47412
G1 X66.926 Y67.815 E18.49619
G1 X67.002 Y65.08 E18.60245
G1 X67 Y62.36 E18.70808
G1 X66.922 Y59.646 E18.81352
G1 X66.884 Y58.704 E18.85014
G1 X66.902 Y58.152 E18.87158
G1 X66.999 Y57.609 E18.893
G1 X67.174 Y57.086 E18.91442
G1 X67.422 Y56.593 E18.93585
G1 X67.907 Y55.949 E18.96716
G0 F7200 X68.301 Y56.318
G1 F1200 X68.514 Y56.09 E18.97928
G1 X69.262 Y55.34 E19.02042
G1 X69.747 Y54.869 E19.04667
G1 X70.14 Y54.543 E19.0665
G1 X70.58 Y54.282 E19.08637
G1 X71.054 Y54.092 E19.1062
G1 X71.553 Y53.979 E19.12607
G1 X71.966 Y53.946 E19.14216
G1 X72.583 Y53.935 E19.16612
G1 X87.201 Y53.935 E19.73381
G1 X87.903 Y53.945 E19.76108
G1 X88.411 Y53.993 E19.7809
G1 X88.907 Y54.118 E19.80076
G1 X89.376 Y54.32 E19.82059
G1 X89.809 Y54.592 E19.84045
G1 X90.102 Y54.839 E19.85533
G1 X90.478 Y55.198 E19.87552
G1 X90.918 Y55.652 E19.90007
G1 X91.244 Y56.046 E19.91993
G1 X91.505 Y56.486 E19.9398
G1 X91.694 Y56.96 E19.95962
G1 X91.806 Y57.459 E19.97948
G1 X91.839 Y57.87 E19.99549
G1 X91.85 Y58.49 E20.01957
G1 X91.851 Y69.098 E20.43153
G1 X91.824 Y71.008 E20.50572
G1 X91.807 Y71.627 E20.52976
G1 X91.809 Y84.998 E21.04903
G1 X91.799 Y85.704 E21.07645
G1 X91.752 Y86.213 E21.0963
G1 X91.626 Y86.709 E21.11617
G1 X91.424 Y87.178 E21.136
G1 X91.152 Y87.611 E21.15586
G1 X90.658 Y88.14 E21.18397
G1 X90.415 Y88.346 E21.19634
G1 X89.564 Y89.03 E21.23874
G1 X89.008 Y89.464 E21.26613
G1 X88.582 Y89.746 E21.28597
G1 X88.117 Y89.958 E21.30582
G1 X87.625 Y90.095 E21.32565
G1 X87.05 Y90.156 E21.34811
G1 X86.39 Y90.166 E21.37374
G1 X71.315 Y90.165 E21.95918
G1 X70.621 Y90.155 E21.98614
G1 X70.112 Y90.107 E22.00599
G1 X69.617 Y89.981 E22.02583
G1 X69.147 Y89.78 E22.04568
G1 X68.715 Y89.507 E22.06553
G1 X68.33 Y89.171 E22.08537
G1 X68.002 Y88.779 E22.10522
G1 X67.74 Y88.34 E22.12507
G1 X67.549 Y87.866 E22.14492
G1 X67.434 Y87.368 E22.16477
G1 X67.399 Y86.981 E22.17986
G1 X67.389 Y86.64 E22.19311
G1 X67.387 Y85.072 E22.254
G1 X67.397 Y84.389 E22.28053
G1 X67.422 Y83.779 E22.30424
G1 X67.5 Y80.994 E22.41244
G1 X67.498 Y78.281 E22.51779
G1 X67.419 Y75.486 E22.62638
G1 X67.38 Y74.365 E22.66994
G1 X67.408 Y73.012 E22.7225
G1 X67.43 Y70.884 E22.80514
G1 X67.429 Y69.171 E22.87167
G1 X67.439 Y68.496 E22.89788
G1 X67.464 Y67.885 E22.92163
G1 X67.542 Y65.094 E23.03006
G1 X67.54 Y62.381 E23.13542
G1 X67.46 Y59.586 E23.24401
G1 X67.424 Y58.682 E23.27915
G1 X67.443 Y58.171 E23.299
G1 X67.542 Y57.67 E23.31884
G1 X67.717 Y57.19 E23.33868
G1 X67.966 Y56.743 E23.35855
G1 X68.301 Y56.318 E23.37956
G1 F7200 E22.97956
G1 F600 Z0.6
;MESH:[o]_stealthburner_LED_carrier-beta2.stl(1)
EXCLUDE_OBJECT_START NAME=o__stealthburner_LED_carrier_beta2_stl_1
G0 F7200 X71.793 Y58.495 Z0.6
;TYPE:WALL-INNER
G1 F600 Z0.2
G1 F2880 E23.37956
G1 F1066.7 X74.495 Y58.495 E23.4845
G1 X74.684 Y58.168 E23.49916
G1 X74.991 Y57.955 E23.51367
G1 X72.333 Y57.955 E23.6169
G1 X71.793 Y58.495 E23.64656
G1 F7200 E23.24656
G0 X72.005 Y58.407
G0 X75.082 Y58.111
G0 X83.089 Y58.111
G0 X84.974 Y58.885
G1 F2880 E23.64656
G1 F1200 X86.901 Y62.221 E23.77955
G1 X86.901 Y58.884 E23.89474
G1 X84.974 Y58.885 E23.96126
G1 F7200 E23.56126
G0 X86.689 Y63.545
G0 X84.333 Y69.315
G1 F2880 E23.96126
G1 F1200 X86.449 Y69.316 E24.0343
G1 X86.901 Y68.954 E24.05429
G1 X86.901 Y64.87 E24.19527
G1 X84.333 Y69.315 E24.37248
G0 F7200 X86.92 Y63.544
G1 F1220.3 X86.909 Y63.751 E24.37952
G1 F1205 X86.766 Y64.145 E24.39393
G1 F1200 X83.877 Y69.146 E24.5933
G1 X83.476 Y69.562 E24.61324
G1 F1118.4 X83.05 Y69.762 E24.63067
G1 X83.544 Y69.797 E24.64902
G1 F1200 X86.618 Y69.796 E24.75513
G1 X87.381 Y69.185 E24.78887
G1 F1217.8 X87.388 Y63.544 E24.98076
G1 F1220.3 X87.382 Y63.297 E24.98915
G1 F1202.5 X87.381 Y58.434 E25.15667
G1 F1200 X87.38 Y58.422 E25.15708
G1 X87.363 Y58.405 E25.15791
G1 X84.143 Y58.406 E25.26907
G1 X86.766 Y62.945 E25.45004
G1 F1202.5 X86.908 Y63.338 E25.46443
G1 F1220.3 X86.92 Y63.544 E25.47144
G0 F7200 X83.448 Y69.287
G0 X83.221 Y69.155
G1 F1200 X82.962 Y69.255 E25.48102
G1 X82.837 Y69.265 E25.48535
G1 X71.42 Y69.265 E25.87946
G1 X71.42 Y70.275 E25.91433
G1 X86.786 Y70.276 E26.44476
G1 X87.861 Y69.416 E26.49229
G1 X87.861 Y58.434 E26.87139
G1 X87.86 Y58.223 E26.87867
G1 X87.562 Y57.925 E26.89322
G1 X83.012 Y57.926 E27.05028
G1 X83.461 Y58.184 E27.06816
G1 X86.35 Y63.185 E27.26753
G1 X86.436 Y63.42 E27.27617
G1 X86.447 Y63.544 E27.28047
G1 X86.437 Y63.669 E27.28479
G1 X86.35 Y63.905 E27.29348
G1 X83.461 Y68.906 E27.49285
G1 X83.221 Y69.155 E27.50478
G0 F7200 X83.05 Y69.762
G1 F1066.7 X82.837 Y69.77 E27.51306
G1 F1086.8 X71.925 Y69.77 E27.92898
G1 F7200 E27.52898
G0 X83.32 Y69.379
G0 X86.689 Y63.545
G0 X83.536 Y58.055
G1 F2880 E27.92898
G0 F7200 X82.837 Y58.21
;TYPE:WALL-OUTER
G1 F1001.7 X83.045 Y58.424 E27.94132
G1 F1200 X85.934 Y63.425 E28.14069
G1 X85.963 Y63.503 E28.14357
G1 X85.963 Y63.587 E28.14647
G1 X85.934 Y63.665 E28.14934
G1 X83.045 Y68.666 E28.34871
G1 X82.965 Y68.749 E28.35269
G1 X82.879 Y68.782 E28.35587
G1 X70.94 Y68.785 E28.768
G1 X70.94 Y70.755 E28.83601
G1 X86.954 Y70.756 E29.38881
G1 X88.341 Y69.646 E29.45014
G1 X88.341 Y58.434 E29.83717
G1 X88.34 Y58.025 E29.85129
G1 X87.76 Y57.445 E29.87961
G1 X83.61 Y57.446 E30.02287
G1 F1001.7 X82.837 Y57.54 E30.05507
G1 F857.1 X75.218 Y57.542 E30.42328
G1 F998.3 X74.562 Y57.445 E30.45079
G1 F1200 X72.122 Y57.445 E30.53502
G1 X71.022 Y58.545 E30.58872
G1 X71.482 Y59.005 E30.61118
G1 X74.789 Y59.005 E30.72534
G1 X75.126 Y58.424 E30.74852
G1 F998.3 X75.276 Y58.212 E30.7593
G1 F857.1 X82.837 Y58.21 E31.12471
G0 F7200 X82.976 Y58.353
G0 X83.569 Y58.011
G0 X85.775 Y59.025
G0 X85.775 Y59.346
;TYPE:SKIN
G1 F1333.3 X86.439 Y60.494 E31.17106
G1 X86.439 Y59.589 E31.20269
G1 X86.439 Y59.346 E31.21119
G1 X85.775 Y59.346 E31.23439
G1 F7200 E30.83439
G0 X85.775 Y59.025
G0 X85.355 Y59.106
G0 X86.689 Y63.545
G0 X84.715 Y69.094
G0 X85.339 Y69.175
G1 F2880 E31.23439
G0 F7200 X85.339 Y68.736
G1 F900 X86.245 Y68.737 E31.28131
G1 X86.322 Y68.675 E31.28643
G1 X86.322 Y67.034 E31.3714
G1 X85.339 Y68.736 E31.47317
