;FLAVOR:Marlin
;TIME:3368
;Filament used: 5.00381m
;Layer height: 0.2
;MINX:17.257
;MINY:10.787
;MINZ:0.2
;MAXX:142.777
;MAXY:149.245
;MAXZ:5
;Generated with Cura_SteamEngine 5.2.1
M82 ;absolute extrusion mode


; Pre-Processed for Cancel-Object support by preprocess_cancellation v0.2.0
; 5 known objects
EXCLUDE_OBJECT_DEFINE NAME=fan_intake_grill_x2_stl_1 CENTER=47.220,35.571 POLYGON=[[26.943,15.264],[26.943,55.956],[67.629,55.956],[67.629,15.264]]
EXCLUDE_OBJECT_DEFINE NAME=a_SF_Turbine_Cover_x2_stl CENTER=43.541,80.709 POLYGON=[[21.005,57.704],[21.005,102.297],[65.594,102.297],[65.594,57.704]]
EXCLUDE_OBJECT_DEFINE NAME=outlet_stl CENTER=81.174,79.866 POLYGON=[[67.6,37.15],[67.6,122.852],[92.4,122.852],[92.4,37.15]]
EXCLUDE_OBJECT_DEFINE NAME=a_SF_Turbine_Cover_x2_stl_1 CENTER=116.736,79.187 POLYGON=[[94.439,57.75],[94.439,102.343],[139.028,102.343],[139.028,57.75]]
EXCLUDE_OBJECT_DEFINE NAME=fan_intake_grill_x2_stl CENTER=47.259,124.389 POLYGON=[[26.988,104.074],[26.988,144.761],[67.679,144.761],[67.679,104.074]]
PRINT_START BED=110 EXTRUDER=255 STANDBY=200 CHAMBER=36
G92 E0
G92 E0
G1 F7200 E-0.4
;LAYER_COUNT:25
;LAYER:0
M107
G1 F600 Z0.6
G0 F7200 X27.708 Y20.345 Z0.6
;TYPE:SKIRT
G1 F600 Z0.2
G1 F2880 E0
G1 F1800 X28.092 Y19.864 E0.0239
G1 X28.575 Y19.294 E0.05292
G1 X28.962 Y18.861 E0.07547
G1 X29.705 Y18.083 E0.11725
G1 X30.139 Y17.657 E0.14087
G1 X30.65 Y17.182 E0.16796
G1 X31.198 Y16.702 E0.19625
G1 X31.786 Y16.218 E0.22583
G1 X32.291 Y15.825 E0.25068
G1 X33.079 Y15.251 E0.28854
G1 X33.465 Y14.987 E0.3067
G1 X34.331 Y14.433 E0.34662
G1 X34.755 Y14.18 E0.3658
G1 X35.605 Y13.705 E0.40361
G1 X36.079 Y13.458 E0.42437
G1 X36.818 Y13.099 E0.45627
G1 X37.338 Y12.865 E0.47842
G1 X38.228 Y12.497 E0.51582
G1 X38.754 Y12.297 E0.53767
G1 X39.702 Y11.973 E0.57658
G1 X40.168 Y11.828 E0.59553
G1 X41.016 Y11.591 E0.62973
G1 X41.746 Y11.413 E0.65891
G1 X42.611 Y11.23 E0.69324
G1 X43.208 Y11.122 E0.7168
G1 X43.906 Y11.017 E0.74422
G1 X44.639 Y10.929 E0.77289
G1 X45.564 Y10.847 E0.80895
G1 X46.187 Y10.811 E0.83318
G1 X46.858 Y10.79 E0.85926
G1 X47.481 Y10.787 E0.88345
G1 X48.378 Y10.811 E0.9183
G1 X49.131 Y10.855 E0.94759
G1 X49.867 Y10.921 E0.97629
G1 X50.463 Y10.991 E0.99959
G1 X51.443 Y11.138 E1.03808
G1 X51.97 Y11.233 E1.05887
G1 X52.9 Y11.43 E1.09579
G1 X53.341 Y11.536 E1.1134
G1 X54.348 Y11.814 E1.15397
G1 X54.96 Y12.003 E1.17885
G1 X55.635 Y12.233 E1.20654
G1 X56.292 Y12.48 E1.2338
G1 X57.03 Y12.781 E1.26475
G1 X57.719 Y13.088 E1.29405
G1 X58.481 Y13.455 E1.32689
G1 X58.886 Y13.664 E1.34459
G1 X59.792 Y14.169 E1.38487
G1 X60.222 Y14.426 E1.40433
G1 X61.036 Y14.945 E1.44182
G1 X61.545 Y15.293 E1.46576
G1 X62.154 Y15.735 E1.49499
G1 X62.78 Y16.218 E1.52569
G1 X63.4 Y16.73 E1.55692
G1 X63.745 Y17.031 E1.5747
G1 X64.453 Y17.684 E1.6121
G1 X64.946 Y18.167 E1.63891
G1 X67.059 Y20.318 E1.756
G1 X68.992 Y22.173 E1.86004
G1 X70.996 Y23.991 E1.96512
G1 X73.062 Y25.76 E2.07075
G1 X75.142 Y27.441 E2.17461
G1 X77.305 Y29.09 E2.28023
G1 X79.501 Y30.67 E2.3853
G1 X81.768 Y32.204 E2.4916
G1 X84.02 Y33.638 E2.59528
G1 X86.331 Y35.019 E2.69983
G1 X88.709 Y36.35 E2.80566
G1 X92.126 Y38.132 E2.95532
G1 X92.426 Y38.304 E2.96875
G1 X92.885 Y38.592 E2.98979
G1 X93.197 Y38.808 E3.00453
G1 X94.927 Y40.14 E3.08932
G1 X97.12 Y41.742 E3.19479
G1 X99.363 Y43.284 E3.3005
G1 X101.627 Y44.749 E3.40522
G1 X103.926 Y46.146 E3.50969
G1 X106.289 Y47.492 E3.61531
G1 X108.664 Y48.757 E3.71981
G1 X111.114 Y49.976 E3.82608
G1 X113.539 Y51.095 E3.9298
G1 X116.045 Y52.169 E4.03568
G1 X118.575 Y53.168 E4.14131
G1 X121.108 Y54.087 E4.24596
G1 X124.194 Y55.099 E4.37208
G1 X124.688 Y55.254 E4.39219
G1 X125.713 Y55.608 E4.4343
G1 X126.242 Y55.807 E4.45625
G1 X127.229 Y56.217 E4.49775
G1 X127.903 Y56.525 E4.52653
G1 X128.757 Y56.948 E4.56354
G1 X129.165 Y57.165 E4.58149
G1 X130.141 Y57.724 E4.62517
G1 X130.547 Y57.972 E4.64365
G1 X131.345 Y58.493 E4.68066
G1 X131.916 Y58.891 E4.70769
G1 X132.618 Y59.413 E4.74166
G1 X133.242 Y59.908 E4.77259
G1 X133.875 Y60.444 E4.8048
G1 X134.416 Y60.931 E4.83307
G1 X135.022 Y61.509 E4.86559
G1 X135.543 Y62.039 E4.89446
G1 X136.228 Y62.78 E4.93364
G1 X136.556 Y63.158 E4.95308
G1 X137.23 Y63.982 E4.99442
G1 X137.607 Y64.476 E5.01855
G1 X138.158 Y65.243 E5.05523
G1 X138.426 Y65.637 E5.07374
G1 X138.951 Y66.463 E5.11174
G1 X139.349 Y67.135 E5.14208
G1 X139.751 Y67.864 E5.17441
G1 X140.078 Y68.504 E5.20232
G1 X140.445 Y69.278 E5.23558
G1 X140.747 Y69.969 E5.26487
G1 X141.059 Y70.746 E5.29738
G1 X141.307 Y71.424 E5.32542
G1 X141.581 Y72.248 E5.35914
G1 X141.755 Y72.824 E5.38251
G1 X142.006 Y73.763 E5.42026
G1 X142.154 Y74.387 E5.44516
G1 X142.337 Y75.285 E5.48075
G1 X142.468 Y76.049 E5.51086
G1 X142.598 Y76.998 E5.54805
G1 X142.652 Y77.495 E5.56747
G1 X142.735 Y78.581 E5.60977
G1 X142.759 Y79.085 E5.62936
G1 X142.777 Y80.164 E5.67127
G1 X142.766 Y80.774 E5.69496
G1 X142.728 Y81.634 E5.7284
G1 X142.676 Y82.348 E5.7562
G1 X142.583 Y83.225 E5.79045
G1 X142.488 Y83.92 E5.81769
G1 X142.345 Y84.771 E5.8512
G1 X142.188 Y85.557 E5.88233
G1 X142.014 Y86.311 E5.91238
G1 X141.866 Y86.878 E5.93514
G1 X141.581 Y87.848 E5.9744
G1 X141.339 Y88.581 E6.00437
G1 X141.07 Y89.32 E6.03492
G1 X140.776 Y90.058 E6.06577
G1 X140.404 Y90.909 E6.10184
G1 X140.175 Y91.396 E6.12273
G1 X139.701 Y92.326 E6.16327
G1 X139.471 Y92.748 E6.18194
G1 X138.908 Y93.706 E6.22509
G1 X138.658 Y94.104 E6.24334
G1 X138.085 Y94.957 E6.28325
G1 X137.729 Y95.456 E6.30705
G1 X137.165 Y96.196 E6.34319
G1 X136.764 Y96.69 E6.3679
G1 X136.066 Y97.494 E6.40924
G1 X135.611 Y97.986 E6.43527
G1 X134.954 Y98.654 E6.47165
G1 X134.505 Y99.083 E6.49577
G1 X133.886 Y99.643 E6.52819
G1 X133.309 Y100.132 E6.55756
G1 X132.572 Y100.719 E6.59415
G1 X132.06 Y101.101 E6.61896
G1 X131.259 Y101.662 E6.65694
G1 X130.859 Y101.926 E6.67555
G1 X130.037 Y102.433 E6.71305
G1 X129.385 Y102.809 E6.74228
G1 X128.654 Y103.2 E6.77448
G1 X127.994 Y103.527 E6.80308
G1 X127.099 Y103.935 E6.84128
G1 X126.665 Y104.119 E6.85959
G1 X125.73 Y104.483 E6.89855
G1 X125.051 Y104.723 E6.92652
G1 X123.446 Y105.235 E6.99195
G1 X123.376 Y105.264 E6.99489
G1 X122.067 Y105.677 E7.04819
G1 X119.486 Y106.575 E7.15432
G1 X116.963 Y107.534 E7.25914
G1 X114.468 Y108.563 E7.36395
G1 X112.006 Y109.66 E7.46862
G1 X109.554 Y110.839 E7.57428
G1 X107.172 Y112.068 E7.67838
G1 X104.776 Y113.39 E7.78465
G1 X102.439 Y114.768 E7.89001
G1 X100.176 Y116.19 E7.9938
G1 X97.908 Y117.707 E8.09977
G1 X95.713 Y119.267 E8.20434
G1 X93.11 Y121.235 E8.33107
G1 X92.677 Y121.524 E8.35129
G1 X92.118 Y121.85 E8.37642
G1 X88.842 Y123.566 E8.52004
G1 X86.452 Y124.908 E8.62649
G1 X84.154 Y126.286 E8.73055
G1 X81.859 Y127.75 E8.83626
G1 X79.617 Y129.272 E8.9415
G1 X77.461 Y130.827 E9.04473
G1 X75.28 Y132.495 E9.15136
G1 X73.168 Y134.207 E9.25694
G1 X71.139 Y135.948 E9.36077
G1 X69.147 Y137.76 E9.46535
G1 X66.201 Y140.632 E9.62513
G1 X64.672 Y142.185 E9.70976
G1 X64.222 Y142.614 E9.73391
G1 X63.684 Y143.099 E9.76204
G1 X63.229 Y143.487 E9.78526
G1 X62.409 Y144.142 E9.82601
G1 X61.949 Y144.486 E9.84832
G1 X61.329 Y144.923 E9.87778
G1 X60.716 Y145.328 E9.90631
G1 X60.095 Y145.712 E9.93467
G1 X59.454 Y146.083 E9.96343
G1 X58.763 Y146.457 E9.99394
G1 X58.119 Y146.78 E10.02192
G1 X57.463 Y147.084 E10.05
G1 X56.893 Y147.329 E10.07409
G1 X55.933 Y147.707 E10.11416
G1 X55.471 Y147.873 E10.13323
G1 X54.551 Y148.173 E10.17081
G1 X54.007 Y148.331 E10.19281
G1 X53.211 Y148.539 E10.22476
G1 X52.648 Y148.669 E10.2472
G1 X51.658 Y148.865 E10.28639
G1 X51.179 Y148.945 E10.30525
G1 X50.312 Y149.065 E10.33924
G1 X49.718 Y149.13 E10.36244
G1 X48.706 Y149.207 E10.40186
G1 X48.214 Y149.229 E10.42099
G1 X47.217 Y149.245 E10.45971
G1 X46.74 Y149.238 E10.47823
G1 X45.859 Y149.201 E10.51248
G1 X45.296 Y149.161 E10.5344
G1 X44.363 Y149.065 E10.57082
G1 X43.618 Y148.965 E10.60001
G1 X42.951 Y148.854 E10.62627
G1 X42.178 Y148.702 E10.65687
G1 X41.349 Y148.512 E10.6899
G1 X40.892 Y148.393 E10.70824
G1 X39.994 Y148.134 E10.74453
G1 X39.305 Y147.91 E10.77267
G1 X38.553 Y147.64 E10.8037
G1 X37.928 Y147.394 E10.82978
G1 X37.258 Y147.108 E10.85807
G1 X36.574 Y146.792 E10.88733
G1 X35.811 Y146.409 E10.92049
G1 X35.375 Y146.175 E10.9397
G1 X34.511 Y145.677 E10.97843
G1 X33.958 Y145.333 E11.00372
G1 X33.369 Y144.945 E11.03111
G1 X32.87 Y144.596 E11.05476
G1 X32.069 Y143.997 E11.09361
G1 X31.695 Y143.7 E11.11215
G1 X31.018 Y143.129 E11.14655
G1 X30.449 Y142.618 E11.17625
G1 X29.946 Y142.138 E11.20325
G1 X29.404 Y141.588 E11.23324
G1 X28.887 Y141.032 E11.26272
G1 X28.421 Y140.499 E11.29021
G1 X27.854 Y139.809 E11.3249
G1 X27.481 Y139.323 E11.34869
G1 X26.974 Y138.623 E11.38226
G1 X26.692 Y138.211 E11.40164
G1 X26.165 Y137.388 E11.4396
G1 X25.915 Y136.969 E11.45854
G1 X25.411 Y136.068 E11.49864
G1 X25.188 Y135.638 E11.51745
G1 X24.829 Y134.899 E11.54935
G1 X24.51 Y134.182 E11.57983
G1 X24.234 Y133.512 E11.60797
G1 X23.974 Y132.821 E11.63664
G1 X23.733 Y132.113 E11.66569
G1 X23.545 Y131.512 E11.69014
G1 X23.315 Y130.691 E11.72325
G1 X23.172 Y130.111 E11.74645
G1 X22.949 Y129.07 E11.7878
G1 X22.845 Y128.487 E11.8108
G1 X22.743 Y127.813 E11.83727
G1 X22.663 Y127.169 E11.86247
G1 X22.572 Y126.168 E11.9015
G1 X22.536 Y125.549 E11.92558
G1 X22.513 Y124.826 E11.95368
G1 X22.511 Y124.202 E11.97791
G1 X22.535 Y123.321 E12.01214
G1 X22.615 Y121.93 E12.06624
G1 X22.739 Y119.139 E12.17474
G1 X22.783 Y116.487 E12.27774
G1 X22.749 Y113.727 E12.38494
G1 X22.642 Y111.078 E12.4879
G1 X22.456 Y108.362 E12.59362
G1 X22.192 Y105.647 E12.69955
G1 X21.855 Y102.975 E12.80414
G1 X21.44 Y100.29 E12.90965
G1 X20.956 Y97.649 E13.01392
G1 X20.389 Y94.994 E13.11936
G1 X19.757 Y92.39 E13.22342
G1 X19.035 Y89.746 E13.32986
G1 X18.237 Y87.073 E13.43819
G1 X17.992 Y86.139 E13.47569
G1 X17.861 Y85.569 E13.4984
G1 X17.667 Y84.604 E13.53663
G1 X17.585 Y84.121 E13.55565
G1 X17.436 Y83.048 E13.59772
G1 X17.37 Y82.418 E13.62232
G1 X17.306 Y81.595 E13.65438
G1 X17.274 Y80.962 E13.679
G1 X17.257 Y80.016 E13.71574
G1 X17.268 Y79.251 E13.74545
G1 X17.305 Y78.413 E13.77803
G1 X17.357 Y77.715 E13.80521
G1 X17.45 Y76.832 E13.83969
G1 X17.533 Y76.209 E13.8641
G1 X17.709 Y75.16 E13.9054
G1 X17.829 Y74.565 E13.92898
G1 X18.026 Y73.719 E13.96271
G1 X18.228 Y72.956 E13.99336
G1 X19.131 Y69.9 E14.11711
G1 X19.834 Y67.275 E14.22265
G1 X20.455 Y64.657 E14.32714
G1 X21.011 Y61.982 E14.43324
G1 X21.483 Y59.337 E14.53759
G1 X21.878 Y56.693 E14.64141
G1 X22.206 Y53.973 E14.7478
G1 X22.455 Y51.272 E14.85314
G1 X22.626 Y48.582 E14.95782
G1 X22.721 Y45.896 E15.06219
G1 X22.74 Y43.173 E15.16794
G1 X22.683 Y40.498 E15.27185
G1 X22.529 Y37.683 E15.38133
G1 X22.531 Y37.564 E15.38596
G1 X22.476 Y36.5 E15.42733
G1 X22.459 Y35.494 E15.46641
G1 X22.466 Y35.016 E15.48497
G1 X22.503 Y34.136 E15.51918
G1 X22.543 Y33.573 E15.5411
G1 X22.653 Y32.518 E15.58229
G1 X22.737 Y31.905 E15.60632
G1 X22.855 Y31.192 E15.63438
G1 X22.973 Y30.584 E15.65844
G1 X23.151 Y29.789 E15.69007
G1 X23.348 Y29.032 E15.72045
G1 X23.6 Y28.172 E15.75525
G1 X23.753 Y27.699 E15.77456
G1 X24.026 Y26.933 E15.80614
G1 X24.301 Y26.228 E15.83553
G1 X24.659 Y25.395 E15.87074
G1 X24.871 Y24.935 E15.89041
G1 X25.287 Y24.102 E15.92657
G1 X25.568 Y23.582 E15.94952
G1 X26.03 Y22.783 E15.98536
G1 X26.306 Y22.335 E16.0058
G1 X26.825 Y21.549 E16.04238
G1 X27.119 Y21.132 E16.06219
G1 X27.708 Y20.345 E16.10037
G0 F7200 X28.063 Y20.768
G1 F1800 X28.504 Y20.213 E16.1279
G1 X28.987 Y19.643 E16.15691
G1 X29.443 Y19.136 E16.18339
G1 X30.009 Y18.544 E16.2152
G1 X30.507 Y18.052 E16.24239
G1 X31.018 Y17.577 E16.26948
G1 X31.542 Y17.119 E16.29651
G1 X32.13 Y16.635 E16.32608
G1 X32.711 Y16.185 E16.35462
G1 X33.384 Y15.697 E16.38691
G1 X33.77 Y15.433 E16.40507
G1 X34.608 Y14.897 E16.4437
G1 X35.124 Y14.591 E16.467
G1 X35.854 Y14.184 E16.49945
G1 X36.328 Y13.937 E16.52021
G1 X37.053 Y13.585 E16.55151
G1 X37.662 Y13.313 E16.57741
G1 X38.542 Y12.953 E16.61434
G1 X38.944 Y12.802 E16.63101
G1 X39.862 Y12.489 E16.66868
G1 X40.442 Y12.31 E16.69225
G1 X41.16 Y12.111 E16.72119
G1 X41.752 Y11.965 E16.74486
G1 X42.709 Y11.761 E16.78287
G1 X43.288 Y11.656 E16.80572
G1 X43.986 Y11.551 E16.83313
G1 X44.688 Y11.467 E16.86059
G1 X45.596 Y11.386 E16.89599
G1 X46.204 Y11.351 E16.91964
G1 X46.986 Y11.328 E16.95002
G1 X47.482 Y11.327 E16.96928
G1 X48.477 Y11.356 E17.00794
G1 X49.082 Y11.393 E17.03148
G1 X49.935 Y11.471 E17.06474
G1 X50.399 Y11.527 E17.08289
G1 X51.347 Y11.669 E17.12012
G1 X51.874 Y11.764 E17.14092
G1 X52.677 Y11.934 E17.17279
G1 X53.338 Y12.093 E17.19919
G1 X54.088 Y12.3 E17.22941
G1 X54.673 Y12.478 E17.25316
G1 X55.574 Y12.785 E17.29012
G1 X56.088 Y12.98 E17.31147
G1 X56.826 Y13.281 E17.34242
G1 X57.485 Y13.575 E17.37045
G1 X58.233 Y13.935 E17.40269
G1 X58.746 Y14.202 E17.42514
G1 X59.415 Y14.575 E17.45489
G1 X60.036 Y14.946 E17.48298
G1 X60.732 Y15.391 E17.51507
G1 X61.132 Y15.663 E17.53385
G1 X61.837 Y16.173 E17.56764
G1 X62.437 Y16.636 E17.59707
G1 X63.045 Y17.137 E17.62767
G1 X63.39 Y17.438 E17.64545
G1 X64.086 Y18.08 E17.68222
G1 X64.56 Y18.545 E17.70801
G1 X66.665 Y20.688 E17.82467
G1 X68.62 Y22.564 E17.92989
G1 X70.646 Y24.401 E18.0361
G1 X72.717 Y26.175 E18.142
G1 X74.808 Y27.865 E18.24641
G1 X76.985 Y29.525 E18.35272
G1 X79.213 Y31.129 E18.45934
G1 X81.433 Y32.631 E18.56343
G1 X83.736 Y34.097 E18.66945
G1 X86.073 Y35.493 E18.77517
G1 X88.463 Y36.831 E18.88154
G1 X91.876 Y38.611 E19.03103
G1 X92.139 Y38.762 E19.0428
G1 X92.598 Y39.05 E19.06385
G1 X92.871 Y39.238 E19.07672
G1 X93.383 Y39.625 E19.10164
G1 X94.625 Y40.588 E19.16268
G1 X96.797 Y42.173 E19.2671
G1 X99.072 Y43.738 E19.37433
G1 X101.336 Y45.204 E19.47908
G1 X103.662 Y46.616 E19.58475
G1 X106.024 Y47.963 E19.69035
G1 X108.425 Y49.241 E19.79598
G1 X110.876 Y50.46 E19.90228
G1 X113.326 Y51.591 E20.00708
G1 X115.834 Y52.666 E20.11305
G1 X118.375 Y53.669 E20.21914
G1 X120.946 Y54.602 E20.32535
G1 X124.512 Y55.765 E20.47102
G1 X125.648 Y56.159 E20.51771
G1 X126.164 Y56.357 E20.53917
G1 X127.021 Y56.715 E20.57524
G1 X127.559 Y56.959 E20.59818
G1 X128.503 Y57.425 E20.63907
G1 X128.911 Y57.642 E20.65701
G1 X129.859 Y58.185 E20.69944
G1 X130.369 Y58.498 E20.72268
G1 X131.049 Y58.944 E20.75426
G1 X131.606 Y59.333 E20.78065
G1 X132.383 Y59.913 E20.8183
G1 X132.893 Y60.32 E20.84364
G1 X133.526 Y60.856 E20.87585
G1 X134.044 Y61.322 E20.90291
G1 X134.65 Y61.9 E20.93543
G1 X135.148 Y62.406 E20.963
G1 X135.736 Y63.04 E20.99658
G1 X136.148 Y63.512 E21.02092
G1 X136.802 Y64.311 E21.06101
G1 X137.1 Y64.699 E21.08001
G1 X137.652 Y65.462 E21.11659
G1 X138.048 Y66.046 E21.14399
G1 X138.555 Y66.849 E21.18087
G1 X138.819 Y67.295 E21.20099
G1 X139.338 Y68.238 E21.2428
G1 X139.59 Y68.736 E21.26447
G1 X140.005 Y69.615 E21.30222
G1 X140.246 Y70.17 E21.32572
G1 X140.558 Y70.947 E21.35824
G1 X140.758 Y71.49 E21.38071
G1 X141.104 Y72.532 E21.42335
G1 X141.269 Y73.091 E21.44598
G1 X141.511 Y74.01 E21.48289
G1 X141.653 Y74.624 E21.50736
G1 X141.808 Y75.392 E21.53779
G1 X141.933 Y76.123 E21.56659
G1 X142.061 Y77.056 E21.60316
G1 X142.126 Y77.674 E21.62729
G1 X142.196 Y78.607 E21.66363
G1 X142.224 Y79.231 E21.68789
G1 X142.237 Y80.04 E21.71931
G1 X142.23 Y80.637 E21.74249
G1 X142.182 Y81.714 E21.78436
G1 X142.139 Y82.291 E21.80683
G1 X142.046 Y83.168 E21.84108
G1 X141.973 Y83.713 E21.86243
G1 X141.791 Y84.799 E21.9052
G1 X141.685 Y85.328 E21.92615
G1 X141.458 Y86.309 E21.96525
G1 X141.315 Y86.842 E21.98668
G1 X141.026 Y87.814 E22.02606
G1 X140.868 Y88.291 E22.04558
G1 X140.562 Y89.135 E22.08044
G1 X140.281 Y89.842 E22.10999
G1 X139.915 Y90.679 E22.14546
G1 X139.631 Y91.278 E22.17121
G1 X139.274 Y91.977 E22.20169
G1 X138.935 Y92.598 E22.22917
G1 X138.508 Y93.324 E22.26188
G1 X138.134 Y93.919 E22.28917
G1 X137.638 Y94.655 E22.32364
G1 X137.223 Y95.233 E22.35127
G1 X136.737 Y95.868 E22.38232
G1 X136.274 Y96.434 E22.41072
G1 X135.739 Y97.05 E22.44241
G1 X135.309 Y97.52 E22.46714
G1 X134.58 Y98.265 E22.50762
G1 X134.226 Y98.605 E22.52669
G1 X133.524 Y99.242 E22.5635
G1 X132.972 Y99.711 E22.59163
G1 X132.338 Y100.218 E22.62315
G1 X131.849 Y100.587 E22.64694
G1 X130.962 Y101.211 E22.68906
G1 X130.562 Y101.475 E22.70767
G1 X129.755 Y101.973 E22.7445
G1 X129.13 Y102.333 E22.77251
