;FLAVOR:RepRap
;TIME:1709
;Filament used: 0.625744m
;Layer height: 0.2
;MINX:60.601
;MINY:60.601
;MINZ:0.2
;MAXX:99.399
;MAXY:99.399
;MAXZ:27.2
;Generated with Cura_SteamEngine 5.2.1
T0


; Pre-Processed for Cancel-Object support by preprocess_cancellation v0.2.0
; 1 known objects
EXCLUDE_OBJECT_DEFINE NAME=cube_1_stl CENTER=82.197,80.019 POLYGON=[[65.201,65.201],[65.201,94.799],[94.799,94.799],[94.799,65.201]]
M82 ;absolute extrusion mode
PRINT_START BED=110 EXTRUDER=245 STANDBY=200 CHAMBER=36
M83 ;relative extrusion mode
G1 F2100 E-0.4
;LAYER_COUNT:136
;LAYER:0
M107
G1 F600 Z0.6
G0 F7200 X62.017 Y61.785 Z0.6
;TYPE:SKIRT
G1 F600 Z0.2
G1 F840 E0.4
G1 F1800 X62.478 Y61.412 E0.01972
G1 X62.985 Y61.104 E0.01973
G1 X63.528 Y60.867 E0.01971
G1 X64.099 Y60.705 E0.01974
G1 X64.887 Y60.612 E0.02639
G1 X65.331 Y60.601 E0.01477
G1 X94.355 Y60.601 E0.96534
G1 X95.053 Y60.611 E0.02322
G1 X95.644 Y60.66 E0.01972
G1 X96.223 Y60.787 E0.01972
G1 X96.78 Y60.991 E0.01973
G1 X97.304 Y61.269 E0.01973
G1 X97.786 Y61.614 E0.01971
G1 X98.218 Y62.021 E0.01974
G1 X98.59 Y62.482 E0.0197
G1 X98.898 Y62.989 E0.01973
G1 X99.134 Y63.533 E0.01972
G1 X99.295 Y64.103 E0.0197
G1 X99.388 Y64.887 E0.02626
G1 X99.399 Y65.331 E0.01477
G1 X99.399 Y94.317 E0.96408
G1 X99.39 Y95.044 E0.02418
G1 X99.342 Y95.636 E0.01975
G1 X99.216 Y96.215 E0.01971
G1 X99.013 Y96.772 E0.01972
G1 X98.737 Y97.297 E0.01973
G1 X98.393 Y97.78 E0.01972
G1 X97.987 Y98.212 E0.01972
G1 X97.526 Y98.585 E0.01972
G1 X97.02 Y98.894 E0.01972
G1 X96.477 Y99.131 E0.01971
G1 X95.906 Y99.294 E0.01975
G1 X95.113 Y99.388 E0.02656
G1 X94.669 Y99.399 E0.01477
G1 X65.651 Y99.399 E0.96514
G1 X64.953 Y99.39 E0.02322
G1 X64.362 Y99.342 E0.01972
G1 X63.783 Y99.215 E0.01972
G1 X63.226 Y99.012 E0.01972
G1 X62.701 Y98.736 E0.01973
G1 X62.219 Y98.391 E0.01971
G1 X61.787 Y97.985 E0.01972
G1 X61.413 Y97.524 E0.01974
G1 X61.105 Y97.018 E0.0197
G1 X60.868 Y96.474 E0.01974
G1 X60.706 Y95.904 E0.01971
G1 X60.612 Y95.109 E0.02663
G1 X60.601 Y94.657 E0.01504
G1 X60.601 Y65.615 E0.96594
G1 X60.61 Y64.95 E0.02212
G1 X60.658 Y64.359 E0.01972
G1 X60.785 Y63.78 E0.01972
G1 X60.989 Y63.223 E0.01973
G1 X61.266 Y62.699 E0.01971
G1 X61.611 Y62.217 E0.01971
G1 X62.017 Y61.785 E0.01972
G0 F7200 X62.407 Y61.973
G1 F1800 X62.861 Y61.636 E0.01881
G1 X63.358 Y61.367 E0.0188
G1 X63.888 Y61.17 E0.01881
G1 X64.441 Y61.051 E0.01881
G1 X64.898 Y61.012 E0.01526
G1 X65.331 Y61.001 E0.01441
G1 X94.349 Y61.001 E0.96514
G1 X95.047 Y61.011 E0.02322
G1 X95.611 Y61.059 E0.01883
G1 X96.161 Y61.186 E0.01877
G1 X96.689 Y61.39 E0.01883
G1 X97.183 Y61.665 E0.0188
G1 X97.632 Y62.008 E0.01879
G1 X98.029 Y62.41 E0.01879
G1 X98.366 Y62.865 E0.01883
G1 X98.634 Y63.362 E0.01878
G1 X98.83 Y63.892 E0.01879
G1 X98.95 Y64.445 E0.01882
G1 X98.988 Y64.899 E0.01515
G1 X98.999 Y65.331 E0.01437
G1 X98.999 Y94.313 E0.96395
G1 X98.99 Y95.04 E0.02418
G1 X98.943 Y95.603 E0.01879
G1 X98.817 Y96.154 E0.0188
G1 X98.615 Y96.682 E0.0188
G1 X98.34 Y97.176 E0.0188
G1 X97.998 Y97.626 E0.0188
G1 X97.596 Y98.024 E0.01882
G1 X97.143 Y98.361 E0.01878
G1 X96.646 Y98.631 E0.01881
G1 X96.116 Y98.828 E0.01881
G1 X95.564 Y98.949 E0.0188
G1 X95.102 Y98.988 E0.01542
G1 X94.669 Y98.999 E0.01441
G1 X65.656 Y98.999 E0.96498
G1 X64.958 Y98.99 E0.02322
G1 X64.395 Y98.942 E0.01879
G1 X63.844 Y98.816 E0.0188
G1 X63.316 Y98.614 E0.0188
G1 X62.822 Y98.339 E0.0188
G1 X62.372 Y97.997 E0.0188
G1 X61.974 Y97.595 E0.01882
G1 X61.638 Y97.141 E0.01879
G1 X61.368 Y96.644 E0.01881
G1 X61.171 Y96.114 E0.01881
G1 X61.051 Y95.562 E0.01879
G1 X61.011 Y95.098 E0.01549
G1 X61.002 Y94.765 E0.01108
G1 X61.001 Y65.621 E0.96933
G1 X61.01 Y64.956 E0.02212
G1 X61.058 Y64.393 E0.01879
G1 X61.184 Y63.842 E0.0188
G1 X61.387 Y63.314 E0.01881
G1 X61.663 Y62.82 E0.01882
G1 X62.005 Y62.37 E0.0188
G1 X62.407 Y61.973 E0.01879
G0 F7200 X62.795 Y62.172
G1 F1800 X63.242 Y61.874 E0.01787
G1 X63.727 Y61.646 E0.01782
G1 X64.241 Y61.493 E0.01784
G1 X64.909 Y61.411 E0.02238
G1 X65.23 Y61.402 E0.01068
G1 X94.344 Y61.401 E0.96834
G1 X95.042 Y61.411 E0.02322
G1 X95.576 Y61.459 E0.01783
G1 X96.097 Y61.585 E0.01783
G1 X96.594 Y61.788 E0.01786
G1 X97.055 Y62.062 E0.01784
G1 X97.47 Y62.401 E0.01782
G1 X97.83 Y62.799 E0.01785
G1 X98.127 Y63.245 E0.01782
G1 X98.355 Y63.731 E0.01785
G1 X98.507 Y64.245 E0.01783
G1 X98.589 Y64.91 E0.02229
G1 X98.598 Y65.23 E0.01065
G1 X98.599 Y94.308 E0.96714
G1 X98.59 Y95.035 E0.02418
G1 X98.543 Y95.569 E0.01783
G1 X98.418 Y96.09 E0.01782
G1 X98.216 Y96.587 E0.01784
G1 X97.943 Y97.049 E0.01785
G1 X97.605 Y97.465 E0.01783
G1 X97.208 Y97.826 E0.01785
G1 X96.762 Y98.124 E0.01784
G1 X96.277 Y98.352 E0.01782
G1 X95.763 Y98.506 E0.01785
G1 X95.091 Y98.589 E0.02252
G1 X94.77 Y98.598 E0.01068
G1 X65.662 Y98.599 E0.96814
G1 X64.964 Y98.59 E0.02322
G1 X64.429 Y98.543 E0.01786
G1 X63.908 Y98.417 E0.01783
G1 X63.411 Y98.215 E0.01784
G1 X62.95 Y97.942 E0.01782
G1 X62.534 Y97.603 E0.01785
G1 X62.173 Y97.207 E0.01782
G1 X61.875 Y96.761 E0.01784
G1 X61.647 Y96.275 E0.01785
G1 X61.494 Y95.761 E0.01784
G1 X61.411 Y95.087 E0.02259
G1 X61.402 Y94.754 E0.01108
G1 X61.401 Y65.626 E0.9688
G1 X61.41 Y64.961 E0.02212
G1 X61.458 Y64.427 E0.01783
G1 X61.584 Y63.906 E0.01783
G1 X61.786 Y63.409 E0.01784
G1 X62.059 Y62.948 E0.01782
G1 X62.398 Y62.532 E0.01785
G1 X62.795 Y62.172 E0.01782
G0 F7200 X63.181 Y62.384
G1 F1800 X63.618 Y62.129 E0.01683
G1 X64.089 Y61.945 E0.01682
G1 X64.583 Y61.839 E0.0168
G1 X64.92 Y61.811 E0.01125
G1 X65.241 Y61.802 E0.01068
G1 X94.338 Y61.801 E0.96777
G1 X95.036 Y61.811 E0.02322
G1 X95.539 Y61.858 E0.0168
G1 X96.029 Y61.984 E0.01683
G1 X96.493 Y62.186 E0.01683
G1 X96.919 Y62.458 E0.01681
G1 X97.297 Y62.793 E0.0168
G1 X97.617 Y63.184 E0.0168
G1 X97.872 Y63.621 E0.01683
G1 X98.055 Y64.092 E0.01681
G1 X98.162 Y64.586 E0.01681
G1 X98.189 Y64.921 E0.01118
G1 X98.198 Y65.241 E0.01065
G1 X98.199 Y94.303 E0.96661
G1 X98.19 Y95.03 E0.02418
G1 X98.144 Y95.533 E0.0168
G1 X98.019 Y96.023 E0.01682
G1 X97.818 Y96.487 E0.01682
G1 X97.547 Y96.914 E0.01682
G1 X97.212 Y97.293 E0.01682
G1 X96.822 Y97.614 E0.0168
G1 X96.386 Y97.87 E0.01682
G1 X95.915 Y98.053 E0.01681
G1 X95.421 Y98.161 E0.01682
G1 X95.08 Y98.189 E0.01138
G1 X94.759 Y98.198 E0.01068
G1 X65.667 Y98.199 E0.9676
G1 X64.969 Y98.19 E0.02322
G1 X64.465 Y98.143 E0.01684
G1 X63.975 Y98.018 E0.01682
G1 X63.511 Y97.817 E0.01682
G1 X63.085 Y97.546 E0.01679
G1 X62.706 Y97.211 E0.01682
G1 X62.385 Y96.82 E0.01683
G1 X62.13 Y96.384 E0.0168
G1 X61.946 Y95.913 E0.01682
G1 X61.839 Y95.419 E0.01681
G1 X61.811 Y95.076 E0.01145
G1 X61.802 Y94.743 E0.01108
G1 X61.801 Y65.632 E0.96824
G1 X61.81 Y64.967 E0.02212
G1 X61.857 Y64.463 E0.01684
G1 X61.983 Y63.974 E0.0168
G1 X62.184 Y63.51 E0.01682
G1 X62.455 Y63.083 E0.01682
G1 X62.79 Y62.705 E0.0168
G1 X63.181 Y62.384 E0.01683
G1 F2100 E-0.4
G1 F600 Z0.6
;MESH:cube (1).stl
EXCLUDE_OBJECT_START NAME=cube_1_stl
G0 F7200 X65.201 Y65.201 Z0.6
;TYPE:WALL-OUTER
G1 F600 Z0.2
G1 F840 E0.4
G1 F1800 X65.201 Y94.799 E0.98443
G1 X94.799 Y94.799 E0.98443
G1 X94.799 Y80 E0.49222
G1 X94.799 Y65.201 E0.49222
G1 X65.201 Y65.201 E0.98443
G0 F7200 X65.201 Y65.401
G0 X65.581 Y65.581
;TYPE:SKIN
G1 F1800 X65.581 Y94.419 E0.95916
G1 X94.419 Y94.419 E0.95916
G1 X94.419 Y65.581 E0.95916
G1 X65.581 Y65.581 E0.95916
G1 F2100 E-0.4
G1 F600 Z0.6
G0 F7200 X94.218 Y65.934 Z0.6
G1 F600 Z0.2
G1 F840 E0.4
G1 F1800 X94.065 Y65.781 E0.0072
G0 F7200 X93.5 Y65.781
G1 F1800 X94.218 Y66.499 E0.03377
G0 F7200 X94.218 Y67.065
G1 F1800 X92.934 Y65.781 E0.0604
G0 F7200 X92.368 Y65.781
G1 F1800 X94.218 Y67.631 E0.08702
G0 F7200 X94.218 Y68.196
G1 F1800 X91.802 Y65.781 E0.11362
G0 F7200 X91.237 Y65.781
G1 F1800 X94.218 Y68.762 E0.14022
G0 F7200 X94.218 Y69.328
G1 F1800 X90.671 Y65.781 E0.16684
G0 F7200 X90.105 Y65.781
G1 F1800 X94.218 Y69.893 E0.19344
G0 F7200 X94.218 Y70.459
G1 F1800 X89.54 Y65.781 E0.22004
G0 F7200 X88.974 Y65.781
G1 F1800 X94.218 Y71.025 E0.24666
G0 F7200 X94.218 Y71.591
G1 F1800 X88.408 Y65.781 E0.27328
G0 F7200 X87.843 Y65.781
G1 F1800 X94.218 Y72.156 E0.29986
G0 F7200 X94.218 Y72.722
G1 F1800 X87.277 Y65.781 E0.32648
G0 F7200 X86.711 Y65.781
G1 F1800 X94.218 Y73.288 E0.35311
G0 F7200 X94.218 Y73.853
G1 F1800 X86.146 Y65.781 E0.37968
G0 F7200 X85.58 Y65.781
G1 F1800 X94.218 Y74.419 E0.40631
G0 F7200 X94.218 Y74.985
G1 F1800 X85.014 Y65.781 E0.43293
G0 F7200 X84.449 Y65.781
G1 F1800 X94.218 Y75.55 E0.4595
G0 F7200 X94.218 Y76.116
G1 F1800 X83.883 Y65.781 E0.48613
G0 F7200 X83.317 Y65.781
G1 F1800 X94.218 Y76.682 E0.51275
G0 F7200 X94.218 Y77.247
G1 F1800 X82.751 Y65.781 E0.53935
G0 F7200 X82.186 Y65.781
G1 F1800 X94.218 Y77.813 E0.56595
G0 F7200 X94.218 Y78.379
G1 F1800 X81.62 Y65.781 E0.59257
G0 F7200 X81.054 Y65.781
G1 F1800 X94.218 Y78.944 E0.61917
G0 F7200 X94.218 Y79.51
G1 F1800 X80.489 Y65.781 E0.64577
G0 F7200 X79.923 Y65.781
G1 F1800 X94.218 Y80.076 E0.67239
G0 F7200 X94.218 Y80.641
G1 F1800 X79.357 Y65.781 E0.69899
G0 F7200 X78.792 Y65.781
G1 F1800 X94.218 Y81.207 E0.72559
G0 F7200 X94.218 Y81.773
G1 F1800 X78.226 Y65.781 E0.75221
G0 F7200 X77.66 Y65.781
G1 F1800 X94.218 Y82.339 E0.77884
G0 F7200 X94.218 Y82.904
G1 F1800 X77.095 Y65.781 E0.80541
G0 F7200 X76.529 Y65.781
G1 F1800 X94.218 Y83.47 E0.83204
G0 F7200 X94.218 Y84.036
G1 F1800 X75.963 Y65.781 E0.85866
G0 F7200 X75.398 Y65.781
G1 F1800 X94.218 Y84.601 E0.88524
G0 F7200 X94.218 Y85.167
G1 F1800 X74.832 Y65.781 E0.91186
G0 F7200 X74.266 Y65.781
G1 F1800 X94.218 Y85.733 E0.93848
G0 F7200 X94.218 Y86.298
G1 F1800 X73.701 Y65.781 E0.96506
G0 F7200 X73.135 Y65.781
G1 F1800 X94.218 Y86.864 E0.99168
G0 F7200 X94.218 Y87.43
G1 F1800 X72.569 Y65.781 E1.0183
G0 F7200 X72.003 Y65.781
G1 F1800 X94.218 Y87.995 E1.0449
G0 F7200 X94.218 Y88.561
G1 F1800 X71.438 Y65.781 E1.0715
G0 F7200 X70.872 Y65.781
G1 F1800 X94.218 Y89.127 E1.09812
G0 F7200 X94.218 Y89.692
G1 F1800 X70.306 Y65.781 E1.12472
G0 F7200 X69.741 Y65.781
G1 F1800 X94.218 Y90.258 E1.15132
G0 F7200 X94.218 Y90.824
G1 F1800 X69.175 Y65.781 E1.17795
G0 F7200 X68.609 Y65.781
G1 F1800 X94.218 Y91.39 E1.20457
G0 F7200 X94.218 Y91.955
G1 F1800 X68.044 Y65.781 E1.23114
G0 F7200 X67.478 Y65.781
G1 F1800 X94.218 Y92.521 E1.25777
G0 F7200 X94.218 Y93.087
G1 F1800 X66.912 Y65.781 E1.28439
G0 F7200 X66.347 Y65.781
G1 F1800 X94.218 Y93.652 E1.31097
G0 F7200 X94.218 Y94.218
G1 F1800 X65.78 Y65.78 E1.33764
G0 F7200 X65.78 Y66.346
G1 F1800 X93.652 Y94.218 E1.31101
G0 F7200 X93.087 Y94.218
G1 F1800 X65.78 Y66.912 E1.28441
G0 F7200 X65.78 Y67.477
G1 F1800 X92.521 Y94.218 E1.25781
G0 F7200 X91.955 Y94.218
G1 F1800 X65.78 Y68.043 E1.23119
G0 F7200 X65.78 Y68.609
G1 F1800 X91.39 Y94.218 E1.20459
G0 F7200 X90.824 Y94.218
G1 F1800 X65.78 Y69.174 E1.17799
G0 F7200 X65.78 Y69.74
G1 F1800 X90.258 Y94.218 E1.15137
G0 F7200 X89.692 Y94.218
G1 F1800 X65.78 Y70.306 E1.12475
G0 F7200 X65.78 Y70.871
G1 F1800 X89.127 Y94.218 E1.09817
G0 F7200 X88.561 Y94.218
G1 F1800 X65.78 Y71.437 E1.07155
G0 F7200 X65.78 Y72.003
G1 F1800 X87.995 Y94.218 E1.04493
G0 F7200 X87.43 Y94.218
G1 F1800 X65.78 Y72.568 E1.01835
G0 F7200 X65.78 Y73.134
G1 F1800 X86.864 Y94.218 E0.99173
G0 F7200 X86.298 Y94.218
G1 F1800 X65.78 Y73.7 E0.9651
G0 F7200 X65.78 Y74.266
G1 F1800 X85.733 Y94.218 E0.9385
G0 F7200 X85.167 Y94.218
G1 F1800 X65.78 Y74.831 E0.91191
G0 F7200 X65.78 Y75.397
G1 F1800 X84.601 Y94.218 E0.88528
G0 F7200 X84.036 Y94.218
G1 F1800 X65.78 Y75.963 E0.85868
G0 F7200 X65.78 Y76.528
G1 F1800 X83.47 Y94.218 E0.83208
G0 F7200 X82.904 Y94.218
G1 F1800 X65.78 Y77.094 E0.80546
G0 F7200 X65.78 Y77.66
G1 F1800 X82.339 Y94.218 E0.77886
G0 F7200 X81.773 Y94.218
G1 F1800 X65.78 Y78.225 E0.75226
G0 F7200 X65.78 Y78.791
G1 F1800 X81.207 Y94.218 E0.72564
G0 F7200 X80.641 Y94.218
G1 F1800 X65.78 Y79.357 E0.69902
G0 F7200 X65.78 Y79.922
G1 F1800 X80.076 Y94.218 E0.67244
G0 F7200 X79.51 Y94.218
G1 F1800 X65.78 Y80.488 E0.64582
G0 F7200 X65.78 Y81.054
G1 F1800 X78.944 Y94.218 E0.61919
G0 F7200 X78.379 Y94.218
G1 F1800 X65.78 Y81.619 E0.59262
G0 F7200 X65.78 Y82.185
G1 F1800 X77.813 Y94.218 E0.566
G0 F7200 X77.247 Y94.218
G1 F1800 X65.78 Y82.751 E0.53937
G0 F7200 X65.78 Y83.316
G1 F1800 X76.682 Y94.218 E0.5128
G0 F7200 X76.116 Y94.218
G1 F1800 X65.78 Y83.882 E0.48617
G0 F7200 X65.78 Y84.448
G1 F1800 X75.55 Y94.218 E0.45955
G0 F7200 X74.985 Y94.218
G1 F1800 X65.78 Y85.014 E0.43295
G0 F7200 X65.78 Y85.579
G1 F1800 X74.419 Y94.218 E0.40635
G0 F7200 X73.853 Y94.218
G1 F1800 X65.78 Y86.145 E0.37973
G0 F7200 X65.78 Y86.711
G1 F1800 X73.288 Y94.218 E0.35313
G0 F7200 X72.722 Y94.218
G1 F1800 X65.78 Y87.276 E0.32653
G0 F7200 X65.78 Y87.842
G1 F1800 X72.156 Y94.218 E0.29991
G0 F7200 X71.591 Y94.218
G1 F1800 X65.78 Y88.408 E0.27331
G0 F7200 X65.78 Y88.973
G1 F1800 X71.025 Y94.218 E0.24671
G0 F7200 X70.459 Y94.218
G1 F1800 X65.78 Y89.539 E0.22009
G0 F7200 X65.78 Y90.105
G1 F1800 X69.893 Y94.218 E0.19346
G0 F7200 X69.328 Y94.218
G1 F1800 X65.78 Y90.67 E0.16689
G0 F7200 X65.78 Y91.236
G1 F1800 X68.762 Y94.218 E0.14026
G0 F7200 X68.196 Y94.218
G1 F1800 X65.78 Y91.802 E0.11364
G0 F7200 X65.78 Y92.367
G1 F1800 X67.631 Y94.218 E0.08707
G0 F7200 X67.065 Y94.218
G1 F1800 X65.78 Y92.933 E0.06044
G0 F7200 X65.78 Y93.499
G1 F1800 X66.499 Y94.218 E0.03382
G0 F7200 X65.934 Y94.218
M104 S245
G1 F1800 X65.78 Y94.065 E0.00722
G1 F2100 E-0.4
G1 F600 Z0.6
;MESH:NONMESH
EXCLUDE_OBJECT_END NAME=cube_1_stl
G0 F7200 X65.201 Y65.201 Z0.6
;TIME_ELAPSED:100.908122
;LAYER:1
M106 S17
;MESH:cube (1).stl
EXCLUDE_OBJECT_START NAME=cube_1_stl
G0 F9900 X65.201 Y65.201 Z0.8
;TYPE:WALL-OUTER
G1 F600 Z0.4
G1 F840 E0.4
G1 F600 X65.201 Y94.799 E0.98443
G1 X94.799 Y94.799 E0.98443
G1 X94.799 Y80 E0.49222
G1 X94.799 Y65.201 E0.49222
G1 X65.201 Y65.201 E0.98443
G0 F9900 X65.201 Y65.401
;MESH:NONMESH
EXCLUDE_OBJECT_END NAME=cube_1_stl
G0 F600 X65.201 Y65.401 Z0.6
G0 F9900 X65.201 Y65.201
;TIME_ELAPSED:112.952112
;LAYER:2
M106 S34
;TYPE:WALL-OUTER
;MESH:cube (1).stl
EXCLUDE_OBJECT_START NAME=cube_1_stl
G1 F600 X65.201 Y94.799 E0.98443
G1 X94.799 Y94.799 E0.98443
G1 X94.799 Y80 E0.49222
G1 X94.799 Y65.201 E0.49222
G1 X65.201 Y65.201 E0.98443
G0 F12600 X65.201 Y65.401
;MESH:NONMESH
EXCLUDE_OBJECT_END NAME=cube_1_stl
G0 F600 X65.201 Y65.401 Z0.8
G0 F12600 X65.201 Y65.201
;TIME_ELAPSED:124.863587
;LAYER:3
M106 S51
;TYPE:WALL-OUTER
;MESH:cube (1).stl
EXCLUDE_OBJECT_START NAME=cube_1_stl
G1 F600 X65.201 Y94.799 E0.98443
G1 X94.799 Y94.799 E0.98443
G1 X94.799 Y80 E0.49222
G1 X94.799 Y65.201 E0.49222
G1 X65.201 Y65.201 E0.98443
G0 F15300 X65.201 Y65.401
;MESH:NONMESH
EXCLUDE_OBJECT_END NAME=cube_1_stl
G0 F600 X65.201 Y65.401 Z1
G0 F15300 X65.201 Y65.201
;TIME_ELAPSED:136.775783
;LAYER:4
;TYPE:WALL-OUTER
;MESH:cube (1).stl
EXCLUDE_OBJECT_START NAME=cube_1_stl
G1 F600 X65.201 Y94.799 E0.98443
G1 X94.799 Y94.799 E0.98443
G1 X94.799 Y80 E0.49222
G1 X94.799 Y65.201 E0.49222
G1 X65.201 Y65.201 E0.98443
G0 F18000 X65.201 Y65.401
;MESH:NONMESH
EXCLUDE_OBJECT_END NAME=cube_1_stl
G0 F600 X65.201 Y65.401 Z1.2
G0 F18000 X65.201 Y65.201
;TIME_ELAPSED:148.688491
;LAYER:5
;TYPE:WALL-OUTER
;MESH:cube (1).stl
EXCLUDE_OBJECT_START NAME=cube_1_stl
G1 F600 X65.201 Y94.799 E0.98443
G1 X94.799 Y94.799 E0.98443
G1 X94.799 Y80 E0.49222
G1 X94.799 Y65.201 E0.49222
G1 X65.201 Y65.201 E0.98443
G0 F18000 X65.201 Y65.401
;MESH:NONMESH
EXCLUDE_OBJECT_END NAME=cube_1_stl
G0 F600 X65.201 Y65.401 Z1.4
G0 F18000 X65.201 Y65.201
;TIME_ELAPSED:160.601198
;LAYER:6
;TYPE:WALL-OUTER
;MESH:cube (1).stl
EXCLUDE_OBJECT_START NAME=cube_1_stl
G1 F600 X65.201 Y94.799 E0.98443
G1 X94.799 Y94.799 E0.98443
G1 X94.799 Y80 E0.49222
G1 X94.799 Y65.201 E0.49222
G1 X65.201 Y65.201 E0.98443
G0 F18000 X65.201 Y65.401
;MESH:NONMESH
EXCLUDE_OBJECT_END NAME=cube_1_stl
G0 F600 X65.201 Y65.401 Z1.6
G0 F18000 X65.201 Y65.201
;TIME_ELAPSED:172.513906
;LAYER:7
;TYPE:WALL-OUTER
;MESH:cube (1).stl
EXCLUDE_OBJECT_START NAME=cube_1_stl
G1 F600 X65.201 Y94.799 E0.98443
G1 X94.799 Y94.799 E0.98443
G1 X94.799 Y80 E0.49222
G1 X94.799 Y65.201 E0.49222
G1 X65.201 Y65.201 E0.98443
G0 F18000 X65.201 Y65.401
;MESH:NONMESH
EXCLUDE_OBJECT_END NAME=cube_1_stl
G0 F600 X65.201 Y65.401 Z1.8
G0 F18000 X65.201 Y65.201
