;FLAVOR:RepRap
;TIME:3788
;Filament used: 5.80348m
;Layer height: 0.2
;MINX:21.972
;MINY:27.764
;MINZ:0.2
;MAXX:141.651
;MAXY:130.544
;MAXZ:3.4
;Generated with Cura_SteamEngine 5.2.1
T0


; Pre-Processed for Cancel-Object support by preprocess_cancellation v0.2.0
; 6 known objects
EXCLUDE_OBJECT_DEFINE NAME=EM_Cube_Unlabeled_1_stl_6 CENTER=41.584,47.950 POLYGON=[[26.172,33.132],[26.172,62.732],[55.772,62.732],[55.772,33.132]]
EXCLUDE_OBJECT_DEFINE NAME=EM_Cube_Unlabeled_1_stl_1 CENTER=79.062,46.786 POLYGON=[[63.694,31.987],[63.694,61.587],[93.294,61.587],[93.294,31.987]]
EXCLUDE_OBJECT_DEFINE NAME=EM_Cube_Unlabeled_1_stl_4 CENTER=118.913,46.875 POLYGON=[[103.533,31.964],[103.533,61.564],[133.133,61.564],[133.133,31.964]]
EXCLUDE_OBJECT_DEFINE NAME=EM_Cube_Unlabeled_1_stl_2 CENTER=123.079,110.421 POLYGON=[[107.851,95.487],[107.851,125.087],[137.451,125.087],[137.451,95.487]]
EXCLUDE_OBJECT_DEFINE NAME=EM_Cube_Unlabeled_1_stl_3 CENTER=80.602,111.625 POLYGON=[[65.227,96.744],[65.227,126.344],[94.827,126.344],[94.827,96.744]]
EXCLUDE_OBJECT_DEFINE NAME=EM_Cube_Unlabeled_1_stl_5 CENTER=42.124,109.949 POLYGON=[[26.727,95.144],[26.727,124.744],[56.327,124.744],[56.327,95.144]]
M82 ;absolute extrusion mode
PRINT_START BED=110 EXTRUDER=245 STANDBY=200 CHAMBER=36
M83 ;relative extrusion mode
G1 F7200 E-0.4
;LAYER_COUNT:15
;LAYER:0
M107
G1 F600 Z0.6
G0 F7200 X23.377 Y29.905 Z0.6
;TYPE:SKIRT
G1 F600 Z0.2
G1 F2880 E0.4
G1 F1800 X23.831 Y29.568 E0.01626
G1 X24.328 Y29.299 E0.01626
G1 X24.858 Y29.102 E0.01627
G1 X25.41 Y28.982 E0.01625
G1 X25.869 Y28.943 E0.01325
G1 X26.302 Y28.932 E0.01246
G1 X48.389 Y28.932 E0.63537
G1 X51.189 Y28.892 E0.08055
G1 X53.859 Y28.779 E0.07688
G1 X56.566 Y28.587 E0.07807
G1 X59.316 Y28.315 E0.07949
G1 X62.057 Y27.962 E0.0795
G1 X62.936 Y27.836 E0.02554
G1 X63.392 Y27.798 E0.01316
G1 X63.824 Y27.787 E0.01243
G1 X92.843 Y27.787 E0.83478
G1 X93.558 Y27.797 E0.02057
G1 X94.091 Y27.819 E0.01535
G1 X96.817 Y27.895 E0.07845
G1 X99.56 Y27.895 E0.07891
G1 X102.256 Y27.818 E0.07759
G1 X102.909 Y27.785 E0.01881
G1 X103.663 Y27.764 E0.0217
G1 X132.683 Y27.764 E0.83481
G1 X133.381 Y27.774 E0.02008
G1 X133.945 Y27.822 E0.01628
G1 X134.495 Y27.949 E0.01624
G1 X135.023 Y28.153 E0.01628
G1 X135.517 Y28.428 E0.01626
G1 X135.966 Y28.771 E0.01625
G1 X136.363 Y29.173 E0.01625
G1 X136.7 Y29.628 E0.01629
G1 X136.968 Y30.125 E0.01624
G1 X137.164 Y30.655 E0.01626
G1 X137.284 Y31.208 E0.01628
G1 X137.322 Y31.659 E0.01302
G1 X137.333 Y32.086 E0.01229
G1 X137.333 Y61.115 E0.83507
G1 X137.321 Y61.937 E0.02365
G1 X137.247 Y64.519 E0.07431
G1 X137.247 Y67.265 E0.07899
G1 X137.322 Y69.933 E0.07678
G1 X137.477 Y72.675 E0.079
G1 X137.709 Y75.406 E0.07884
G1 X138.01 Y78.064 E0.07695
G1 X138.391 Y80.745 E0.0779
G1 X138.855 Y83.452 E0.07901
G1 X139.385 Y86.097 E0.0776
G1 X139.989 Y88.729 E0.07768
G1 X140.68 Y91.385 E0.07895
G1 X141.095 Y92.813 E0.04278
G1 X141.119 Y92.923 E0.00324
G1 X141.481 Y94.164 E0.03719
G1 X141.6 Y94.717 E0.01627
G1 X141.639 Y95.165 E0.01294
G1 X141.651 Y95.617 E0.01301
G1 X141.651 Y124.606 E0.83392
G1 X141.641 Y125.333 E0.02092
G1 X141.593 Y125.896 E0.01625
G1 X141.466 Y126.447 E0.01627
G1 X141.263 Y126.975 E0.01627
G1 X140.988 Y127.469 E0.01626
G1 X140.646 Y127.919 E0.01626
G1 X140.243 Y128.316 E0.01627
G1 X139.789 Y128.652 E0.01625
G1 X139.292 Y128.921 E0.01626
G1 X138.762 Y129.118 E0.01627
G1 X138.209 Y129.237 E0.01627
G1 X137.753 Y129.276 E0.01317
G1 X137.321 Y129.287 E0.01243
G1 X110.874 Y129.287 E0.76079
G1 X108.074 Y129.327 E0.08055
G1 X105.404 Y129.44 E0.07688
G1 X102.697 Y129.632 E0.07807
G1 X99.976 Y129.902 E0.07866
G1 X97.26 Y130.249 E0.07877
G1 X95.596 Y130.493 E0.04838
G1 X95.129 Y130.533 E0.01348
G1 X94.697 Y130.544 E0.01243
G1 X65.672 Y130.544 E0.83495
G1 X64.962 Y130.533 E0.02043
G1 X64.405 Y130.485 E0.01608
G1 X63.837 Y130.395 E0.01654
G1 X62.136 Y130.103 E0.04965
G1 X59.428 Y129.718 E0.07868
G1 X56.774 Y129.417 E0.07684
G1 X54.031 Y129.184 E0.07919
G1 X51.326 Y129.031 E0.07794
G1 X47.223 Y128.944 E0.11806
G1 X27.177 Y128.944 E0.57666
G1 X26.479 Y128.934 E0.02008
G1 X25.915 Y128.886 E0.01628
G1 X25.365 Y128.759 E0.01624
G1 X24.837 Y128.555 E0.01628
G1 X24.343 Y128.28 E0.01626
G1 X23.894 Y127.937 E0.01625
G1 X23.497 Y127.535 E0.01625
G1 X23.16 Y127.08 E0.01629
G1 X22.892 Y126.583 E0.01624
G1 X22.696 Y126.053 E0.01626
G1 X22.576 Y125.5 E0.01628
G1 X22.537 Y125.042 E0.01322
G1 X22.528 Y124.71 E0.00955
G1 X22.527 Y95.59 E0.83769
G1 X22.538 Y94.873 E0.02063
G1 X22.572 Y94.41 E0.01335
G1 X22.777 Y92.858 E0.04503
G1 X23.085 Y90.165 E0.07797
G1 X23.315 Y87.468 E0.07787
G1 X23.471 Y84.762 E0.07797
G1 X23.548 Y82.057 E0.07785
G1 X23.55 Y79.314 E0.07891
G1 X23.475 Y76.64 E0.07695
G1 X23.322 Y73.899 E0.07897
G1 X23.095 Y71.206 E0.07774
G1 X22.785 Y68.476 E0.07904
G1 X22.414 Y65.853 E0.07621
G1 X22.035 Y63.58 E0.06629
G1 X21.983 Y63.034 E0.01578
G1 X21.972 Y62.602 E0.01243
G1 X21.972 Y33.578 E0.83492
G1 X21.981 Y32.889 E0.01982
G1 X22.029 Y32.325 E0.01628
G1 X22.155 Y31.774 E0.01626
G1 X22.358 Y31.247 E0.01625
G1 X22.633 Y30.753 E0.01626
G1 X22.975 Y30.303 E0.01626
G1 X23.377 Y29.905 E0.01627
G0 F7200 X23.765 Y30.104
G1 F1800 X24.211 Y29.806 E0.01543
G1 X24.696 Y29.578 E0.01542
G1 X25.21 Y29.424 E0.01544
G1 X25.88 Y29.342 E0.01942
G1 X26.201 Y29.333 E0.00924
G1 X48.395 Y29.332 E0.63845
G1 X51.176 Y29.293 E0.08001
G1 X53.904 Y29.177 E0.07855
G1 X56.633 Y28.983 E0.0787
G1 X59.301 Y28.719 E0.07712
G1 X62.136 Y28.355 E0.08222
G1 X62.993 Y28.232 E0.02491
G1 X63.403 Y28.197 E0.01184
G1 X63.723 Y28.188 E0.00921
G1 X92.837 Y28.187 E0.83751
G1 X93.655 Y28.2 E0.02353
G1 X96.842 Y28.295 E0.09172
G1 X99.536 Y28.295 E0.0775
G1 X102.33 Y28.215 E0.08041
G1 X102.929 Y28.185 E0.01725
G1 X103.663 Y28.164 E0.02112
G1 X132.678 Y28.164 E0.83467
G1 X133.376 Y28.174 E0.02008
G1 X133.91 Y28.222 E0.01542
G1 X134.431 Y28.348 E0.01542
G1 X134.928 Y28.551 E0.01544
G1 X135.389 Y28.825 E0.01543
G1 X135.804 Y29.164 E0.01541
G1 X136.164 Y29.562 E0.01544
G1 X136.461 Y30.008 E0.01541
G1 X136.689 Y30.494 E0.01544
G1 X136.841 Y31.008 E0.01542
G1 X136.923 Y31.67 E0.01919
G1 X136.932 Y31.982 E0.00898
G1 X136.933 Y61.11 E0.83792
G1 X136.92 Y61.982 E0.02509
G1 X136.847 Y64.543 E0.0737
G1 X136.847 Y67.24 E0.07758
G1 X136.924 Y70.001 E0.07946
G1 X137.077 Y72.697 E0.07768
G1 X137.307 Y75.414 E0.07844
G1 X137.616 Y78.134 E0.07875
G1 X138 Y80.833 E0.07842
G1 X138.455 Y83.493 E0.07763
G1 X138.995 Y86.186 E0.07901
G1 X139.599 Y88.822 E0.07779
G1 X140.295 Y91.492 E0.07937
G1 X140.711 Y92.925 E0.04292
G1 X140.733 Y93.03 E0.00309
G1 X141.097 Y94.276 E0.03734
G1 X141.208 Y94.801 E0.01544
G1 X141.239 Y95.177 E0.01085
G1 X141.251 Y95.617 E0.01266
G1 X141.251 Y124.601 E0.83377
G1 X141.241 Y125.328 E0.02092
G1 X141.193 Y125.862 E0.01542
G1 X141.067 Y126.383 E0.01542
G1 X140.865 Y126.88 E0.01543
G1 X140.591 Y127.341 E0.01543
G1 X140.252 Y127.756 E0.01541
G1 X139.855 Y128.117 E0.01544
G1 X139.409 Y128.414 E0.01541
G1 X138.923 Y128.642 E0.01544
G1 X138.409 Y128.795 E0.01543
G1 X137.742 Y128.877 E0.01933
G1 X137.422 Y128.886 E0.00921
G1 X110.868 Y128.887 E0.76387
G1 X108.087 Y128.926 E0.08001
G1 X105.359 Y129.042 E0.07855
G1 X102.63 Y129.236 E0.0787
G1 X99.953 Y129.501 E0.07738
G1 X97.207 Y129.852 E0.07964
G1 X95.538 Y130.097 E0.04853
G1 X95.118 Y130.134 E0.01213
G1 X94.799 Y130.143 E0.00918
G1 X65.678 Y130.144 E0.83771
G1 X64.968 Y130.133 E0.02043
G1 X64.467 Y130.09 E0.01447
G1 X63.905 Y130.001 E0.01637
G1 X62.194 Y129.708 E0.04994
G1 X59.493 Y129.324 E0.07848
G1 X56.781 Y129.016 E0.07852
G1 X54.052 Y128.783 E0.07879
G1 X51.358 Y128.632 E0.07762
G1 X47.231 Y128.544 E0.11875
G1 X27.182 Y128.544 E0.57674
G1 X26.484 Y128.534 E0.02008
G1 X25.95 Y128.486 E0.01542
G1 X25.429 Y128.36 E0.01542
G1 X24.932 Y128.157 E0.01544
G1 X24.471 Y127.883 E0.01543
G1 X24.056 Y127.544 E0.01541
G1 X23.696 Y127.146 E0.01544
G1 X23.399 Y126.7 E0.01541
G1 X23.171 Y126.214 E0.01544
G1 X23.019 Y125.7 E0.01542
G1 X22.937 Y125.032 E0.01936
G1 X22.928 Y124.7 E0.00955
G1 X22.927 Y95.596 E0.83723
G1 X22.938 Y94.879 E0.02063
G1 X22.969 Y94.463 E0.012
G1 X23.167 Y92.962 E0.04355
G1 X23.482 Y90.208 E0.07974
G1 X23.714 Y87.489 E0.0785
G1 X23.869 Y84.796 E0.0776
G1 X23.948 Y82.033 E0.07951
G1 X23.95 Y79.339 E0.0775
G1 X23.873 Y76.569 E0.07971
G1 X23.722 Y73.882 E0.07742
G1 X23.493 Y71.161 E0.07855
G1 X23.185 Y68.441 E0.07875
G1 X22.805 Y65.76 E0.07789
G1 X22.43 Y63.514 E0.0655
G1 X22.382 Y63.023 E0.01419
G1 X22.373 Y62.703 E0.00921
G1 X22.372 Y33.583 E0.83769
G1 X22.381 Y32.894 E0.01982
G1 X22.428 Y32.36 E0.01542
G1 X22.554 Y31.838 E0.01545
G1 X22.756 Y31.342 E0.01541
G1 X23.029 Y30.88 E0.01544
G1 X23.368 Y30.465 E0.01541
G1 X23.765 Y30.104 E0.01544
G0 F7200 X24.151 Y30.316
G1 F1800 X24.587 Y30.06 E0.01454
G1 X25.058 Y29.877 E0.01454
G1 X25.552 Y29.77 E0.01454
G1 X25.891 Y29.742 E0.00979
G1 X26.212 Y29.733 E0.00924
G1 X48.401 Y29.732 E0.6383
G1 X51.198 Y29.692 E0.08047
G1 X53.915 Y29.577 E0.07823
G1 X56.661 Y29.382 E0.07919
G1 X59.358 Y29.115 E0.07796
G1 X62.177 Y28.753 E0.08176
G1 X63.05 Y28.628 E0.02537
G1 X63.414 Y28.597 E0.01051
G1 X63.734 Y28.588 E0.00921
G1 X92.832 Y28.587 E0.83705
G1 X93.547 Y28.597 E0.02057
G1 X94.039 Y28.617 E0.01416
G1 X96.83 Y28.695 E0.08032
G1 X99.547 Y28.695 E0.07816
G1 X102.319 Y28.616 E0.07977
G1 X103.017 Y28.581 E0.0201
G1 X103.57 Y28.565 E0.01591
G1 X132.672 Y28.564 E0.83717
G1 X133.37 Y28.574 E0.02008
G1 X133.873 Y28.621 E0.01453
G1 X134.363 Y28.747 E0.01455
G1 X134.827 Y28.949 E0.01456
G1 X135.253 Y29.221 E0.01454
G1 X135.631 Y29.556 E0.01453
G1 X135.951 Y29.947 E0.01453
G1 X136.206 Y30.384 E0.01455
G1 X136.389 Y30.855 E0.01454
G1 X136.496 Y31.349 E0.01454
G1 X136.523 Y31.682 E0.00961
G1 X136.532 Y31.994 E0.00898
G1 X136.533 Y61.104 E0.8374
G1 X136.52 Y61.97 E0.02491
G1 X136.447 Y64.531 E0.0737
G1 X136.447 Y67.252 E0.07827
G1 X136.524 Y70 E0.07908
G1 X136.678 Y72.718 E0.07831
G1 X136.91 Y75.457 E0.07907
G1 X137.221 Y78.198 E0.07936
G1 X137.603 Y80.885 E0.07807
G1 X138.062 Y83.567 E0.07827
G1 X138.606 Y86.282 E0.07965
G1 X139.21 Y88.915 E0.07771
G1 X139.91 Y91.599 E0.07979
G1 X140.327 Y93.037 E0.04307
G1 X140.347 Y93.135 E0.00288
G1 X140.713 Y94.388 E0.03755
G1 X140.816 Y94.883 E0.01454
G1 X140.84 Y95.189 E0.00883
G1 X140.85 Y95.521 E0.00955
G1 X140.851 Y124.595 E0.83636
G1 X140.841 Y125.322 E0.02092
G1 X140.794 Y125.825 E0.01453
G1 X140.668 Y126.315 E0.01455
G1 X140.467 Y126.779 E0.01455
G1 X140.195 Y127.205 E0.01454
G1 X139.86 Y127.584 E0.01455
G1 X139.469 Y127.904 E0.01453
G1 X139.033 Y128.159 E0.01453
G1 X138.562 Y128.343 E0.01455
G1 X138.067 Y128.449 E0.01456
G1 X137.731 Y128.477 E0.0097
G1 X137.411 Y128.486 E0.00921
G1 X110.862 Y128.487 E0.76373
G1 X108.065 Y128.527 E0.08047
G1 X105.348 Y128.642 E0.07823
G1 X102.602 Y128.837 E0.07919
G1 X99.896 Y129.105 E0.07822
G1 X97.155 Y129.456 E0.07949
G1 X95.48 Y129.701 E0.0487
G1 X95.106 Y129.734 E0.0108
G1 X94.787 Y129.743 E0.00918
G1 X65.684 Y129.744 E0.8372
G1 X64.974 Y129.733 E0.02043
G1 X64.529 Y129.694 E0.01285
G1 X63.972 Y129.607 E0.01622
G1 X62.241 Y129.31 E0.05052
G1 X59.562 Y128.929 E0.07784
G1 X56.789 Y128.615 E0.08028
G1 X54.109 Y128.386 E0.07738
G1 X51.359 Y128.232 E0.07923
G1 X47.24 Y128.144 E0.11852
G1 X27.188 Y128.144 E0.57683
G1 X26.49 Y128.134 E0.02008
G1 X25.987 Y128.087 E0.01453
G1 X25.497 Y127.961 E0.01455
G1 X25.033 Y127.759 E0.01456
G1 X24.607 Y127.487 E0.01454
G1 X24.229 Y127.152 E0.01453
G1 X23.909 Y126.761 E0.01453
G1 X23.654 Y126.324 E0.01455
G1 X23.471 Y125.853 E0.01454
G1 X23.364 Y125.359 E0.01454
G1 X23.337 Y125.021 E0.00975
G1 X23.328 Y124.689 E0.00955
G1 X23.327 Y95.602 E0.83674
G1 X23.338 Y94.885 E0.02063
G1 X23.366 Y94.515 E0.01067
G1 X23.567 Y92.997 E0.04405
G1 X23.88 Y90.254 E0.07942
G1 X24.111 Y87.545 E0.07821
G1 X24.269 Y84.796 E0.07921
G1 X24.348 Y82.045 E0.07917
G1 X24.35 Y79.327 E0.07819
G1 X24.273 Y76.573 E0.07925
G1 X24.121 Y73.859 E0.0782
G1 X23.89 Y71.118 E0.07913
G1 X23.579 Y68.377 E0.07936
G1 X23.197 Y65.678 E0.07842
G1 X22.825 Y63.448 E0.06504
G1 X22.782 Y63.012 E0.0126
G1 X22.773 Y62.692 E0.00921
G1 X22.772 Y33.588 E0.83723
G1 X22.781 Y32.899 E0.01982
G1 X22.828 Y32.396 E0.01453
G1 X22.953 Y31.906 E0.01455
G1 X23.154 Y31.442 E0.01455
G1 X23.425 Y31.015 E0.01455
G1 X23.76 Y30.637 E0.01453
G1 X24.151 Y30.316 E0.01455
G1 F7200 E-0.4
G1 F600 Z0.6
;MESH:EM_Cube-Unlabeled (1).stl(6)
EXCLUDE_OBJECT_START NAME=EM_Cube_Unlabeled_1_stl_6
G0 F7200 X27.372 Y34.332 Z0.6
;TYPE:WALL-INNER
G1 F600 Z0.2
G1 F2880 E0.4
G1 F1800 X27.372 Y61.532 E0.79928
G1 X54.572 Y61.532 E0.79928
G1 X54.572 Y47.932 E0.39964
G1 X54.572 Y34.332 E0.39964
G1 X27.372 Y34.332 E0.79928
G0 F7200 X26.972 Y33.932
G1 F1800 X26.972 Y61.932 E0.82279
G1 X54.972 Y61.932 E0.82279
G1 X54.972 Y47.932 E0.41139
G1 X54.972 Y33.932 E0.41139
G1 X26.972 Y33.932 E0.82279
G0 F7200 X26.572 Y33.532
G1 F1800 X26.572 Y62.332 E0.8463
G1 X55.372 Y62.332 E0.8463
G1 X55.372 Y47.932 E0.42315
G1 X55.372 Y33.532 E0.42315
G1 X26.572 Y33.532 E0.8463
G0 F7200 X26.172 Y33.132
;TYPE:WALL-OUTER
G1 F1800 X26.172 Y62.732 E0.86981
G1 X55.772 Y62.732 E0.86981
G1 X55.772 Y47.932 E0.4349
G1 X55.772 Y33.132 E0.4349
G1 X26.172 Y33.132 E0.86981
G0 F7200 X26.172 Y33.332
G0 X26.842 Y33.802
G0 X27.472 Y34.712
G0 X27.752 Y34.712
;TYPE:SKIN
G1 F1800 X27.752 Y61.152 E0.77695
G1 X54.192 Y61.152 E0.77695
G1 X54.192 Y47.932 E0.38847
G1 X54.192 Y34.712 E0.38847
G1 X27.752 Y34.712 E0.77695
G1 F7200 E-0.4
G0 X27.472 Y34.712
G0 X27.544 Y34.504
G0 X54.4 Y34.504
G0 X54.472 Y35.324
G1 F2880 E0.4
G0 F7200 X53.991 Y35.324
G1 F1800 X53.579 Y34.911 E0.01714
G0 F7200 X53.013 Y34.911
G1 F1800 X53.991 Y35.889 E0.04064
G0 F7200 X53.991 Y36.455
G1 F1800 X52.448 Y34.911 E0.06414
G0 F7200 X51.882 Y34.911
G1 F1800 X53.991 Y37.021 E0.08766
G0 F7200 X53.991 Y37.586
G1 F1800 X51.316 Y34.911 E0.11117
G0 F7200 X50.751 Y34.911
G1 F1800 X53.991 Y38.152 E0.13467
G0 F7200 X53.991 Y38.718
G1 F1800 X50.185 Y34.911 E0.15819
G0 F7200 X49.619 Y34.911
G1 F1800 X53.991 Y39.284 E0.18171
G0 F7200 X53.991 Y39.849
G1 F1800 X49.054 Y34.911 E0.20519
G0 F7200 X48.488 Y34.911
G1 F1800 X53.991 Y40.415 E0.22871
G0 F7200 X53.991 Y40.981
G1 F1800 X47.922 Y34.911 E0.25223
G0 F7200 X47.357 Y34.911
G1 F1800 X53.991 Y41.546 E0.27571
G0 F7200 X53.991 Y42.112
G1 F1800 X46.791 Y34.911 E0.29923
G0 F7200 X46.225 Y34.911
G1 F1800 X53.991 Y42.678 E0.32275
G0 F7200 X53.991 Y43.243
G1 F1800 X45.66 Y34.911 E0.34623
G0 F7200 X45.094 Y34.911
G1 F1800 X53.991 Y43.809 E0.36975
G0 F7200 X53.991 Y44.375
G1 F1800 X44.528 Y34.911 E0.39328
G0 F7200 X43.962 Y34.911
G1 F1800 X53.991 Y44.94 E0.41678
G0 F7200 X53.991 Y45.506
G1 F1800 X43.397 Y34.911 E0.44028
G0 F7200 X42.831 Y34.911
G1 F1800 X53.991 Y46.072 E0.4638
G0 F7200 X53.991 Y46.637
G1 F1800 X42.265 Y34.911 E0.4873
G0 F7200 X41.7 Y34.911
G1 F1800 X53.991 Y47.203 E0.5108
G0 F7200 X53.991 Y47.769
G1 F1800 X41.134 Y34.911 E0.53432
G0 F7200 X40.568 Y34.911
G1 F1800 X53.991 Y48.334 E0.55782
G0 F7200 X53.991 Y48.9
G1 F1800 X40.003 Y34.911 E0.58132
G0 F7200 X39.437 Y34.911
G1 F1800 X53.991 Y49.466 E0.60484
G0 F7200 X53.991 Y50.032
G1 F1800 X38.871 Y34.911 E0.62836
G0 F7200 X38.306 Y34.911
G1 F1800 X53.991 Y50.597 E0.65184
G0 F7200 X53.991 Y51.163
G1 F1800 X37.74 Y34.911 E0.67537
G0 F7200 X37.174 Y34.911
G1 F1800 X53.991 Y51.729 E0.69889
G0 F7200 X53.991 Y52.294
G1 F1800 X36.609 Y34.911 E0.72237
G0 F7200 X36.043 Y34.911
G1 F1800 X53.991 Y52.86 E0.74589
G0 F7200 X53.991 Y53.426
G1 F1800 X35.477 Y34.911 E0.76941
G0 F7200 X34.911 Y34.911
G1 F1800 X53.991 Y53.991 E0.79291
G0 F7200 X53.991 Y54.557
G1 F1800 X34.346 Y34.911 E0.81641
G0 F7200 X33.78 Y34.911
G1 F1800 X53.991 Y55.123 E0.83993
G0 F7200 X53.991 Y55.688
G1 F1800 X33.214 Y34.911 E0.86343
G0 F7200 X32.649 Y34.911
G1 F1800 X53.991 Y56.254 E0.88693
G0 F7200 X53.991 Y56.82
G1 F1800 X32.083 Y34.911 E0.91045
G0 F7200 X31.517 Y34.911
G1 F1800 X53.991 Y57.385 E0.93395
G0 F7200 X53.991 Y57.951
G1 F1800 X30.952 Y34.911 E0.95746
G0 F7200 X30.386 Y34.911
G1 F1800 X53.991 Y58.517 E0.98098
G0 F7200 X53.991 Y59.083
G1 F1800 X29.82 Y34.911 E1.0045
G0 F7200 X29.255 Y34.911
G1 F1800 X53.991 Y59.648 E1.02798
G0 F7200 X53.991 Y60.214
