;FLAVOR:RepRap
;TIME:4536
;Filament used: 6.84413m
;Layer height: 0.2
;MINX:29.5
;MINY:29.5
;MINZ:0.2
;MAXX:130.5
;MAXY:130.5
;MAXZ:3.4
;Generated with Cura_SteamEngine 5.2.1
T0


; Pre-Processed for Cancel-Object support by preprocess_cancellation v0.2.0
; 7 known objects
EXCLUDE_OBJECT_DEFINE NAME=EM_Cube_0_970_stl CENTER=48.983,79.816 POLYGON=[[33.7,65.2],[33.7,94.8],[63.3,94.8],[63.3,65.2]]
EXCLUDE_OBJECT_DEFINE NAME=EM_Cube_0_980_stl CENTER=80.104,80.107 POLYGON=[[65.2,65.2],[65.2,94.8],[94.8,94.8],[94.8,65.2]]
EXCLUDE_OBJECT_DEFINE NAME=EM_Cube_0_960_1_stl CENTER=80.398,111.447 POLYGON=[[65.2,96.7],[65.2,126.3],[94.8,126.3],[94.8,96.7]]
EXCLUDE_OBJECT_DEFINE NAME=EM_Cube_0_930_1_stl CENTER=111.862,111.677 POLYGON=[[96.7,96.7],[96.7,126.3],[126.3,126.3],[126.3,96.7]]
EXCLUDE_OBJECT_DEFINE NAME=EM_Cube_0_940_2_stl CENTER=111.961,79.896 POLYGON=[[96.7,65.2],[96.7,94.8],[126.3,94.8],[126.3,65.2]]
EXCLUDE_OBJECT_DEFINE NAME=EM_Cube_0_950_1_stl CENTER=80.412,48.377 POLYGON=[[65.2,33.7],[65.2,63.3],[94.8,63.3],[94.8,33.7]]
EXCLUDE_OBJECT_DEFINE NAME=EM_Cube_0_920_1_stl CENTER=48.861,111.786 POLYGON=[[33.7,96.7],[33.7,126.3],[63.3,126.3],[63.3,96.7]]
M82 ;absolute extrusion mode
PRINT_START BED=110 EXTRUDER=245 STANDBY=200 CHAMBER=36
M83 ;relative extrusion mode
G1 F7200 E-0.4
;LAYER_COUNT:15
;LAYER:0
M107
G1 F600 Z0.6
G0 F7200 X48.696 Y47.706 Z0.6
;TYPE:SKIRT
G1 F600 Z0.2
G1 F2880 E0.4
G1 F1800 X50.583 Y45.736 E0.07847
G1 X52.396 Y43.733 E0.07772
G1 X54.177 Y41.649 E0.07886
G1 X55.865 Y39.556 E0.07735
G1 X57.519 Y37.383 E0.07856
G1 X59.087 Y35.198 E0.07737
G1 X60.641 Y32.9 E0.0798
G1 X61.198 Y32.021 E0.02994
G1 X61.668 Y31.308 E0.02457
G1 X62.012 Y30.859 E0.01627
G1 X62.416 Y30.463 E0.01627
G1 X62.871 Y30.128 E0.01625
G1 X63.369 Y29.86 E0.01627
G1 X63.9 Y29.666 E0.01626
G1 X64.453 Y29.548 E0.01627
G1 X64.896 Y29.511 E0.01279
G1 X65.33 Y29.5 E0.01249
G1 X94.35 Y29.5 E0.83481
G1 X95.052 Y29.51 E0.0202
G1 X95.615 Y29.558 E0.01625
G1 X96.166 Y29.685 E0.01627
G1 X96.694 Y29.889 E0.01628
G1 X97.187 Y30.164 E0.01624
G1 X97.637 Y30.507 E0.01628
G1 X98.034 Y30.909 E0.01625
G1 X98.37 Y31.363 E0.01625
G1 X98.644 Y31.794 E0.01469
G1 X100.17 Y34.122 E0.08007
G1 X101.715 Y36.336 E0.07766
G1 X103.335 Y38.524 E0.07832
G1 X105.01 Y40.659 E0.07806
G1 X106.734 Y42.732 E0.07756
G1 X108.554 Y44.798 E0.0792
G1 X110.38 Y46.757 E0.07704
G1 X112.294 Y48.696 E0.07838
G1 X114.263 Y50.582 E0.07843
G1 X116.267 Y52.396 E0.07776
G1 X118.351 Y54.177 E0.07886
G1 X120.444 Y55.865 E0.07735
G1 X122.617 Y57.519 E0.07856
G1 X124.818 Y59.099 E0.07794
G1 X127.069 Y60.62 E0.07815
G1 X127.943 Y61.175 E0.02978
G1 X128.683 Y61.66 E0.02545
G1 X129.132 Y62.002 E0.01624
G1 X129.529 Y62.405 E0.01627
G1 X129.866 Y62.859 E0.01626
G1 X130.134 Y63.356 E0.01624
G1 X130.33 Y63.887 E0.01628
G1 X130.45 Y64.439 E0.01625
G1 X130.488 Y64.882 E0.01279
G1 X130.5 Y65.33 E0.01289
G1 X130.5 Y125.814 E1.73992
G1 X130.491 Y126.541 E0.02091
G1 X130.444 Y127.104 E0.01625
G1 X130.318 Y127.655 E0.01626
G1 X130.116 Y128.183 E0.01626
G1 X129.841 Y128.677 E0.01626
G1 X129.499 Y129.127 E0.01626
G1 X129.097 Y129.525 E0.01627
G1 X128.644 Y129.862 E0.01624
G1 X128.147 Y130.132 E0.01627
G1 X127.617 Y130.329 E0.01627
G1 X127.065 Y130.45 E0.01626
G1 X126.603 Y130.489 E0.01334
G1 X126.17 Y130.5 E0.01246
G1 X34.155 Y130.5 E2.64697
G1 X33.457 Y130.491 E0.02008
G1 X32.894 Y130.443 E0.01625
G1 X32.343 Y130.317 E0.01626
G1 X31.815 Y130.115 E0.01626
G1 X31.321 Y129.84 E0.01626
G1 X30.871 Y129.498 E0.01626
G1 X30.473 Y129.096 E0.01627
G1 X30.137 Y128.642 E0.01625
G1 X29.867 Y128.145 E0.01627
G1 X29.67 Y127.615 E0.01627
G1 X29.55 Y127.063 E0.01625
G1 X29.51 Y126.599 E0.0134
G1 X29.501 Y126.266 E0.00958
G1 X29.5 Y65.65 E1.74372
G1 X29.51 Y64.948 E0.0202
G1 X29.558 Y64.385 E0.01625
G1 X29.685 Y63.834 E0.01627
G1 X29.889 Y63.306 E0.01628
G1 X30.164 Y62.813 E0.01624
G1 X30.507 Y62.363 E0.01628
G1 X30.909 Y61.966 E0.01625
G1 X31.363 Y61.63 E0.01625
G1 X31.799 Y61.352 E0.01487
G1 X34.122 Y59.83 E0.07989
G1 X36.318 Y58.297 E0.07704
G1 X38.542 Y56.651 E0.07959
G1 X40.659 Y54.99 E0.07741
G1 X42.733 Y53.265 E0.0776
G1 X44.798 Y51.446 E0.07916
G1 X46.758 Y49.619 E0.07708
G1 X48.696 Y47.706 E0.07834
G0 F7200 X48.983 Y47.984
G1 F1800 X50.869 Y46.015 E0.07843
G1 X52.696 Y43.997 E0.07831
G1 X54.476 Y41.914 E0.07882
G1 X56.192 Y39.787 E0.07862
G1 X57.834 Y37.63 E0.07798
G1 X59.428 Y35.409 E0.07864
G1 X60.952 Y33.155 E0.07827
G1 X61.532 Y32.241 E0.03114
G1 X62.002 Y31.528 E0.02457
G1 X62.33 Y31.103 E0.01544
G1 X62.717 Y30.732 E0.01542
G1 X63.155 Y30.422 E0.01544
G1 X63.634 Y30.181 E0.01543
G1 X64.144 Y30.014 E0.01544
G1 X64.907 Y29.91 E0.02215
G1 X65.229 Y29.901 E0.00927
G1 X94.344 Y29.9 E0.83754
G1 X95.046 Y29.91 E0.0202
G1 X95.58 Y29.958 E0.01542
G1 X96.102 Y30.084 E0.01545
G1 X96.598 Y30.287 E0.01542
G1 X97.059 Y30.561 E0.01543
G1 X97.475 Y30.9 E0.01544
G1 X97.835 Y31.297 E0.01542
G1 X98.033 Y31.578 E0.00989
G1 X98.337 Y32.056 E0.0163
G1 X99.824 Y34.324 E0.07802
G1 X101.397 Y36.58 E0.07912
G1 X103.014 Y38.764 E0.07817
G1 X104.687 Y40.895 E0.07794
G1 X106.443 Y43.007 E0.07901
G1 X108.244 Y45.052 E0.07839
G1 X110.103 Y47.046 E0.07842
G1 X112.016 Y48.983 E0.07831
G1 X113.984 Y50.868 E0.07839
G1 X116.003 Y52.696 E0.07835
G1 X118.086 Y54.476 E0.07882
G1 X120.213 Y56.192 E0.07862
G1 X122.37 Y57.834 E0.07798
G1 X124.608 Y59.44 E0.07924
G1 X126.836 Y60.946 E0.07736
G1 X127.723 Y61.509 E0.03022
G1 X128.463 Y61.994 E0.02545
G1 X128.889 Y62.321 E0.01545
G1 X129.261 Y62.707 E0.01542
G1 X129.572 Y63.144 E0.01543
G1 X129.814 Y63.622 E0.01541
G1 X129.982 Y64.131 E0.01542
G1 X130.088 Y64.894 E0.02216
G1 X130.1 Y65.33 E0.01255
G1 X130.1 Y125.809 E1.73978
G1 X130.091 Y126.536 E0.02091
G1 X130.044 Y127.07 E0.01542
G1 X129.919 Y127.591 E0.01541
G1 X129.717 Y128.088 E0.01543
G1 X129.444 Y128.55 E0.01544
G1 X129.106 Y128.966 E0.01542
G1 X128.709 Y129.327 E0.01544
G1 X128.263 Y129.625 E0.01543
G1 X127.778 Y129.853 E0.01542
G1 X127.264 Y130.007 E0.01544
G1 X126.592 Y130.09 E0.01948
G1 X126.271 Y130.099 E0.00924
G1 X34.161 Y130.1 E2.6497
G1 X33.463 Y130.091 E0.02008
G1 X32.928 Y130.044 E0.01545
G1 X32.407 Y129.918 E0.01542
G1 X31.91 Y129.716 E0.01543
G1 X31.449 Y129.443 E0.01541
G1 X31.033 Y129.104 E0.01544
G1 X30.672 Y128.708 E0.01541
G1 X30.374 Y128.262 E0.01543
G1 X30.146 Y127.776 E0.01544
G1 X29.993 Y127.262 E0.01543
G1 X29.91 Y126.588 E0.01954
G1 X29.901 Y126.255 E0.00958
G1 X29.9 Y65.656 E1.74323
G1 X29.91 Y64.954 E0.0202
G1 X29.958 Y64.42 E0.01542
G1 X30.084 Y63.898 E0.01545
G1 X30.287 Y63.402 E0.01542
G1 X30.561 Y62.941 E0.01543
G1 X30.9 Y62.525 E0.01544
G1 X31.297 Y62.165 E0.01542
G1 X31.578 Y61.967 E0.00989
G1 X32.056 Y61.663 E0.0163
G1 X34.324 Y60.176 E0.07802
G1 X36.58 Y58.603 E0.07912
G1 X38.765 Y56.985 E0.07821
G1 X40.895 Y55.313 E0.0779
G1 X43.008 Y53.556 E0.07905
G1 X45.052 Y51.756 E0.07835
G1 X47.047 Y49.896 E0.07846
G1 X48.983 Y47.984 E0.07827
G0 F7200 X49.27 Y48.262
G1 F1800 X51.17 Y46.279 E0.079
G1 X52.997 Y44.26 E0.07833
G1 X54.793 Y42.159 E0.07951
G1 X56.507 Y40.035 E0.07851
G1 X58.158 Y37.866 E0.07841
G1 X59.752 Y35.645 E0.07864
G1 X61.283 Y33.379 E0.07867
G1 X61.866 Y32.461 E0.03128
G1 X62.336 Y31.748 E0.02457
G1 X62.647 Y31.349 E0.01455
G1 X63.017 Y31.004 E0.01455
G1 X63.436 Y30.722 E0.01453
G1 X63.895 Y30.509 E0.01456
G1 X64.381 Y30.371 E0.01453
G1 X64.919 Y30.31 E0.01558
G1 X65.241 Y30.301 E0.00927
G1 X94.339 Y30.3 E0.83705
G1 X95.041 Y30.31 E0.0202
G1 X95.544 Y30.357 E0.01453
G1 X96.034 Y30.483 E0.01455
G1 X96.497 Y30.685 E0.01453
G1 X96.924 Y30.956 E0.01455
G1 X97.302 Y31.292 E0.01455
G1 X97.695 Y31.793 E0.01832
G1 X97.975 Y32.233 E0.015
G1 X99.494 Y34.55 E0.0797
G1 X101.076 Y36.818 E0.07955
G1 X102.711 Y39.026 E0.07904
G1 X104.38 Y41.152 E0.07775
G1 X106.136 Y43.264 E0.07901
G1 X107.934 Y45.305 E0.07825
G1 X109.808 Y47.316 E0.07907
G1 X111.738 Y49.27 E0.07901
G1 X113.739 Y51.188 E0.07973
G1 X115.72 Y52.98 E0.07684
G1 X117.841 Y54.793 E0.08027
G1 X119.965 Y56.507 E0.07851
G1 X122.134 Y58.158 E0.07841
G1 X124.355 Y59.751 E0.07863
G1 X126.619 Y61.282 E0.07862
G1 X127.504 Y61.844 E0.03016
G1 X128.244 Y62.329 E0.02545
G1 X128.644 Y62.638 E0.01454
G1 X128.99 Y63.007 E0.01455
G1 X129.273 Y63.426 E0.01454
G1 X129.487 Y63.884 E0.01454
G1 X129.626 Y64.37 E0.01454
G1 X129.688 Y64.907 E0.01555
G1 X129.7 Y65.33 E0.01217
G1 X129.7 Y125.804 E1.73964
G1 X129.691 Y126.531 E0.02091
G1 X129.645 Y127.034 E0.01453
G1 X129.52 Y127.524 E0.01455
G1 X129.319 Y127.988 E0.01455
G1 X129.048 Y128.415 E0.01455
G1 X128.713 Y128.794 E0.01455
G1 X128.323 Y129.115 E0.01453
G1 X127.887 Y129.371 E0.01454
G1 X127.416 Y129.554 E0.01454
G1 X126.922 Y129.662 E0.01455
G1 X126.581 Y129.69 E0.00984
G1 X126.26 Y129.699 E0.00924
G1 X34.166 Y129.7 E2.64924
G1 X33.468 Y129.691 E0.02008
G1 X32.964 Y129.644 E0.01456
G1 X32.474 Y129.519 E0.01455
G1 X32.01 Y129.318 E0.01455
G1 X31.584 Y129.047 E0.01452
G1 X31.205 Y128.712 E0.01455
G1 X30.884 Y128.321 E0.01455
G1 X30.629 Y127.885 E0.01453
G1 X30.445 Y127.414 E0.01455
G1 X30.338 Y126.92 E0.01454
G1 X30.31 Y126.577 E0.0099
G1 X30.301 Y126.244 E0.00958
G1 X30.3 Y65.661 E1.74277
G1 X30.31 Y64.959 E0.0202
G1 X30.357 Y64.456 E0.01453
G1 X30.483 Y63.966 E0.01455
G1 X30.685 Y63.503 E0.01453
G1 X30.956 Y63.076 E0.01455
G1 X31.292 Y62.698 E0.01455
G1 X31.793 Y62.305 E0.01832
G1 X32.233 Y62.025 E0.015
G1 X34.55 Y60.506 E0.0797
G1 X36.817 Y58.924 E0.07952
G1 X39.004 Y57.305 E0.07828
G1 X41.174 Y55.603 E0.07933
G1 X43.265 Y53.863 E0.07825
G1 X45.305 Y52.066 E0.07821
G1 X47.317 Y50.191 E0.07912
G1 X49.27 Y48.262 E0.07897
G1 F7200 E-0.4
G1 F600 Z0.6
;MESH:EM_Cube-0.970.stl
EXCLUDE_OBJECT_START NAME=EM_Cube_0_970_stl
G0 F7200 X43.787 Y75.597 Z0.6
;TYPE:WALL-INNER
G1 F600 Z0.2
G1 F2880 E0.4
G1 F1800 X43.886 Y75.537 E0.00347
G1 X44.085 Y75.434 E0.00672
G1 X44.332 Y75.349 E0.00784
G1 X44.535 Y75.303 E0.00625
G1 X44.783 Y75.277 E0.00748
G1 X44.904 Y75.272 E0.00363
G1 X45.175 Y75.292 E0.00815
G1 X45.407 Y75.337 E0.00709
G1 X45.677 Y75.423 E0.0085
G1 X45.792 Y75.478 E0.00382
G1 X46.008 Y75.606 E0.00753
G1 X46.094 Y75.667 E0.00316
G1 X46.249 Y75.797 E0.00607
G1 X46.41 Y75.961 E0.0069
G1 X46.475 Y76.047 E0.00323
G1 X46.656 Y76.351 E0.01062
G1 X46.756 Y76.58 E0.0075
G1 X46.811 Y76.743 E0.00516
G1 X46.871 Y77.054 E0.0095
G1 X47.045 Y76.779 E0.00976
G1 X47.146 Y76.64 E0.00516
G1 X47.386 Y76.364 E0.01097
G1 X47.684 Y76.084 E0.01227
G1 X48.019 Y75.843 E0.01238
G1 X48.361 Y75.647 E0.01183
G1 X48.461 Y75.6 E0.00332
G1 X48.797 Y75.476 E0.01075
G1 X49.118 Y75.382 E0.01004
G1 X49.261 Y75.349 E0.0044
G1 X49.586 Y75.306 E0.00984
G1 X49.95 Y75.282 E0.01095
G1 X50.107 Y75.281 E0.00471
G1 X50.364 Y75.295 E0.00772
G1 X50.732 Y75.342 E0.01113
G1 X50.891 Y75.374 E0.00487
G1 X51.298 Y75.5 E0.01278
G1 X51.627 Y75.635 E0.01067
G1 X51.73 Y75.69 E0.0035
G1 X52.012 Y75.863 E0.00993
G1 X52.215 Y76.012 E0.00756
G1 X52.371 Y75.837 E0.00703
G1 X52.46 Y75.759 E0.00355
G1 X52.71 Y75.581 E0.00921
G1 X52.886 Y75.483 E0.00604
G1 X53.015 Y75.422 E0.00428
G1 X53.162 Y75.371 E0.00467
G1 X53.427 Y75.305 E0.00819
G1 X53.655 Y75.278 E0.00689
G1 X53.797 Y75.272 E0.00426
G1 X54.067 Y75.291 E0.00812
G1 X54.272 Y75.327 E0.00624
G1 X54.441 Y75.371 E0.00524
G1 X54.634 Y75.444 E0.00619
G1 X54.824 Y75.541 E0.0064
G1 X54.938 Y75.609 E0.00398
G1 X55.178 Y75.785 E0.00893
G1 X55.324 Y75.931 E0.0062
G1 X55.434 Y76.064 E0.00518
G1 X55.518 Y76.186 E0.00444
G1 X55.728 Y76.006 E0.0083
G1 X56.1 Y75.747 E0.0136
G1 X56.516 Y75.545 E0.01388
G1 X56.936 Y75.397 E0.01336
G1 X57.333 Y75.321 E0.01213
G1 X57.801 Y75.28 E0.0141
G1 X57.975 Y75.285 E0.00522
G1 X58.293 Y75.314 E0.00958
G1 X58.531 Y75.349 E0.00722
G1 X58.806 Y75.411 E0.00846
G1 X58.991 Y75.47 E0.00583
G1 X59.133 Y75.526 E0.00458
G1 X59.364 Y75.632 E0.00763
G1 X59.733 Y75.841 E0.01272
G1 X59.951 Y75.997 E0.00804
G1 X60.288 Y76.295 E0.0135
G1 X60.473 Y76.49 E0.00806
G1 X60.577 Y76.615 E0.00488
G1 X60.69 Y76.77 E0.00576
G1 X60.865 Y77.048 E0.00986
G1 X60.94 Y77.182 E0.00461
G1 X61.086 Y77.484 E0.01006
G1 X61.164 Y77.679 E0.0063
G1 X61.285 Y78.069 E0.01225
G1 X61.323 Y78.225 E0.00482
G1 F1512.6 X61.475 Y78.619 E0.01508
G1 F1345.8 X61.525 Y79.216 E0.02404
G1 F1406.2 X61.541 Y79.88 E0.02551
G1 X61.525 Y80.568 E0.02643
G1 F1343.3 X61.474 Y81.286 E0.02894
G1 F1509.4 X61.315 Y81.734 E0.01701
G1 F1800 X61.275 Y81.901 E0.00515
G1 X61.138 Y82.343 E0.01388
G1 X61.057 Y82.551 E0.0067
G1 X60.845 Y82.962 E0.01388
G1 X60.679 Y83.223 E0.00928
G1 X60.517 Y83.431 E0.00791
G1 X60.311 Y83.65 E0.00902
G1 X60.188 Y83.765 E0.00505
G1 X59.947 Y83.966 E0.00942
G1 X59.703 Y84.131 E0.00884
G1 X59.415 Y84.281 E0.00974
G1 X59.255 Y84.353 E0.00526
G1 X58.983 Y84.455 E0.00872
G1 X58.739 Y84.522 E0.00759
G1 X58.29 Y84.595 E0.01365
G1 X57.981 Y84.617 E0.00929
G1 X57.813 Y84.619 E0.00504
G1 X57.513 Y84.602 E0.00902
G1 X57.305 Y84.577 E0.00629
G1 X57.126 Y84.545 E0.00546
G1 X56.847 Y84.473 E0.00865
G1 X56.646 Y84.409 E0.00633
G1 X56.47 Y84.341 E0.00566
G1 X56.234 Y84.229 E0.00784
G1 X55.938 Y84.054 E0.01032
G1 X55.673 Y83.852 E0.01
G1 X55.42 Y83.623 E0.01024
G1 X55.192 Y83.364 E0.01035
G1 X55.007 Y83.114 E0.00933
G1 X54.802 Y82.773 E0.01194
G1 X54.661 Y82.487 E0.00957
G1 X54.462 Y81.883 E0.01908
G1 X54.356 Y81.466 E0.01291
G1 F1756.1 X54.332 Y81.396 E0.00228
G1 F1428.6 X54.196 Y81.093 E0.01256
G1 F1222.4 X54.137 Y80.282 E0.03593
G1 F1400.8 X54.206 Y79.949 E0.01311
G1 F1718.4 X54.224 Y79.897 E0.00173
G1 F1800 X54.238 Y79.335 E0.01687
G1 X53.969 Y79.376 E0.00816
G1 X53.788 Y79.385 E0.00544
G1 X53.508 Y79.359 E0.00844
G1 X53.339 Y79.328 E0.00516
G1 X53.064 Y79.248 E0.00859
G1 X53.183 Y79.484 E0.00793
G1 X53.316 Y79.814 E0.01068
G1 X53.379 Y80.018 E0.00641
G1 F1659 X53.435 Y80.101 E0.00326
G1 F1361.1 X53.552 Y80.345 E0.01074
G1 F1235 X53.59 Y80.687 E0.01505
G1 F1241.4 X53.611 Y81.106 E0.01825
G1 F1345.8 X53.547 Y81.321 E0.009
G1 F1592.9 X53.507 Y81.422 E0.00368
G1 F1756.1 X53.488 Y81.494 E0.00229
G1 F1800 X53.471 Y81.638 E0.00435
G1 X53.438 Y81.812 E0.00531
G1 X53.364 Y82.092 E0.00869
G1 X53.28 Y82.355 E0.00828
G1 X53.237 Y82.463 E0.00349
G1 X53.097 Y82.758 E0.0098
G1 X52.953 Y83.01 E0.00871
G1 X52.752 Y83.287 E0.01027
G1 X52.543 Y83.534 E0.00971
G1 X52.232 Y83.817 E0.01262
G1 X51.953 Y84.023 E0.01041
G1 X51.647 Y84.201 E0.01062
G1 X51.418 Y84.31 E0.00761
G1 X51.267 Y84.371 E0.00489
G1 X50.936 Y84.478 E0.01044
G1 X50.623 Y84.552 E0.00965
G1 X50.318 Y84.59 E0.00922
G1 X50 Y84.61 E0.00956
G1 X49.85 Y84.61 E0.0045
G1 X49.592 Y84.596 E0.00775
G1 X49.232 Y84.553 E0.01088
G1 X49.036 Y84.514 E0.006
G1 X48.745 Y84.432 E0.00907
G1 X48.346 Y84.283 E0.01278
G1 X47.958 Y84.068 E0.01331
G1 X47.617 Y83.83 E0.01248
G1 X47.506 Y83.728 E0.00452
G1 X47.467 Y83.785 E0.00207
G1 X47.31 Y83.956 E0.00697
G1 X47.218 Y84.039 E0.00372
G1 X47.064 Y84.16 E0.00588
G1 X46.95 Y84.233 E0.00406
G1 X46.754 Y84.329 E0.00655
G1 X46.506 Y84.411 E0.00784
G1 X46.222 Y84.473 E0.00872
G1 X46.09 Y84.49 E0.00399
G1 X45.774 Y84.51 E0.0095
G1 X42.647 Y84.507 E0.09382
G1 X42.489 Y84.499 E0.00475
G1 X42.332 Y84.481 E0.00474
G1 X42.152 Y84.448 E0.00549
G1 X41.851 Y84.355 E0.00945
G1 X41.622 Y84.255 E0.0075
G1 X41.434 Y84.152 E0.00643
G1 X41.332 Y84.078 E0.00378
G1 X41.22 Y83.979 E0.00449
G1 X41.101 Y84.067 E0.00444
G1 X40.992 Y84.131 E0.00379
G1 X40.622 Y84.322 E0.01249
G1 X40.244 Y84.466 E0.01214
G1 X40.124 Y84.502 E0.00376
G1 X39.721 Y84.578 E0.0123
G1 X39.579 Y84.595 E0.00429
G1 X39.223 Y84.62 E0.01071
G1 X38.895 Y84.609 E0.00985
G1 X38.594 Y84.577 E0.00908
G1 X38.415 Y84.545 E0.00546
G1 X38.215 Y84.495 E0.00619
G1 X37.934 Y84.409 E0.00882
G1 X37.763 Y84.343 E0.0055
G1 X37.47 Y84.2 E0.00978
G1 X37.304 Y84.103 E0.00577
G1 X37.156 Y84.003 E0.00536
G1 X36.923 Y83.818 E0.00893
G1 X36.776 Y83.686 E0.00593
G1 X36.66 Y83.569 E0.00494
G1 X36.451 Y83.325 E0.00964
G1 X36.247 Y83.039 E0.01054
G1 X36.091 Y82.773 E0.00925
G1 X35.995 Y82.583 E0.00639
G1 X35.911 Y82.378 E0.00665
G1 X35.728 Y81.803 E0.0181
G1 F1777.8 X35.66 Y81.555 E0.00781
G1 F1670.5 X35.619 Y81.471 E0.00302
G1 F1434.3 X35.523 Y81.228 E0.00984
G1 F1350.8 X35.472 Y80.569 E0.02643
G1 F1409 X35.46 Y79.897 E0.02576
G1 X35.473 Y79.232 E0.02549
