;FLAVOR:Marlin
;TIME:1129
;Filament used: 0.703698m
;Layer height: 0.2
;MINX:61.307
;MINY:63.49
;MINZ:0.24
;MAXX:98.707
;MAXY:96.59
;MAXZ:26.49
;Generated with Cura_SteamEngine 5.2.1
M82 ;absolute extrusion mode


; Pre-Processed for Cancel-Object support by preprocess_cancellation v0.2.0
; 1 known objects
EXCLUDE_OBJECT_DEFINE NAME=Tension_rocker_LGX_Lite_Stealthburner_ERCF_rev01_stl CENTER=80.144,79.983 POLYGON=[[74.207,77.99],[74.207,82.09],[85.807,82.09],[85.807,77.99]]
PRINT_START BED=110 EXTRUDER=255 STANDBY=200 CHAMBER=36
G92 E0
G92 E0
G1 F7200 E-0.4
;LAYER_COUNT:125
;LAYER:-6
M106 S31.5
G0 F18000 X65.084 Y68.395 Z0.24
;TYPE:SUPPORT-INTERFACE
G1 F2880 E0
G1 F2700 X64.4 Y69.208 E0.08481
G1 X63.795 Y70.044 E0.16719
G1 X63.678 Y70.219 E0.18399
G1 X63.137 Y71.12 E0.26788
G1 X62.73 Y71.911 E0.33889
G1 X62.649 Y72.085 E0.35421
G1 X62.308 Y72.888 E0.42385
G1 X62.234 Y73.081 E0.44035
G1 X61.907 Y74.067 E0.52327
G1 X61.643 Y75.093 E0.60784
G1 X61.48 Y75.975 E0.67944
G1 X61.355 Y77.049 E0.76575
G1 X61.307 Y78.199 E0.85762
G1 X61.307 Y81.799 E1.14499
G1 X61.346 Y82.914 E1.23405
G1 X61.366 Y83.147 E1.25272
G1 X61.462 Y83.988 E1.32028
G1 X61.652 Y85.024 E1.40436
G1 X61.963 Y86.203 E1.50169
G1 X62.259 Y87.065 E1.57445
G1 X62.32 Y87.224 E1.58804
G1 X62.742 Y88.194 E1.67248
G1 X63.232 Y89.132 E1.75696
G1 X63.754 Y89.976 E1.83617
G1 X64.32 Y90.767 E1.91381
G1 X64.441 Y90.924 E1.92964
G1 X64.995 Y91.586 E1.99854
G1 X65.129 Y91.734 E2.01448
G1 X65.861 Y92.481 E2.09796
G1 X66.528 Y93.075 E2.16926
G1 X67.383 Y93.737 E2.25558
G1 X67.64 Y93.92 E2.28076
G1 X68.813 Y94.664 E2.39164
G1 X69.016 Y94.78 E2.4103
G1 X69.77 Y95.168 E2.47799
G1 X69.945 Y95.25 E2.49342
G1 X70.757 Y95.595 E2.56385
G1 X71.758 Y95.941 E2.64839
G1 X71.928 Y95.992 E2.66256
G1 X72.954 Y96.256 E2.74712
G1 X73.842 Y96.42 E2.81921
G1 X74.019 Y96.446 E2.83349
G1 X75.063 Y96.554 E2.91727
G1 X76.039 Y96.59 E2.99523
G1 X83.899 Y96.59 E3.62265
G1 X85.398 Y96.513 E3.74246
G1 X85.611 Y96.492 E3.75955
G1 X86.494 Y96.366 E3.83075
G1 X87.526 Y96.144 E3.91501
G1 X87.682 Y96.104 E3.92787
G1 X88.709 Y95.794 E4.0135
G1 X89.54 Y95.48 E4.08441
G1 X90.512 Y95.036 E4.16971
G1 X91.451 Y94.521 E4.2552
G1 X91.586 Y94.44 E4.26777
G1 X92.381 Y93.918 E4.34368
G1 X92.592 Y93.767 E4.3644
G1 X93.378 Y93.165 E4.44343
G1 X93.516 Y93.05 E4.45776
G1 X94.303 Y92.336 E4.54259
G1 X94.93 Y91.685 E4.61474
G1 X95.612 Y90.874 E4.69932
G1 X96.226 Y90.025 E4.78296
G1 X96.333 Y89.863 E4.79846
G1 X96.877 Y88.959 E4.88268
G1 X97.283 Y88.171 E4.95343
G1 X97.365 Y87.996 E4.96886
G1 X97.71 Y87.184 E5.03929
G1 X98.056 Y86.183 E5.12383
G1 X98.108 Y86.01 E5.13825
G1 X98.371 Y84.987 E5.22257
G1 X98.535 Y84.1 E5.29457
G1 X98.659 Y83.03 E5.38055
G1 X98.707 Y81.881 E5.47235
G1 X98.707 Y78.521 E5.74056
G1 X98.707 Y78.257 E5.76163
G1 X98.662 Y77.076 E5.85598
G1 X98.553 Y76.096 E5.93469
G1 X98.362 Y75.053 E6.01933
G1 X98.049 Y73.864 E6.11747
G1 X97.756 Y73.016 E6.18909
G1 X97.695 Y72.859 E6.20253
G1 X97.272 Y71.886 E6.28723
G1 X96.782 Y70.949 E6.37163
G1 X96.206 Y70.026 E6.45848
G1 X95.692 Y69.312 E6.52871
G1 X95.571 Y69.157 E6.5444
G1 X95.019 Y68.496 E6.61314
G1 X94.883 Y68.347 E6.62925
G1 X94.148 Y67.595 E6.71319
G1 X93.484 Y67.003 E6.7842
G1 X93.337 Y66.882 E6.79939
G1 X92.495 Y66.242 E6.88382
G1 X91.201 Y65.416 E7.00636
G1 X90.998 Y65.3 E7.02503
G1 X90.242 Y64.911 E7.09289
G1 X90.068 Y64.83 E7.10821
G1 X89.265 Y64.489 E7.17785
G1 X89.072 Y64.415 E7.19435
G1 X88.086 Y64.088 E7.27727
G1 X87.06 Y63.824 E7.36184
G1 X86.173 Y63.66 E7.43385
G1 X85.993 Y63.634 E7.44836
G1 X84.953 Y63.526 E7.53183
G1 X83.973 Y63.49 E7.61011
G1 X76.115 Y63.49 E8.23737
G1 X74.614 Y63.568 E8.35735
G1 X74.403 Y63.588 E8.37426
G1 X73.521 Y63.713 E8.44537
G1 X72.326 Y63.976 E8.54305
G1 X71.387 Y64.257 E8.62128
G1 X70.47 Y64.602 E8.69949
G1 X70.314 Y64.667 E8.71298
G1 X69.497 Y65.046 E8.78488
G1 X68.572 Y65.554 E8.86911
G1 X67.641 Y66.157 E8.95766
G1 X67.422 Y66.313 E8.97912
G1 X66.636 Y66.917 E9.05825
G1 X66.5 Y67.031 E9.07241
G1 X65.711 Y67.746 E9.15741
G1 X65.084 Y68.395 E9.22944
G0 F18000 X65.881 Y68.143
G1 F2700 X91.65 Y93.913 E12.13853
G1 F7200 E11.73853
G1 F600 Z0.64
G0 F18000 X92.971 Y92.971 Z0.64
G1 F600 Z0.24
G1 F2880 E12.13853
G1 F2700 X67.079 Y67.079 E15.06144
G1 F7200 E14.66144
G1 F600 Z0.64
G0 F18000 X68.402 Y66.139 Z0.64
G1 F600 Z0.24
G1 F2880 E15.06144
G1 F2700 X94.165 Y91.902 E17.96979
G1 F7200 E17.56979
G1 F600 Z0.64
G0 F18000 X95.231 Y90.705 Z0.64
G1 F600 Z0.24
G1 F2880 E17.96979
G1 F2700 X69.852 Y65.326 E20.83479
G1 F7200 E20.43479
G1 F600 Z0.64
G0 F18000 X71.447 Y64.659 Z0.64
G1 F600 Z0.24
G1 F2880 E20.83479
G1 F2700 X96.16 Y89.372 E23.62461
G1 F7200 E23.22461
G1 F600 Z0.64
G0 F18000 X96.96 Y87.909 Z0.64
G1 F600 Z0.24
G1 F2880 E23.62461
G1 F2700 X73.236 Y64.185 E26.30278
G1 F7200 E25.90278
G1 F600 Z0.64
G0 F18000 X75.249 Y63.935 Z0.64
G1 F600 Z0.24
G1 F2880 E26.30278
G1 F2700 X97.597 Y86.283 E28.82561
G1 F7200 E28.42561
G1 F600 Z0.64
G0 F18000 X98.057 Y84.48 Z0.64
G1 F600 Z0.24
G1 F2880 E28.82561
G1 F2700 X77.466 Y63.889 E31.1501
G1 F7200 E30.7501
G1 F600 Z0.64
G0 F18000 X79.729 Y63.889 Z0.64
G1 F600 Z0.24
G1 F2880 E31.1501
G1 F2700 X98.282 Y82.443 E33.24458
G1 F7200 E32.84458
G1 F600 Z0.64
G0 F18000 X98.306 Y80.204 Z0.64
G1 F600 Z0.24
G1 F2880 E33.24458
G1 F2700 X81.991 Y63.889 E35.08636
G1 F7200 E34.68636
G1 F600 Z0.64
G0 F18000 X84.267 Y63.902 Z0.64
G1 F600 Z0.24
G1 F2880 E35.08636
G1 F2700 X98.294 Y77.93 E36.66991
G1 F7200 E36.26991
G1 F600 Z0.64
G0 F18000 X98.016 Y75.388 Z0.64
G1 F600 Z0.24
G1 F2880 E36.66991
G1 F2700 X86.812 Y64.185 E37.93465
G1 F7200 E37.53465
G1 F600 Z0.64
G0 F18000 X90.262 Y65.372 Z0.64
G1 F600 Z0.24
G1 F2880 E37.93465
G1 F2700 X96.868 Y71.978 E38.6804
G1 F7200 E38.2804
G1 F600 Z0.64
G0 F18000 X90.207 Y94.733 Z0.64
G1 F600 Z0.24
G1 F2880 E38.6804
G1 F2700 X64.812 Y69.338 E41.5472
G1 F7200 E41.1472
G1 F600 Z0.64
G0 F18000 X63.875 Y70.664 Z0.64
G1 F600 Z0.24
G1 F2880 E41.5472
G1 F2700 X88.613 Y95.401 E44.33979
G1 F7200 E43.93979
G1 F600 Z0.64
G0 F18000 X86.83 Y95.881 Z0.64
G1 F600 Z0.24
G1 F2880 E44.33979
G1 F2700 X63.071 Y72.122 E47.02191
G1 F7200 E46.62191
G1 F600 Z0.64
G0 F18000 X62.433 Y73.747 Z0.64
G1 F600 Z0.24
G1 F2880 E47.02191
G1 F2700 X84.826 Y96.14 E49.54982
G1 F7200 E49.14982
G1 F600 Z0.64
G0 F18000 X82.612 Y96.189 Z0.64
G1 F600 Z0.24
G1 F2880 E49.54982
G1 F2700 X61.966 Y75.543 E51.88052
G1 F7200 E51.48052
G1 F600 Z0.64
G0 F18000 X61.733 Y77.572 Z0.64
G1 F600 Z0.24
G1 F2880 E51.88052
G1 F2700 X80.349 Y96.189 E53.98211
G1 F7200 E53.58211
G1 F600 Z0.64
G0 F18000 X78.087 Y96.189 Z0.64
G1 F600 Z0.24
G1 F2880 E53.98211
G1 F2700 X61.707 Y79.809 E55.83123
G1 F7200 E55.43123
G1 F600 Z0.64
G0 F18000 X61.716 Y82.081 Z0.64
G1 F600 Z0.24
G1 F2880 E55.83123
G1 F2700 X75.814 Y96.179 E57.42273
G1 F7200 E57.02273
G1 F600 Z0.64
G0 F18000 X73.281 Y95.908 Z0.64
G1 F600 Z0.24
G1 F2880 E57.42273
G1 F2700 X61.98 Y84.607 E58.69849
G1 F7200 E58.29849
G1 F600 Z0.64
G0 F18000 X63.081 Y87.971 Z0.64
M104 S255
G1 F600 Z0.24
G1 F2880 E58.69849
G1 F2700 X69.887 Y94.777 E59.46681
G1 F7200 E59.06681
G1 F600 Z0.64
G0 F18000 X63.15 Y72.189 Z0.64
;TIME_ELAPSED:24.409935
;LAYER:-5
M107
G0 X63.15 Y72.189 Z0.94
;TYPE:SUPPORT
G1 F600 Z0.54
G1 F2880 E59.46681
G1 F2700 X69.954 Y65.385 E60.54694
G1 X69.719 Y65.493 E60.57597
G1 X68.812 Y65.99 E60.69207
G1 X67.834 Y66.629 E60.82321
G1 X66.953 Y67.301 E60.94759
G1 X66.812 Y67.419 E60.96823
G1 X66.06 Y68.1 E61.08211
G1 X65.457 Y68.727 E61.17976
G1 X64.794 Y69.514 E61.29527
G1 X64.206 Y70.326 E61.40781
G1 X64.102 Y70.484 E61.42905
G1 X63.568 Y71.369 E61.54507
G1 X63.187 Y72.112 E61.6388
G1 X63.098 Y72.3 E61.66215
G1 X62.764 Y73.088 E61.75823
G1 X62.427 Y74.062 E61.87392
G1 X62.28 Y74.615 E61.93815
G1 X72.423 Y64.472 E63.54835
G1 X72.594 Y64.423 E63.56832
G1 X73.615 Y64.203 E63.68556
G1 X74.353 Y64.097 E63.76925
G1 X61.916 Y76.535 E65.7437
G1 X61.852 Y77.081 E65.80541
G1 X61.808 Y78.198 E65.93089
G1 X76.011 Y63.995 E68.18561
G1 X77.573 Y63.989 E68.36095
G1 X61.806 Y79.755 E70.86388
G1 X61.806 Y81.311 E71.03855
G1 X79.128 Y63.989 E73.78841
G1 X80.684 Y63.989 E73.96307
G1 X61.843 Y82.83 E76.95407
G1 X61.857 Y83.045 E76.97826
G1 X61.955 Y83.901 E77.07498
G1 X62.013 Y84.216 E77.11093
G1 X82.24 Y63.989 E80.32196
G1 X83.795 Y63.989 E80.49651
G1 X62.292 Y85.492 E83.91011
G1 X62.441 Y86.059 E83.97592
G1 X62.659 Y86.681 E84.0499
G1 X85.282 Y64.058 E87.64129
G1 X86.097 Y64.152 E87.73339
G1 X86.642 Y64.254 E87.79563
G1 X63.109 Y87.787 E91.53148
G1 X63.182 Y87.959 E91.55246
G1 X63.633 Y88.818 E91.66136
G1 X87.898 Y64.553 E95.51342
G1 X88.118 Y64.618 E95.53918
G1 X88.922 Y64.893 E95.63456
G1 X89.058 Y64.949 E95.65107
G1 X64.227 Y89.78 E99.59298
G1 X64.819 Y90.596 E99.70615
G1 X64.886 Y90.676 E99.71786
G1 X90.142 Y65.42 E103.72724
G1 X90.776 Y65.747 E103.80732
G1 X91.146 Y65.973 E103.85599
G1 X65.609 Y91.509 E107.9099
G1 X66.089 Y92.005 E107.98738
G1 X66.391 Y92.283 E108.03346
G1 X92.096 Y66.578 E112.11412
G1 X92.193 Y66.641 E112.1271
G1 X92.986 Y67.243 E112.23886
G1 X67.235 Y92.994 E116.32682
G1 X67.803 Y93.427 E116.407
G1 X68.141 Y93.644 E116.45208
G1 X93.816 Y67.969 E120.52798
G1 X94.582 Y68.759 E120.6515
G1 X69.092 Y94.248 E124.69795
G1 X69.25 Y94.337 E124.71831
G1 X69.973 Y94.711 E124.80968
G1 X70.118 Y94.779 E124.82766
G1 X95.289 Y69.608 E128.82355
G1 X95.88 Y70.437 E128.93783
G1 X95.931 Y70.521 E128.94886
G1 X71.221 Y95.231 E132.87157
G1 X71.893 Y95.46 E132.95126
G1 X72.408 Y95.6 E133.01117
G1 X96.506 Y71.501 E136.8368
G1 X96.817 Y72.09 E136.91157
G1 X97.015 Y72.549 E136.96768
G1 X73.68 Y95.883 E140.67202
G1 X73.915 Y95.926 E140.69884
G1 X74.927 Y96.042 E140.81318
G1 X75.071 Y96.048 E140.82936
G1 X97.449 Y73.67 E144.38186
G1 X97.572 Y74.018 E144.4233
G1 X97.797 Y74.877 E144.52297
G1 X76.586 Y96.089 E147.89029
G1 X78.141 Y96.089 E148.06485
G1 X98.057 Y76.173 E151.2265
G1 X98.166 Y77.175 E151.33964
G1 X98.182 Y77.604 E151.38783
G1 X79.697 Y96.089 E154.32232
G1 X81.252 Y96.089 E154.49688
G1 X98.205 Y79.136 E157.18816
G1 X98.205 Y80.692 E157.36282
G1 X82.808 Y96.089 E159.80709
G1 X83.896 Y96.089 E159.92922
G1 X84.388 Y96.064 E159.98452
G1 X98.188 Y82.264 E162.17527
G1 X98.159 Y82.998 E162.25773
G1 X98.048 Y83.96 E162.36643
G1 X86.089 Y95.919 E164.26492
G1 X86.398 Y95.875 E164.29995
G1 X87.418 Y95.656 E164.41706
G1 X88.108 Y95.456 E164.4977
G1 X97.597 Y85.967 E166.00408
G1 X97.248 Y86.989 E166.12531
G1 X96.833 Y87.95 E166.24281
G1 X96.444 Y88.708 E166.33845
G1 X95.914 Y89.591 E166.45405
G1 X95.824 Y89.726 E166.47226
G1 X95.211 Y90.572 E166.58954
G1 X94.555 Y91.351 E166.70386
G1 X93.953 Y91.977 E166.80135
G1 X93.2 Y92.661 E166.91554
G1 X93.061 Y92.777 E166.93587
G1 X92.302 Y93.359 E167.04323
G1 X92.101 Y93.504 E167.07105
G1 X91.2 Y94.088 E167.19158
G1 X90.827 Y94.293 E167.23936
G1 X96.478 Y88.642 E168.13645
G1 F7200 E167.73645
G1 F600 Z0.94
G0 F18000 X95.293 Y69.612 Z0.94
;TIME_ELAPSED:47.099246
;LAYER:-4
G0 X95.293 Y69.612 Z1.14
;TYPE:SUPPORT-INTERFACE
G1 F600 Z0.74
G1 F2880 E168.13645
G1 F3600 X94.641 Y68.823 E168.17475
G1 X93.922 Y68.073 E168.21363
G1 X93.799 Y67.955 E168.22
G1 X93.152 Y67.378 E168.25244
G1 X93.025 Y67.274 E168.25858
G1 X92.193 Y66.641 E168.2977
G1 X91.928 Y66.472 E168.30946
G1 X95.849 Y70.393 E168.51695
G1 X96.347 Y71.197 E168.55233
G1 X96.713 Y71.894 E168.58179
G1 X90.345 Y65.526 E168.91876
G1 X90.039 Y65.368 E168.93165
G1 X89.85 Y65.28 E168.93945
G1 X89.186 Y65.003 E168.96637
G1 X97.231 Y73.048 E169.39209
G1 X97.575 Y74.028 E169.43095
G1 X88.19 Y64.643 E169.92757
G1 X87.942 Y64.565 E169.9373
G1 X87.316 Y64.406 E169.96147
G1 X97.802 Y74.891 E170.51632
G1 X97.874 Y75.166 E170.52696
G1 X97.971 Y75.697 E170.54716
G1 X86.502 Y64.228 E171.15406
G1 X86.097 Y64.152 E171.16947
G1 X85.75 Y64.113 E171.18254
G1 X98.089 Y76.451 E171.83545
G1 X98.166 Y77.165 E171.86232
G1 X85.036 Y64.035 E172.55712
G1 X84.372 Y64.008 E172.58198
G1 X98.19 Y77.826 E173.31318
G1 X98.206 Y78.264 E173.32958
G1 X98.206 Y78.478 E173.33759
G1 X83.718 Y63.99 E174.10425
G1 X83.082 Y63.99 E174.12804
G1 X98.206 Y79.114 E174.92835
G1 X98.206 Y79.751 E174.95219
G1 X82.445 Y63.99 E175.78621
G1 X81.809 Y63.99 E175.81
G1 X98.206 Y80.387 E176.67768
G1 X98.206 Y81.023 E176.70147
G1 X81.173 Y63.99 E177.6028
G1 X80.536 Y63.99 E177.62664
G1 X98.206 Y81.66 E178.56167
G1 X98.188 Y82.278 E178.58481
G1 X79.9 Y63.99 E179.55254
G1 X79.263 Y63.99 E179.57638
G1 X98.164 Y82.891 E180.57655
G1 X98.159 Y82.998 E180.58056
G1 X98.106 Y83.469 E180.5983
G1 X78.627 Y63.99 E181.62906
G1 X77.991 Y63.99 E181.65286
G1 X98.039 Y84.038 E182.71373
G1 X97.939 Y84.575 E182.73417
G1 X77.354 Y63.99 E183.82345
G1 X76.718 Y63.99 E183.84725
G1 X97.825 Y85.097 E184.96416
G1 X97.693 Y85.602 E184.98369
G1 X76.083 Y63.992 E186.12722
G1 X75.477 Y64.022 E186.14992
G1 X97.555 Y86.1 E187.31821
G1 X97.392 Y86.573 E187.33693
G1 X74.872 Y64.053 E188.52861
G1 X74.669 Y64.063 E188.53622
G1 X74.29 Y64.107 E188.55049
G1 X97.225 Y87.043 E189.76416
G1 X97.036 Y87.49 E189.78232
G1 X73.733 Y64.187 E191.01544
G1 X73.615 Y64.203 E191.01989
G1 X73.202 Y64.292 E191.0357
G1 X96.842 Y87.932 E192.28665
G1 X96.626 Y88.353 E192.30435
G1 X72.678 Y64.405 E193.5716
G1 X72.594 Y64.423 E193.57481
G1 X72.18 Y64.543 E193.59094
G1 X96.407 Y88.77 E194.87295
G1 X96.168 Y89.168 E194.89032
G1 X71.686 Y64.686 E196.18582
G1 X71.219 Y64.855 E196.20441
G1 X95.929 Y89.565 E197.51198
G1 X95.824 Y89.726 E197.51917
G1 X95.668 Y89.941 E197.52911
G1 X70.755 Y65.028 E198.84742
G1 X70.65 Y65.067 E198.85161
G1 X70.313 Y65.222 E198.86549
G1 X95.401 Y90.31 E200.19306
G1 X95.211 Y90.572 E200.20517
G1 X95.127 Y90.673 E200.21008
G1 X69.876 Y65.422 E201.54628
G1 X69.719 Y65.493 E201.55273
G1 X69.456 Y65.637 E201.56395
G1 X94.836 Y91.018 E202.90699
G1 X94.545 Y91.363 E202.92388
G1 X69.045 Y65.863 E204.27325
G1 X68.812 Y65.99 E204.28318
G1 X68.645 Y66.1 E204.29067
G1 X94.233 Y91.687 E205.64467
G1 X93.917 Y92.008 E205.66152
G1 X68.26 Y66.351 E207.0192
G1 X67.875 Y66.603 E207.03642
G1 X93.584 Y92.312 E208.39685
G1 X93.251 Y92.614 E208.41367
G1 X67.512 Y66.876 E209.77567
G1 X67.151 Y67.151 E209.79265
G1 X92.9 Y92.9 E211.15519
G1 X92.54 Y93.176 E211.17217
G1 X66.796 Y67.433 E212.53443
G1 X66.463 Y67.735 E212.55125
G1 X92.177 Y93.449 E213.91194
G1 X91.793 Y93.702 E213.92915
G1 X66.129 Y68.038 E215.2872
G1 X66.06 Y68.1 E215.29067
G1 X65.811 Y68.357 E215.30406
G1 X91.407 Y93.953 E216.65851
G1 X91.2 Y94.088 E216.66776
G1 X91.01 Y94.192 E216.67586
G1 X65.5 Y68.681 E218.02579
G1 X65.206 Y69.024 E218.0427
G1 X90.599 Y94.417 E219.3864
G1 X90.294 Y94.586 E219.39945
G1 X90.182 Y94.637 E219.40406
G1 X64.915 Y69.37 E220.7411
G1 X64.794 Y69.514 E220.74814
G1 X64.638 Y69.729 E220.75808
G1 X89.745 Y94.836 E222.08665
G1 X89.305 Y95.033 E222.10469
G1 X64.37 Y70.098 E223.42417
G1 X64.109 Y70.473 E223.44126
G1 X88.841 Y95.205 E224.74999
G1 X88.377 Y95.377 E224.76851
G1 X63.869 Y70.869 E226.06539
G1 X63.63 Y71.267 E226.08276
G1 X87.884 Y95.52 E227.36617
G1 X87.389 Y95.662 E227.38544
G1 X63.408 Y71.681 E228.65443
G1 X63.192 Y72.101 E228.6721
G1 X86.865 Y95.774 E229.9248
G1 X86.337 Y95.883 E229.94497
G1 X62.996 Y72.542 E231.1801
G1 X62.806 Y72.988 E231.19823
G1 X85.78 Y95.962 E232.41394
G1 X85.573 Y95.993 E232.42177
G1 X85.203 Y96.022 E232.43566
G1 X62.636 Y73.455 E233.62983
G1 X62.473 Y73.928 E233.64855
G1 X84.598 Y96.053 E234.81932
G1 X83.992 Y96.083 E234.84203
G1 X62.331 Y74.422 E235.98825
G1 X62.197 Y74.925 E236.00773
G1 X83.361 Y96.089 E237.12766
G1 X82.725 Y96.089 E237.15145
G1 X62.086 Y75.451 E238.24357
G1 X61.984 Y75.985 E238.26391
G1 X82.088 Y96.089 E239.32775
G1 X81.452 Y96.089 E239.35155
G1 X61.913 Y76.55 E240.38548
G1 X61.85 Y77.124 E240.40709
G1 X80.815 Y96.089 E241.41065
G1 X80.179 Y96.089 E241.43445
G1 X61.825 Y77.735 E242.40568
G1 X61.806 Y78.353 E242.42882
G1 X79.543 Y96.089 E243.36737
G1 X78.906 Y96.089 E243.3912
G1 X61.806 Y78.989 E244.29608
G1 X61.806 Y79.625 E244.31988
G1 X78.27 Y96.089 E245.19109
G1 X77.633 Y96.089 E245.21493
G1 X61.806 Y80.262 E246.05244
G1 X61.806 Y80.898 E246.07624
G1 X76.997 Y96.089 E246.88009
G1 X76.361 Y96.089 E246.90389
G1 X61.806 Y81.535 E247.67406
G1 X61.806 Y81.791 E247.68364
