;FLAVOR:Marlin
;TIME:392
;Filament used: 0.518065m
;Layer height: 0.2
;MINX:21.007
;MINY:11.127
;MINZ:0.25
;MAXX:140.246
;MAXY:131.789
;MAXZ:0.65
;Generated with Cura_SteamEngine 5.2.1
M82 ;absolute extrusion mode


; Pre-Processed for Cancel-Object support by preprocess_cancellation v0.2.0
; 9 known objects
EXCLUDE_OBJECT_DEFINE NAME=First_Layer_Patch_0_25mm_1_stl_6 CENTER=33.964,26.343 POLYGON=[[21.007,14.059],[21.007,38.579],[45.527,38.579],[45.527,14.059]]
EXCLUDE_OBJECT_DEFINE NAME=First_Layer_Patch_0_25mm_1_stl_1 CENTER=81.763,25.256 POLYGON=[[68.817,12.961],[68.817,37.481],[93.337,37.481],[93.337,12.961]]
EXCLUDE_OBJECT_DEFINE NAME=First_Layer_Patch_0_25mm_1_stl_7 CENTER=128.716,23.377 POLYGON=[[115.726,11.127],[115.726,35.647],[140.246,35.647],[140.246,11.127]]
EXCLUDE_OBJECT_DEFINE NAME=First_Layer_Patch_0_25mm_1_stl_4 CENTER=127.873,73.296 POLYGON=[[114.884,61.033],[114.884,85.553],[139.404,85.553],[139.404,61.033]]
EXCLUDE_OBJECT_DEFINE NAME=First_Layer_Patch_0_25mm_1_stl_8 CENTER=127.131,116.820 POLYGON=[[114.874,104.558],[114.874,129.078],[139.394,129.078],[139.394,104.558]]
EXCLUDE_OBJECT_DEFINE NAME=First_Layer_Patch_0_25mm_1_stl_2 CENTER=80.945,119.535 POLYGON=[[67.958,107.269],[67.958,131.789],[92.478,131.789],[92.478,107.269]]
EXCLUDE_OBJECT_DEFINE NAME=First_Layer_Patch_0_25mm_1_stl CENTER=80.108,74.648 POLYGON=[[67.678,62.422],[67.678,86.942],[92.198,86.942],[92.198,62.422]]
EXCLUDE_OBJECT_DEFINE NAME=First_Layer_Patch_0_25mm_1_stl_3 CENTER=34.042,74.508 POLYGON=[[21.111,62.198],[21.111,86.718],[45.631,86.718],[45.631,62.198]]
EXCLUDE_OBJECT_DEFINE NAME=First_Layer_Patch_0_25mm_1_stl_5 CENTER=34.474,118.251 POLYGON=[[21.609,105.989],[21.609,130.509],[46.129,130.509],[46.129,105.989]]
PRINT_START BED=110 EXTRUDER=255 STANDBY=200 CHAMBER=36
G92 E0
G92 E0
G1 F2100 E-0.4
;LAYER_COUNT:1
;LAYER:0
M107
G1 F600 Z0.65
;MESH:First_Layer_Patch-0.25mm (1).stl(6)
EXCLUDE_OBJECT_START NAME=First_Layer_Patch_0_25mm_1_stl_6
G0 F7200 X22.447 Y15.499 Z0.65
;TYPE:WALL-INNER
G1 F600 Z0.25
G1 F840 E0
G1 F1800 X22.447 Y37.139 E0.95396
G1 X44.087 Y37.139 E1.90791
G1 X44.087 Y26.319 E2.38489
G1 X44.087 Y15.499 E2.86187
G1 X22.447 Y15.499 E3.81582
G0 F7200 X21.967 Y15.019
G1 F1800 X21.967 Y37.619 E4.8121
G1 X44.567 Y37.619 E5.80837
G1 X44.567 Y26.319 E6.30651
G1 X44.567 Y15.019 E6.80465
G1 X21.967 Y15.019 E7.80092
G0 F7200 X21.487 Y14.539
G1 F1800 X21.487 Y38.099 E8.83952
G1 X45.047 Y38.099 E9.87811
G1 X45.047 Y26.319 E10.39741
G1 X45.047 Y14.539 E10.91671
G1 X21.487 Y14.539 E11.9553
G0 F7200 X21.007 Y14.059
;TYPE:WALL-OUTER
G1 F1800 X21.007 Y38.579 E13.03622
G1 X45.527 Y38.579 E14.11713
G1 X45.527 Y26.319 E14.65759
G1 X45.527 Y14.059 E15.19805
G1 X21.007 Y14.059 E16.27896
G0 F7200 X21.007 Y14.259
G0 X21.637 Y14.689
G0 X22.587 Y15.988
G0 X22.936 Y15.988
;TYPE:SKIN
G1 F1800 X22.936 Y36.65 E17.30366
G1 X43.598 Y36.65 E18.32836
G1 X43.598 Y26.319 E18.84071
G1 X43.598 Y15.988 E19.35306
G1 X22.936 Y15.988 E20.37776
G1 F2100 E19.97776
G0 F7200 X22.587 Y15.988
G0 X22.659 Y15.711
G0 X43.875 Y15.711
G0 X43.947 Y16.598
G1 F840 E20.37776
G0 F7200 X43.327 Y16.598
G1 F1800 X42.987 Y16.258 E20.4016
G0 F7200 X42.223 Y16.258
G1 F1800 X43.327 Y17.362 E20.47903
G0 F7200 X43.327 Y18.125
G1 F1800 X41.459 Y16.258 E20.61001
G0 F7200 X40.696 Y16.258
G1 F1800 X43.327 Y18.889 E20.79454
G0 F7200 X43.327 Y19.653
G1 F1800 X39.932 Y16.258 E21.03265
G0 F7200 X39.168 Y16.258
G1 F1800 X43.327 Y20.417 E21.32434
G0 F7200 X43.327 Y21.18
G1 F1800 X38.405 Y16.258 E21.66955
G0 F7200 X37.641 Y16.258
G1 F1800 X43.327 Y21.944 E22.06834
G0 F7200 X43.327 Y22.708
G1 F1800 X36.877 Y16.258 E22.52071
G0 F7200 X36.114 Y16.258
G1 F1800 X43.327 Y23.471 E23.0266
G0 F7200 X43.327 Y24.235
G1 F1800 X35.35 Y16.258 E23.58607
G0 F7200 X34.586 Y16.258
G1 F1800 X43.327 Y24.999 E24.19913
G0 F7200 X43.327 Y25.762
G1 F1800 X33.823 Y16.258 E24.8657
G0 F7200 X33.059 Y16.258
G1 F1800 X43.327 Y26.526 E25.58585
G0 F7200 X43.327 Y27.29
G1 F1800 X32.295 Y16.258 E26.35959
G0 F7200 X31.532 Y16.258
G1 F1800 X43.327 Y28.053 E27.18683
G0 F7200 X43.327 Y28.817
G1 F1800 X30.768 Y16.258 E28.06767
G0 F7200 X30.004 Y16.258
G1 F1800 X43.327 Y29.581 E29.00208
G0 F7200 X43.327 Y30.344
G1 F1800 X29.24 Y16.258 E29.99005
G0 F7200 X28.477 Y16.258
G1 F1800 X43.327 Y31.108 E31.03156
G0 F7200 X43.327 Y31.872
G1 F1800 X27.713 Y16.258 E32.12666
G0 F7200 X26.949 Y16.258
G1 F1800 X43.327 Y32.635 E33.27531
G0 F7200 X43.327 Y33.399
G1 F1800 X26.186 Y16.258 E34.4775
G0 F7200 X25.422 Y16.258
G1 F1800 X43.327 Y34.163 E35.73328
G0 F7200 X43.327 Y34.926
G1 F1800 X24.658 Y16.258 E37.0426
G0 F7200 X23.895 Y16.258
G1 F1800 X43.327 Y35.69 E38.40548
G0 F7200 X43.253 Y36.379
G1 F1800 X23.205 Y16.332 E39.81152
G0 F7200 X23.205 Y17.095
G1 F1800 X42.489 Y36.379 E41.16402
G0 F7200 X41.725 Y36.379
G1 F1800 X23.205 Y17.859 E42.46293
G0 F7200 X23.205 Y18.623
G1 F1800 X40.961 Y36.379 E43.70826
G0 F7200 X40.198 Y36.379
G1 F1800 X23.205 Y19.386 E44.90007
G0 F7200 X23.205 Y20.15
G1 F1800 X39.434 Y36.379 E46.0383
G0 F7200 X38.67 Y36.379
G1 F1800 X23.205 Y20.914 E47.12295
G0 F7200 X23.205 Y21.677
G1 F1800 X37.907 Y36.379 E48.15408
G0 F7200 X37.143 Y36.379
G1 F1800 X23.205 Y22.441 E49.13163
G0 F7200 X23.205 Y23.205
G1 F1800 X36.379 Y36.379 E50.0556
G0 F7200 X35.616 Y36.379
G1 F1800 X23.205 Y23.968 E50.92605
G0 F7200 X23.205 Y24.732
G1 F1800 X34.852 Y36.379 E51.74292
G0 F7200 X34.088 Y36.379
G1 F1800 X23.205 Y25.496 E52.50621
G0 F7200 X23.205 Y26.259
G1 F1800 X33.325 Y36.379 E53.21598
G0 F7200 X32.56 Y36.379
G1 F1800 X23.205 Y27.023 E53.87213
G0 F7200 X23.205 Y27.787
G1 F1800 X31.797 Y36.379 E54.47474
G0 F7200 X31.033 Y36.379
G1 F1800 X23.205 Y28.55 E55.02379
G0 F7200 X23.205 Y29.314
G1 F1800 X30.269 Y36.379 E55.51927
G0 F7200 X29.506 Y36.379
G1 F1800 X23.205 Y30.078 E55.96119
G0 F7200 X23.205 Y30.841
G1 F1800 X28.742 Y36.379 E56.34957
G0 F7200 X27.978 Y36.379
G1 F1800 X23.205 Y31.605 E56.68436
G0 F7200 X23.205 Y32.369
G1 F1800 X27.215 Y36.379 E56.9656
G0 F7200 X26.451 Y36.379
G1 F1800 X23.205 Y33.132 E57.1933
G0 F7200 X23.205 Y33.896
G1 F1800 X25.687 Y36.379 E57.36741
G0 F7200 X24.924 Y36.379
G1 F1800 X23.205 Y34.66 E57.48797
G0 F7200 X23.205 Y35.423
G1 F1800 X24.16 Y36.379 E57.55499
G0 F7200 X23.396 Y36.379
G1 F1800 X23.205 Y36.187 E57.56842
G0 F7200 X22.207 Y36.187
G1 F2100 E57.16842
G1 F600 Z0.65
;MESH:First_Layer_Patch-0.25mm (1).stl(1)
EXCLUDE_OBJECT_END NAME=First_Layer_Patch_0_25mm_1_stl_6
EXCLUDE_OBJECT_START NAME=First_Layer_Patch_0_25mm_1_stl_1
G0 F7200 X22.207 Y36.187 Z0.65
G0 X70.257 Y14.401
;TYPE:WALL-INNER
G1 F600 Z0.25
G1 F840 E57.56842
G1 F1800 X70.257 Y36.041 E58.52237
G1 X91.897 Y36.041 E59.47633
G1 X91.897 Y25.221 E59.95331
G1 X91.897 Y14.401 E60.43029
G1 X70.257 Y14.401 E61.38424
G0 F7200 X69.777 Y13.921
G1 F1800 X69.777 Y36.521 E62.38052
G1 X92.377 Y36.521 E63.37679
G1 X92.377 Y25.221 E63.87493
G1 X92.377 Y13.921 E64.37307
G1 X69.777 Y13.921 E65.36934
G0 F7200 X69.297 Y13.441
G1 F1800 X69.297 Y37.001 E66.40794
G1 X92.857 Y37.001 E67.44653
G1 X92.857 Y25.221 E67.96583
G1 X92.857 Y13.441 E68.48513
G1 X69.297 Y13.441 E69.52372
G0 F7200 X68.817 Y12.961
;TYPE:WALL-OUTER
G1 F1800 X68.817 Y37.481 E70.60464
G1 X93.337 Y37.481 E71.68555
G1 X93.337 Y25.221 E72.22601
G1 X93.337 Y12.961 E72.76647
G1 X68.817 Y12.961 E73.84738
G0 F7200 X68.817 Y13.161
G0 X69.447 Y13.591
G0 X70.397 Y14.89
G0 X70.746 Y14.89
;TYPE:SKIN
G1 F1800 X70.746 Y35.552 E74.87208
G1 X91.408 Y35.552 E75.89678
G1 X91.408 Y25.221 E76.40913
G1 X91.408 Y14.89 E76.92148
G1 X70.746 Y14.89 E77.94617
G1 F2100 E77.54617
G0 F7200 X70.397 Y14.89
G0 X70.469 Y14.613
G0 X91.685 Y14.613
G0 X91.757 Y15.533
G1 F840 E77.94617
G0 F7200 X91.137 Y15.533
G1 F1800 X90.764 Y15.16 E77.97233
G0 F7200 X90 Y15.16
G1 F1800 X91.137 Y16.297 E78.05208
G0 F7200 X91.137 Y17.061
G1 F1800 X89.236 Y15.16 E78.18541
G0 F7200 X88.473 Y15.16
G1 F1800 X91.137 Y17.824 E78.37225
G0 F7200 X91.137 Y18.588
G1 F1800 X87.709 Y15.16 E78.61267
G0 F7200 X86.945 Y15.16
G1 F1800 X91.137 Y19.352 E78.90668
G0 F7200 X91.137 Y20.115
G1 F1800 X86.182 Y15.16 E79.2542
G0 F7200 X85.418 Y15.16
G1 F1800 X91.137 Y20.879 E79.65531
G0 F7200 X91.137 Y21.643
G1 F1800 X84.654 Y15.16 E80.11
G0 F7200 X83.891 Y15.16
G1 F1800 X91.137 Y22.406 E80.6182
G0 F7200 X91.137 Y23.17
G1 F1800 X83.127 Y15.16 E81.17999
G0 F7200 X82.363 Y15.16
G1 F1800 X91.137 Y23.934 E81.79536
G0 F7200 X91.137 Y24.697
G1 F1800 X81.6 Y15.16 E82.46424
G0 F7200 X80.836 Y15.16
G1 F1800 X91.137 Y25.461 E83.18671
G0 F7200 X91.137 Y26.225
G1 F1800 X80.072 Y15.16 E83.96276
G0 F7200 X79.309 Y15.16
G1 F1800 X91.137 Y26.988 E84.79232
G0 F7200 X91.137 Y27.752
G1 F1800 X78.545 Y15.16 E85.67547
G0 F7200 X77.781 Y15.16
G1 F1800 X91.137 Y28.516 E86.6122
G0 F7200 X91.137 Y29.279
G1 F1800 X77.018 Y15.16 E87.60244
G0 F7200 X76.254 Y15.16
G1 F1800 X91.137 Y30.043 E88.64627
G0 F7200 X91.137 Y30.807
G1 F1800 X75.49 Y15.16 E89.74368
G0 F7200 X74.727 Y15.16
G1 F1800 X91.137 Y31.57 E90.89461
G0 F7200 X91.137 Y32.334
G1 F1800 X73.963 Y15.16 E92.09912
G0 F7200 X73.199 Y15.16
G1 F1800 X91.137 Y33.098 E93.35721
G0 F7200 X91.137 Y33.861
G1 F1800 X72.436 Y15.16 E94.66881
G0 F7200 X71.672 Y15.16
G1 F1800 X91.137 Y34.625 E96.034
G0 F7200 X91.03 Y35.281
G1 F1800 X71.015 Y15.267 E97.43773
G0 F7200 X71.015 Y16.03
G1 F1800 X90.266 Y35.281 E98.78791
G0 F7200 X89.502 Y35.281
G1 F1800 X71.015 Y16.794 E100.08451
G0 F7200 X71.015 Y17.558
G1 F1800 X88.739 Y35.281 E101.32756
G0 F7200 X87.975 Y35.281
G1 F1800 X71.015 Y18.321 E102.51706
G0 F7200 X71.015 Y19.085
G1 F1800 X87.211 Y35.281 E103.65297
G0 F7200 X86.448 Y35.281
G1 F1800 X71.015 Y19.849 E104.73534
G0 F7200 X71.015 Y20.612
G1 F1800 X85.684 Y35.281 E105.76416
G0 F7200 X84.92 Y35.281
G1 F1800 X71.015 Y21.376 E106.7394
G0 F7200 X71.015 Y22.14
G1 F1800 X84.157 Y35.281 E107.66108
G0 F7200 X83.393 Y35.281
G1 F1800 X71.015 Y22.903 E108.52922
G0 F7200 X71.015 Y23.667
G1 F1800 X82.629 Y35.281 E109.34378
G0 F7200 X81.865 Y35.281
G1 F1800 X71.015 Y24.431 E110.10475
G0 F7200 X71.015 Y25.194
G1 F1800 X81.102 Y35.281 E110.81221
G0 F7200 X80.338 Y35.281
G1 F1800 X71.015 Y25.958 E111.46608
G0 F7200 X71.015 Y26.722
G1 F1800 X79.574 Y35.281 E112.06637
G0 F7200 X78.811 Y35.281
G1 F1800 X71.015 Y27.485 E112.61315
G0 F7200 X71.015 Y28.249
G1 F1800 X78.047 Y35.281 E113.10634
G0 F7200 X77.283 Y35.281
G1 F1800 X71.015 Y29.013 E113.54595
G0 F7200 X71.015 Y29.776
G1 F1800 X76.52 Y35.281 E113.93205
G0 F7200 X75.756 Y35.281
G1 F1800 X71.015 Y30.54 E114.26456
G0 F7200 X71.015 Y31.304
G1 F1800 X74.992 Y35.281 E114.54349
G0 F7200 X74.229 Y35.281
G1 F1800 X71.015 Y32.067 E114.7689
G0 F7200 X71.015 Y32.831
G1 F1800 X73.465 Y35.281 E114.94074
G0 F7200 X72.701 Y35.281
G1 F1800 X71.015 Y33.595 E115.05899
G0 F7200 X71.015 Y34.359
G1 F1800 X71.938 Y35.281 E115.12369
G0 F7200 X71.174 Y35.281
G1 F1800 X71.015 Y35.122 E115.13484
G0 F7200 X70.017 Y35.122
G1 F2100 E114.73484
G1 F600 Z0.65
;MESH:First_Layer_Patch-0.25mm (1).stl(7)
EXCLUDE_OBJECT_END NAME=First_Layer_Patch_0_25mm_1_stl_1
EXCLUDE_OBJECT_START NAME=First_Layer_Patch_0_25mm_1_stl_7
G0 F7200 X70.017 Y35.122 Z0.65
G0 X117.166 Y12.567
;TYPE:WALL-INNER
G1 F600 Z0.25
G1 F840 E115.13484
G1 F1800 X117.166 Y34.207 E116.08879
G1 X138.806 Y34.207 E117.04275
G1 X138.806 Y23.387 E117.51973
G1 X138.806 Y12.567 E117.9967
G1 X117.166 Y12.567 E118.95066
G0 F7200 X116.686 Y12.087
G1 F1800 X116.686 Y34.687 E119.94694
G1 X139.286 Y34.687 E120.94321
G1 X139.286 Y23.387 E121.44135
G1 X139.286 Y12.087 E121.93949
G1 X116.686 Y12.087 E122.93576
G0 F7200 X116.206 Y11.607
G1 F1800 X116.206 Y35.167 E123.97436
G1 X139.766 Y35.167 E125.01295
G1 X139.766 Y23.387 E125.53225
G1 X139.766 Y11.607 E126.05155
G1 X116.206 Y11.607 E127.09014
G0 F7200 X115.726 Y11.127
;TYPE:WALL-OUTER
G1 F1800 X115.726 Y35.647 E128.17106
G1 X140.246 Y35.647 E129.25197
G1 X140.246 Y23.387 E129.79243
G1 X140.246 Y11.127 E130.33289
G1 X115.726 Y11.127 E131.4138
G0 F7200 X115.726 Y11.327
G0 X116.356 Y11.757
G0 X117.306 Y13.056
G0 X117.655 Y13.056
;TYPE:SKIN
G1 F1800 X117.655 Y33.718 E132.4385
G1 X138.317 Y33.718 E133.4632
G1 X138.317 Y23.387 E133.97555
G1 X138.317 Y13.056 E134.4879
G1 X117.655 Y13.056 E135.51259
G1 F2100 E135.11259
G0 F7200 X117.306 Y13.056
G0 X117.378 Y12.779
G0 X138.594 Y12.779
G0 X138.666 Y13.567
G1 F840 E135.51259
G0 F7200 X138.046 Y13.567
G1 F1800 X137.805 Y13.326 E135.5295
G0 F7200 X137.041 Y13.326
G1 F1800 X138.046 Y14.33 E135.59995
G0 F7200 X138.046 Y15.094
G1 F1800 X136.277 Y13.326 E135.72398
G0 F7200 X135.514 Y13.326
G1 F1800 X138.046 Y15.858 E135.90157
G0 F7200 X138.046 Y16.621
G1 F1800 X134.75 Y13.326 E136.1327
G0 F7200 X133.986 Y13.326
G1 F1800 X138.046 Y17.385 E136.41741
G0 F7200 X138.046 Y18.149
G1 F1800 X133.223 Y13.326 E136.75568
G0 F7200 X132.459 Y13.326
G1 F1800 X138.046 Y18.912 E137.14749
G0 F7200 X138.046 Y19.676
G1 F1800 X131.695 Y13.326 E137.59289
G0 F7200 X130.932 Y13.326
G1 F1800 X138.046 Y20.44 E138.09183
G0 F7200 X138.046 Y21.204
G1 F1800 X130.168 Y13.326 E138.64436
G0 F7200 X129.404 Y13.326
G1 F1800 X138.046 Y21.967 E139.25043
G0 F7200 X138.046 Y22.731
G1 F1800 X128.641 Y13.326 E139.91006
G0 F7200 X127.877 Y13.326
G1 F1800 X138.046 Y23.495 E140.62327
G0 F7200 X138.046 Y24.258
G1 F1800 X127.113 Y13.326 E141.39003
G0 F7200 X126.35 Y13.326
G1 F1800 X138.046 Y25.022 E142.21033
G0 F7200 X138.046 Y25.786
G1 F1800 X125.586 Y13.326 E143.08422
G0 F7200 X124.822 Y13.326
G1 F1800 X138.046 Y26.549 E144.01166
G0 F7200 X138.046 Y27.313
G1 F1800 X124.059 Y13.326 E144.99265
G0 F7200 X123.295 Y13.326
G1 F1800 X138.046 Y28.077 E146.02722
G0 F7200 X138.046 Y28.84
G1 F1800 X122.531 Y13.326 E147.11534
G0 F7200 X121.768 Y13.326
G1 F1800 X138.046 Y29.604 E148.257
G0 F7200 X138.046 Y30.368
G1 F1800 X121.004 Y13.326 E149.45225
G0 F7200 X120.24 Y13.326
G1 F1800 X138.046 Y31.131 E150.70105
G0 F7200 X138.046 Y31.895
G1 F1800 X119.477 Y13.326 E152.0034
G0 F7200 X118.713 Y13.326
G1 F1800 X138.046 Y32.659 E153.35933
G0 F7200 X138.046 Y33.422
G1 F1800 X117.949 Y13.326 E154.76881
G0 F7200 X117.924 Y14.064
G1 F1800 X137.307 Y33.447 E156.12825
G0 F7200 X136.543 Y33.447
G1 F1800 X117.924 Y14.828 E157.4341
G0 F7200 X117.924 Y15.591
G1 F1800 X135.78 Y33.447 E158.68645
G0 F7200 X135.016 Y33.447
G1 F1800 X117.924 Y16.355 E159.8852
G0 F7200 X117.924 Y17.119
G1 F1800 X134.252 Y33.447 E161.03038
G0 F7200 X133.489 Y33.447
G1 F1800 X117.924 Y17.882 E162.12204
G0 F7200 X117.924 Y18.646
G1 F1800 X132.725 Y33.447 E163.16012
G0 F7200 X131.961 Y33.447
G1 F1800 X117.924 Y19.41 E164.14461
G0 F7200 X117.924 Y20.173
G1 F1800 X131.198 Y33.447 E165.07559
G0 F7200 X130.434 Y33.447
G1 F1800 X117.924 Y20.937 E165.95298
G0 F7200 X117.924 Y21.701
G1 F1800 X129.67 Y33.447 E166.7768
G0 F7200 X128.906 Y33.447
G1 F1800 X117.924 Y22.464 E167.54706
G0 F7200 X117.924 Y23.228
G1 F1800 X128.143 Y33.447 E168.26378
G0 F7200 X127.379 Y33.447
G1 F1800 X117.924 Y23.992 E168.92691
G0 F7200 X117.924 Y24.755
G1 F1800 X126.615 Y33.447 E169.53649
G0 F7200 X125.852 Y33.447
G1 F1800 X117.924 Y25.519 E170.09253
G0 F7200 X117.924 Y26.283
G1 F1800 X125.088 Y33.447 E170.59498
G0 F7200 X124.324 Y33.447
G1 F1800 X117.924 Y27.046 E171.04388
G0 F7200 X117.924 Y27.81
G1 F1800 X123.561 Y33.447 E171.43924
G0 F7200 X122.797 Y33.447
G1 F1800 X117.924 Y28.574 E171.78101
G0 F7200 X117.924 Y29.337
G1 F1800 X122.033 Y33.447 E172.06923
G0 F7200 X121.27 Y33.447
G1 F1800 X117.924 Y30.101 E172.3039
G0 F7200 X117.924 Y30.865
G1 F1800 X120.506 Y33.447 E172.48499
G0 F7200 X119.742 Y33.447
G1 F1800 X117.924 Y31.628 E172.61254
G0 F7200 X117.924 Y32.392
G1 F1800 X118.979 Y33.447 E172.68653
G0 F7200 X118.215 Y33.447
G1 F1800 X117.924 Y33.156 E172.70694
G0 F7200 X116.926 Y33.156
G1 F2100 E172.30694
G1 F600 Z0.65
;MESH:First_Layer_Patch-0.25mm (1).stl(4)
EXCLUDE_OBJECT_END NAME=First_Layer_Patch_0_25mm_1_stl_7
EXCLUDE_OBJECT_START NAME=First_Layer_Patch_0_25mm_1_stl_4
G0 F7200 X116.926 Y33.156 Z0.65
G0 X116.324 Y62.473
;TYPE:WALL-INNER
G1 F600 Z0.25
G1 F840 E172.70694
G1 F1800 X116.324 Y84.113 E173.66089
G1 X137.964 Y84.113 E174.61485
G1 X137.964 Y73.293 E175.09183
G1 X137.964 Y62.473 E175.5688
G1 X116.324 Y62.473 E176.52276
