;FLAVOR:RepRap
;TIME:6604
;Filament used: 9.19264m
;Layer height: 0.2
;MINX:16.28
;MINY:56.78
;MINZ:0.2
;MAXX:143.72
;MAXY:89.72
;MAXZ:24.2
;Generated with Cura_SteamEngine 5.2.1
T0


; Pre-Processed for Cancel-Object support by preprocess_cancellation v0.2.0
; 2 known objects
EXCLUDE_OBJECT_DEFINE NAME=Grand_Inari_1_stl CENTER=80.190,66.487 POLYGON=[[20.2,60.7],[20.2,72.3],[139.8,72.3],[139.8,60.7]]
EXCLUDE_OBJECT_DEFINE NAME=Front_frame_end_stl CENTER=80.272,79.962 POLYGON=[[20.2,74.2],[20.2,85.8],[139.8,85.8],[139.8,74.2]]
M82 ;absolute extrusion mode
PRINT_START BED=70 EXTRUDER=213 STANDBY=175 CHAMBER=0
M83 ;relative extrusion mode
G1 F7200 E-0.4
;LAYER_COUNT:120
;LAYER:0
M107
G1 F600 Z0.4
G0 F7200 X18.616 Y57.06 Z0.4
;TYPE:SKIRT
G1 F600 Z0.2
G1 F2880 E0.4
G1 F1800 X19.135 Y56.893 E0.02176
G1 X19.905 Y56.79 E0.03101
G1 X20.226 Y56.781 E0.01282
G1 X139.346 Y56.78 E4.75434
G1 X140.044 Y56.79 E0.02786
G1 X140.587 Y56.838 E0.02176
G1 X141.118 Y56.965 E0.02179
G1 X141.624 Y57.167 E0.02175
G1 X142.095 Y57.442 E0.02177
G1 X142.52 Y57.782 E0.02172
G1 X142.892 Y58.181 E0.02177
G1 X143.201 Y58.63 E0.02175
G1 X143.441 Y59.12 E0.02178
G1 X143.608 Y59.639 E0.02176
G1 X143.71 Y60.405 E0.03084
G1 X143.719 Y60.725 E0.01278
G1 X143.72 Y85.31 E0.98124
G1 X143.711 Y86.037 E0.02902
G1 X143.664 Y86.58 E0.02175
G1 X143.538 Y87.111 E0.02178
G1 X143.337 Y87.617 E0.02173
G1 X143.063 Y88.089 E0.02178
G1 X142.724 Y88.515 E0.02173
G1 X142.325 Y88.887 E0.02177
G1 X141.877 Y89.198 E0.02177
G1 X141.388 Y89.439 E0.02176
G1 X140.869 Y89.606 E0.02176
G1 X140.095 Y89.71 E0.03117
G1 X139.774 Y89.719 E0.01282
G1 X20.659 Y89.72 E4.75414
G1 X19.961 Y89.711 E0.02786
G1 X19.418 Y89.664 E0.02175
G1 X18.887 Y89.538 E0.02178
G1 X18.381 Y89.336 E0.02175
G1 X17.91 Y89.062 E0.02175
G1 X17.483 Y88.722 E0.02179
G1 X17.111 Y88.324 E0.02174
G1 X16.802 Y87.875 E0.02175
G1 X16.561 Y87.386 E0.02176
G1 X16.394 Y86.867 E0.02176
G1 X16.29 Y86.092 E0.03121
G1 X16.281 Y85.759 E0.0133
G1 X16.28 Y61.124 E0.98324
G1 X16.289 Y60.459 E0.02654
G1 X16.337 Y59.916 E0.02176
G1 X16.463 Y59.385 E0.02178
G1 X16.665 Y58.879 E0.02175
G1 X16.939 Y58.408 E0.02175
G1 X17.279 Y57.982 E0.02175
G1 X17.678 Y57.61 E0.02177
G1 X18.127 Y57.3 E0.02178
G1 X18.616 Y57.06 E0.02174
G0 F7200 X18.579 Y57.602
G1 F1800 X19.052 Y57.414 E0.02031
G1 X19.548 Y57.302 E0.02029
G1 X19.918 Y57.27 E0.01482
G1 X20.239 Y57.261 E0.01282
G1 X139.339 Y57.26 E4.75354
G1 X140.037 Y57.27 E0.02786
G1 X140.544 Y57.318 E0.02033
G1 X141.037 Y57.443 E0.0203
G1 X141.504 Y57.645 E0.02031
G1 X141.934 Y57.917 E0.02031
G1 X142.316 Y58.253 E0.02031
G1 X142.64 Y58.645 E0.0203
G1 X142.9 Y59.083 E0.02033
G1 X143.087 Y59.555 E0.02026
G1 X143.198 Y60.052 E0.02033
G1 X143.23 Y60.419 E0.0147
G1 X143.239 Y60.739 E0.01278
G1 X143.24 Y85.304 E0.98044
G1 X143.231 Y86.031 E0.02902
G1 X143.185 Y86.538 E0.02032
G1 X143.06 Y87.031 E0.0203
G1 X142.859 Y87.498 E0.02029
G1 X142.588 Y87.929 E0.02032
G1 X142.252 Y88.311 E0.02031
G1 X141.861 Y88.637 E0.02032
G1 X141.424 Y88.897 E0.0203
G1 X140.952 Y89.085 E0.02028
G1 X140.455 Y89.198 E0.02034
G1 X140.082 Y89.23 E0.01494
G1 X139.761 Y89.239 E0.01282
G1 X20.665 Y89.24 E4.75338
G1 X19.967 Y89.231 E0.02786
G1 X19.461 Y89.184 E0.02028
G1 X18.968 Y89.059 E0.0203
G1 X18.5 Y88.858 E0.02033
G1 X18.07 Y88.587 E0.02029
G1 X17.688 Y88.251 E0.02031
G1 X17.362 Y87.86 E0.02032
G1 X17.102 Y87.423 E0.0203
G1 X16.914 Y86.95 E0.02031
G1 X16.802 Y86.454 E0.02029
G1 X16.77 Y86.079 E0.01502
G1 X16.761 Y85.746 E0.0133
G1 X16.76 Y61.13 E0.98248
G1 X16.769 Y60.465 E0.02654
G1 X16.816 Y59.959 E0.02028
G1 X16.942 Y59.466 E0.02031
G1 X17.143 Y58.998 E0.02033
G1 X17.415 Y58.568 E0.02031
G1 X17.75 Y58.186 E0.02028
G1 X18.142 Y57.861 E0.02032
G1 X18.579 Y57.602 E0.02027
G1 F7200 E-0.4
G1 F600 Z0.4
;MESH:Grand Inari (1).stl
EXCLUDE_OBJECT_START NAME=Grand_Inari_1_stl
G0 F7200 X21.2 Y61.7 Z0.4
;TYPE:WALL-INNER
G1 F600 Z0.2
G1 F2880 E0.4
G1 F1800 X21.201 Y71.299 E0.38312
G1 X138.8 Y71.3 E4.69363
G1 X138.8 Y64.746 E0.26158
G1 X138.8 Y61.7 E0.12157
G1 X21.2 Y61.7 E4.69367
G0 F7200 X20.72 Y61.22
G1 F1800 X20.721 Y71.779 E0.42143
G1 X139.28 Y71.78 E4.73195
G1 X139.28 Y64.746 E0.28074
G1 X139.28 Y61.22 E0.14073
G1 X20.72 Y61.22 E4.73199
G0 F7200 X20.24 Y60.74
;TYPE:WALL-OUTER
G1 F1800 X20.241 Y72.259 E0.45975
G1 X139.76 Y72.26 E4.77026
G1 X139.76 Y64.746 E0.2999
G1 X139.76 Y60.74 E0.15989
G1 X20.24 Y60.74 E4.7703
G0 F7200 X20.24 Y60.94
G1 F7200 E-0.4
G1 F600 Z0.4
G0 F7200 X21.28 Y61.639 Z0.4
G0 X30.008 Y69.227
;TYPE:WALL-INNER
G1 F600 Z0.2
G1 F2880 E0.4
G1 F1800 X29.471 Y69.224 E0.02143
G1 X29.068 Y69.153 E0.01633
G1 X28.558 Y68.968 E0.02165
G1 X28.194 Y68.757 E0.01679
G1 X27.784 Y68.411 E0.02141
G1 X27.518 Y68.092 E0.01658
G1 X27.25 Y67.626 E0.02146
G1 X27.142 Y67.377 E0.01083
G1 X27.108 Y67.231 E0.00598
G1 X27.019 Y66.714 E0.02094
G1 X27.002 Y66.511 E0.00813
G1 X27.018 Y66.308 E0.00813
G1 X27.111 Y65.763 E0.02207
G1 X27.146 Y65.617 E0.00599
G1 X27.258 Y65.36 E0.01119
G1 X27.528 Y64.897 E0.02139
G1 X27.795 Y64.581 E0.01651
G1 X28.209 Y64.234 E0.02156
G1 X28.464 Y64.071 E0.01208
G1 X28.698 Y63.96 E0.01034
G1 X28.968 Y63.869 E0.01137
G1 X29.405 Y63.779 E0.01781
G1 X29.613 Y63.762 E0.00833
G1 X30.05 Y63.773 E0.01745
G1 X30.331 Y63.814 E0.01133
G1 X30.597 Y63.886 E0.011
G1 X30.886 Y64.007 E0.0125
G1 X31.351 Y64.277 E0.02146
G1 X31.668 Y64.543 E0.01652
G1 X32.012 Y64.953 E0.02136
G1 X32.165 Y65.186 E0.01113
G1 X32.252 Y65.415 E0.00978
G1 X32.459 Y66.19 E0.03202
G1 X32.491 Y66.352 E0.00659
G1 X32.499 Y66.5 E0.00592
G1 X32.491 Y66.647 E0.00588
G1 X32.459 Y66.809 E0.00659
G1 X32.255 Y67.576 E0.03168
G1 X32.19 Y67.759 E0.00775
G1 X32.085 Y67.947 E0.00859
G1 X31.931 Y68.171 E0.01085
G1 X31.743 Y68.384 E0.01134
G1 X31.44 Y68.658 E0.0163
G1 X31.209 Y68.82 E0.01126
G1 X30.858 Y69.01 E0.01593
G1 X30.599 Y69.113 E0.01112
G1 X30.223 Y69.21 E0.0155
G1 X30.008 Y69.227 E0.00861
G0 F7200 X28.691 Y68.642
G0 X27.979 Y68.179
G0 X28.094 Y68.044
G1 F1800 X27.934 Y67.853 E0.00994
G1 X27.666 Y67.387 E0.02146
G1 X27.602 Y67.237 E0.00651
G1 X27.581 Y67.15 E0.00357
G1 X27.492 Y66.633 E0.02094
G1 X27.482 Y66.511 E0.00489
G1 X27.492 Y66.388 E0.00493
G1 X27.605 Y65.756 E0.02562
G1 X27.672 Y65.602 E0.0067
G1 X27.943 Y65.139 E0.02141
G1 X28.103 Y64.949 E0.00991
G1 X28.517 Y64.603 E0.02153
G1 X28.67 Y64.505 E0.00725
G1 X28.904 Y64.394 E0.01034
G1 X29.066 Y64.339 E0.00683
G1 X29.488 Y64.252 E0.0172
G1 X29.613 Y64.242 E0.005
G1 X30.037 Y64.253 E0.01693
G1 X30.206 Y64.277 E0.00681
G1 X30.472 Y64.349 E0.011
G1 X30.645 Y64.422 E0.00749
G1 X31.11 Y64.692 E0.02146
G1 X31.3 Y64.852 E0.00991
G1 X31.644 Y65.262 E0.02136
G1 X31.736 Y65.402 E0.00669
G1 X31.788 Y65.539 E0.00585
G1 X31.995 Y66.314 E0.03202
G1 X32.014 Y66.411 E0.00395
G1 X32.014 Y66.589 E0.0071
G1 X31.995 Y66.686 E0.00395
G1 X31.791 Y67.453 E0.03168
G1 X31.752 Y67.562 E0.00462
G1 X31.689 Y67.675 E0.00516
G1 X31.535 Y67.899 E0.01085
G1 X31.423 Y68.027 E0.00679
G1 X31.119 Y68.3 E0.01631
G1 X30.98 Y68.398 E0.00679
G1 X30.629 Y68.588 E0.01593
G1 X30.474 Y68.65 E0.00666
G1 X30.14 Y68.737 E0.01378
G1 X30.011 Y68.747 E0.00516
G1 X29.473 Y68.744 E0.02147
G1 X29.232 Y68.701 E0.00977
G1 X28.722 Y68.516 E0.02165
G1 X28.504 Y68.39 E0.01005
G1 X28.094 Y68.044 E0.02141
G0 F7200 X27.979 Y68.179
G0 X27.539 Y67.403
G0 X27.315 Y66.356
G0 X27.965 Y66.469
;TYPE:WALL-OUTER
G1 F1800 X28.065 Y65.895 E0.02325
G1 X28.087 Y65.844 E0.00222
G1 X28.357 Y65.381 E0.02139
G1 X28.411 Y65.317 E0.00334
G1 X28.825 Y64.971 E0.02153
G1 X28.876 Y64.939 E0.0024
G1 X29.164 Y64.809 E0.01261
G1 X29.571 Y64.725 E0.01659
G1 X30.024 Y64.733 E0.01808
G1 X30.08 Y64.741 E0.00226
G1 X30.346 Y64.813 E0.011
G1 X30.404 Y64.837 E0.00251
G1 X30.869 Y65.107 E0.02146
G1 X30.932 Y65.16 E0.00329
G1 X31.276 Y65.57 E0.02136
G1 X31.307 Y65.617 E0.00225
G1 X31.538 Y66.47 E0.03527
G1 X31.538 Y66.53 E0.00239
G1 X31.327 Y67.329 E0.03298
G1 X31.314 Y67.366 E0.00157
G1 X31.139 Y67.627 E0.01254
G1 X31.102 Y67.67 E0.00226
G1 X30.798 Y67.943 E0.01631
G1 X30.752 Y67.976 E0.00226
G1 X30.401 Y68.166 E0.01593
G1 X30.057 Y68.264 E0.01428
G1 X29.476 Y68.264 E0.02319
G1 X29.396 Y68.25 E0.00324
G1 X28.886 Y68.065 E0.02165
G1 X28.814 Y68.023 E0.00333
G1 X28.404 Y67.677 E0.02141
G1 X28.35 Y67.613 E0.00334
G1 X28.082 Y67.147 E0.02146
G1 X28.061 Y67.097 E0.00216
G1 X27.965 Y66.551 E0.02213
G1 X27.965 Y66.469 E0.00327
G0 F7200 X27.999 Y66.272
G1 F7200 E-0.4
G1 F600 Z0.4
G0 F7200 X27.288 Y66.149 Z0.4
G0 X64.113 Y67.777
;TYPE:WALL-INNER
G1 F600 Z0.2
G1 F2880 E0.4
G1 F1800 X63.904 Y68.119 E0.016
G1 X63.677 Y68.391 E0.01414
G1 X63.372 Y68.662 E0.01628
G1 X63.146 Y68.82 E0.01101
G1 X62.797 Y69.009 E0.01584
G1 X62.474 Y69.128 E0.01374
G1 X62.031 Y69.221 E0.01807
G1 X61.823 Y69.238 E0.00833
G1 X61.387 Y69.227 E0.01741
G1 X61.106 Y69.186 E0.01133
G1 X60.84 Y69.114 E0.011
G1 X60.552 Y68.994 E0.01245
G1 X60.089 Y68.726 E0.02135
G1 X59.871 Y68.564 E0.01084
G1 X59.707 Y68.375 E0.00999
G1 X59.244 Y67.712 E0.03228
G1 X59.133 Y67.516 E0.00899
G1 X59.066 Y67.328 E0.00797
G1 X59.001 Y67.079 E0.01027
G1 X58.963 Y66.817 E0.01057
G1 X58.949 Y66.395 E0.01685
G1 X58.956 Y66.235 E0.00639
G1 X58.989 Y66.058 E0.00719
G1 X59.127 Y65.541 E0.02136
G1 X59.261 Y65.227 E0.01363
G1 X59.47 Y64.883 E0.01607
G1 X59.699 Y64.608 E0.01428
G1 X60.008 Y64.334 E0.01648
G1 X60.301 Y64.143 E0.01396
G1 X60.79 Y63.917 E0.0215
G1 X61.086 Y63.824 E0.01238
G1 X61.513 Y63.762 E0.01722
G1 X61.684 Y63.751 E0.00684
G1 X62.068 Y63.78 E0.01537
G1 X62.369 Y63.847 E0.01231
G1 X62.879 Y64.032 E0.02165
G1 X63.242 Y64.242 E0.01674
G1 X63.653 Y64.588 E0.02144
G1 X63.921 Y64.91 E0.01672
G1 X64.188 Y65.376 E0.02144
G1 X64.28 Y65.577 E0.00882
G1 X64.329 Y65.767 E0.00783
G1 X64.419 Y66.287 E0.02106
G1 X64.436 Y66.494 E0.00829
G1 X64.412 Y66.857 E0.01452
G1 X64.356 Y67.139 E0.01148
G1 X64.229 Y67.526 E0.01626
G1 X64.113 Y67.777 E0.01104
G0 F7200 X64.032 Y65.819
G0 X63.856 Y65.849
G1 F1800 X63.946 Y66.369 E0.02106
G1 X63.956 Y66.493 E0.00497
G1 X63.933 Y66.82 E0.01308
G1 X63.9 Y66.989 E0.00687
G1 X63.773 Y67.376 E0.01626
G1 X63.703 Y67.527 E0.00664
G1 X63.494 Y67.869 E0.016
G1 X63.358 Y68.032 E0.00847
G1 X63.053 Y68.303 E0.01628
G1 X62.917 Y68.398 E0.00662
G1 X62.568 Y68.587 E0.01584
G1 X62.374 Y68.658 E0.00825
G1 X61.948 Y68.748 E0.01738
G1 X61.823 Y68.758 E0.005
G1 X61.4 Y68.747 E0.01689
G1 X61.231 Y68.723 E0.00681
G1 X60.965 Y68.651 E0.011
G1 X60.793 Y68.579 E0.00744
G1 X60.33 Y68.311 E0.02135
G1 X60.199 Y68.213 E0.00653
G1 X60.1 Y68.1 E0.006
G1 X59.637 Y67.437 E0.03228
G1 X59.571 Y67.32 E0.00536
G1 X59.531 Y67.206 E0.00482
G1 X59.466 Y66.957 E0.01027
G1 X59.443 Y66.8 E0.00633
G1 X59.429 Y66.384 E0.01661
G1 X59.433 Y66.288 E0.00383
G1 X59.453 Y66.182 E0.00431
G1 X59.591 Y65.665 E0.02136
G1 X59.671 Y65.477 E0.00815
G1 X59.88 Y65.133 E0.01607
G1 X60.018 Y64.968 E0.00859
G1 X60.327 Y64.694 E0.01648
G1 X60.502 Y64.579 E0.00836
G1 X60.991 Y64.353 E0.0215
G1 X61.169 Y64.297 E0.00745
G1 X61.581 Y64.238 E0.01661
G1 X61.684 Y64.231 E0.00412
G1 X62.025 Y64.258 E0.01365
G1 X62.205 Y64.299 E0.00737
G1 X62.715 Y64.484 E0.02165
G1 X62.932 Y64.61 E0.01002
G1 X63.343 Y64.956 E0.02144
G1 X63.504 Y65.148 E0.01
G1 X63.771 Y65.615 E0.02147
G1 X63.826 Y65.735 E0.00527
G1 X63.856 Y65.849 E0.0047
G0 F7200 X64.032 Y65.819
G0 X63.531 Y64.961
G0 X63.015 Y64.527
G0 X62.268 Y64.132
G0 X62.041 Y64.75
;TYPE:WALL-OUTER
G1 F1800 X62.551 Y64.935 E0.02165
G1 X62.623 Y64.977 E0.00333
G1 X63.034 Y65.323 E0.02144
G1 X63.088 Y65.387 E0.00334
G1 X63.373 Y65.893 E0.02318
G1 X63.473 Y66.451 E0.02263
G1 X63.476 Y66.511 E0.0024
G1 X63.455 Y66.783 E0.01089
G1 X63.444 Y66.839 E0.00228
G1 X63.317 Y67.226 E0.01626
G1 X63.293 Y67.277 E0.00225
G1 X63.084 Y67.619 E0.016
G1 X63.039 Y67.673 E0.00281
G1 X62.734 Y67.944 E0.01628
G1 X62.689 Y67.976 E0.0022
G1 X62.34 Y68.165 E0.01584
G1 X62.275 Y68.188 E0.00275
G1 X61.865 Y68.275 E0.01673
G1 X61.413 Y68.267 E0.01804
G1 X61.357 Y68.259 E0.00226
G1 X61.091 Y68.187 E0.011
G1 X61.033 Y68.163 E0.00251
G1 X60.57 Y67.895 E0.02135
G1 X60.527 Y67.863 E0.00214
G1 X60.031 Y67.162 E0.03427
G1 X59.995 Y67.085 E0.00339
G1 X59.93 Y66.836 E0.01027
G1 X59.91 Y66.341 E0.01977
G1 X60.055 Y65.789 E0.02278
G1 X60.081 Y65.726 E0.00272
G1 X60.29 Y65.382 E0.01607
G1 X60.336 Y65.327 E0.00286
G1 X60.645 Y65.053 E0.01648
G1 X60.704 Y65.015 E0.0028
G1 X61.193 Y64.789 E0.0215
G1 X61.252 Y64.77 E0.00247
G1 X61.649 Y64.713 E0.01601
G1 X61.706 Y64.711 E0.00228
G1 X61.981 Y64.736 E0.01102
G1 X62.041 Y64.75 E0.00246
G0 F7200 X62.229 Y64.818
G1 F7200 E-0.4
G1 F600 Z0.4
G0 F7200 X62.476 Y64.141 Z0.4
G0 X95.855 Y67.719
;TYPE:WALL-INNER
G1 F600 Z0.2
G1 F2880 E0.4
G1 F1800 X95.706 Y67.35 E0.01588
G1 X95.633 Y67.075 E0.01136
G1 X95.576 Y66.678 E0.01601
G1 X95.564 Y66.505 E0.00692
G1 X95.588 Y66.143 E0.01448
G1 X95.644 Y65.86 E0.01151
G1 X95.772 Y65.471 E0.01634
G1 X95.889 Y65.22 E0.01105
G1 X96.096 Y64.882 E0.01582
G1 X96.273 Y64.658 E0.01139
G1 X96.475 Y64.457 E0.01137
G1 X96.722 Y64.268 E0.01241
G1 X97.185 Y64.001 E0.02133
G1 X97.577 Y63.858 E0.01665
G1 X98.118 Y63.768 E0.02189
G1 X98.317 Y63.752 E0.00797
G1 X98.529 Y63.77 E0.00849
G1 X99.06 Y63.865 E0.02153
G1 X99.447 Y64.006 E0.01644
G1 X99.908 Y64.271 E0.02122
G1 X100.208 Y64.516 E0.01546
G1 X100.478 Y64.821 E0.01626
G1 X100.634 Y65.043 E0.01083
G1 X100.826 Y65.396 E0.01604
G1 X100.908 Y65.585 E0.00822
G1 X100.954 Y65.763 E0.00734
G1 X101.045 Y66.285 E0.02115
G1 X101.062 Y66.494 E0.00837
G1 X101.059 Y66.589 E0.00379
G1 X101.037 Y66.861 E0.01089
G1 X100.981 Y67.139 E0.01132
G1 X100.854 Y67.526 E0.01626
G1 X100.738 Y67.777 E0.01104
G1 X100.529 Y68.119 E0.016
G1 X100.301 Y68.392 E0.0142
G1 X99.992 Y68.666 E0.01648
G1 X99.699 Y68.857 E0.01396
G1 X99.21 Y69.083 E0.0215
G1 X98.914 Y69.176 E0.01238
G1 X98.487 Y69.237 E0.01722
G1 X98.316 Y69.249 E0.00684
G1 X97.931 Y69.22 E0.01541
G1 X97.632 Y69.153 E0.01223
G1 X97.131 Y68.972 E0.02126
G1 X96.689 Y68.692 E0.02088
G1 X96.119 Y68.12 E0.03223
G1 X95.96 Y67.922 E0.01014
G1 X95.855 Y67.719 E0.00912
G0 F7200 X97.077 Y68.566
G0 X97.856 Y68.85
G0 X98.34 Y68.893
G0 X98.945 Y68.806
G0 X99.522 Y68.541
G0 X100.27 Y67.963
G0 X100.119 Y67.869
G1 F1800 X99.982 Y68.032 E0.0085
G1 X99.673 Y68.306 E0.01648
G1 X99.498 Y68.421 E0.00836
G1 X99.009 Y68.647 E0.0215
G1 X98.831 Y68.703 E0.00745
G1 X98.419 Y68.762 E0.01661
G1 X98.316 Y68.769 E0.00412
G1 X97.975 Y68.742 E0.01365
G1 X97.795 Y68.702 E0.00736
G1 X97.294 Y68.521 E0.02126
G1 X97.029 Y68.352 E0.01254
G1 X96.459 Y67.781 E0.0322
G1 X96.363 Y67.662 E0.0061
G1 X96.3 Y67.541 E0.00544
G1 X96.152 Y67.172 E0.01587
G1 X96.108 Y67.006 E0.00685
G1 X96.051 Y66.61 E0.01597
G1 X96.044 Y66.506 E0.00416
G1 X96.067 Y66.18 E0.01304
G1 X96.1 Y66.01 E0.00691
G1 X96.228 Y65.621 E0.01634
G1 X96.298 Y65.47 E0.00664
G1 X96.505 Y65.132 E0.01582
G1 X96.611 Y64.998 E0.00682
G1 X96.813 Y64.797 E0.01137
G1 X96.962 Y64.684 E0.00746
G1 X97.425 Y64.417 E0.02133
G1 X97.66 Y64.331 E0.00999
G1 X98.198 Y64.241 E0.02177
G1 X98.317 Y64.232 E0.00476
G1 X98.444 Y64.243 E0.00509
G1 X98.975 Y64.337 E0.02152
G1 X99.207 Y64.422 E0.00986
G1 X99.668 Y64.687 E0.02122
G1 X99.849 Y64.834 E0.00931
G1 X100.119 Y65.139 E0.01626
G1 X100.212 Y65.273 E0.00651
G1 X100.404 Y65.625 E0.016
G1 X100.454 Y65.739 E0.00497
G1 X100.481 Y65.846 E0.0044
G1 X100.572 Y66.368 E0.02115
G1 X100.58 Y66.551 E0.00731
G1 X100.558 Y66.823 E0.01089
G1 X100.525 Y66.989 E0.00676
G1 X100.398 Y67.376 E0.01626
G1 X100.328 Y67.527 E0.00664
G1 X100.119 Y67.869 E0.016
G0 F7200 X100.27 Y67.963
G0 X99.776 Y68.379
G0 X99.081 Y68.81
G0 X98.807 Y68.211
;TYPE:WALL-OUTER
G1 F1800 X98.748 Y68.23 E0.00247
G1 X98.351 Y68.287 E0.01601
G1 X98.294 Y68.289 E0.00228
G1 X98.018 Y68.264 E0.01106
G1 X97.958 Y68.25 E0.00246
G1 X97.457 Y68.069 E0.02126
G1 X97.369 Y68.013 E0.00416
G1 X96.799 Y67.442 E0.0322
G1 X96.767 Y67.402 E0.00204
G1 X96.598 Y66.993 E0.01766
G1 X96.583 Y66.938 E0.00228
G1 X96.526 Y66.542 E0.01597
G1 X96.524 Y66.488 E0.00216
G1 X96.545 Y66.217 E0.01085
G1 X96.556 Y66.16 E0.00232
G1 X96.684 Y65.771 E0.01634
G1 X96.915 Y65.383 E0.01802
G1 X96.95 Y65.338 E0.00228
G1 X97.152 Y65.137 E0.01137
G1 X97.202 Y65.1 E0.00248
