;FLAVOR:Marlin
;TIME:658
;Filament used: 0.37964m
;Layer height: 0.2
;MINX:61.313
;MINY:64.467
;MINZ:0.2
;MAXX:89.188
;MAXY:95.28
;MAXZ:7.6
;Generated with Cura_SteamEngine 5.2.1
M82 ;absolute extrusion mode


; Pre-Processed for Cancel-Object support by preprocess_cancellation v0.2.0
; 2 known objects
EXCLUDE_OBJECT_DEFINE NAME=Unklicky_SB_pin_stl CENTER=70.507,84.383 POLYGON=[[66.65,71.028],[66.65,89.104],[74.349,89.104],[74.349,71.028]]
EXCLUDE_OBJECT_DEFINE NAME=Heatset_pin_v1_1_stl CENTER=80.028,77.119 POLYGON=[[76.151,72.244],[76.151,87.756],[83.85,87.756],[83.85,72.244]]
PRINT_START BED=110 EXTRUDER=255 STANDBY=200 CHAMBER=36
G92 E0
G92 E0
G1 F7200 E-0.4
;LAYER_COUNT:36
;LAYER:0
M107
G1 F600 Z0.6
G0 F7200 X63.257 Y66.453 Z0.6
;TYPE:SKIRT
G1 F600 Z0.2
G1 F2880 E0
G1 F1800 X63.798 Y65.975 E0.02804
G1 X64.232 Y65.661 E0.04884
G1 X64.375 Y65.566 E0.05551
G1 X64.997 Y65.2 E0.08353
G1 X65.655 Y64.906 E0.11152
G1 X66.343 Y64.687 E0.13956
G1 X67.05 Y64.544 E0.16757
G1 X67.856 Y64.479 E0.19898
G1 X68.422 Y64.47 E0.22096
G1 X71.338 Y64.476 E0.3342
G1 X72.255 Y64.467 E0.36982
G1 X73.112 Y64.478 E0.4031
G1 X73.831 Y64.528 E0.43109
G1 X74.211 Y64.587 E0.44602
G1 X75.255 Y64.782 E0.48727
G1 X76.039 Y64.939 E0.51832
G1 X78.638 Y65.386 E0.62073
G1 X81.273 Y65.761 E0.7241
G1 X82.326 Y65.881 E0.76525
G1 X83.224 Y65.995 E0.80041
G1 X83.933 Y66.125 E0.8284
G1 X84.384 Y66.251 E0.84659
G1 X84.644 Y66.334 E0.85718
G1 X85.318 Y66.591 E0.8852
G1 X85.959 Y66.922 E0.91321
G1 X86.56 Y67.321 E0.94123
G1 X87.113 Y67.784 E0.96924
G1 X87.612 Y68.305 E0.99725
G1 X88.049 Y68.879 E1.02527
G1 X88.421 Y69.497 E1.05328
G1 X88.722 Y70.153 E1.08131
G1 X88.949 Y70.837 E1.1093
G1 X89.098 Y71.543 E1.13732
G1 X89.173 Y72.427 E1.17178
G1 X89.188 Y73.374 E1.20856
G1 X89.187 Y84.485 E1.64005
G1 X89.177 Y85.183 E1.66716
G1 X89.132 Y85.866 E1.69374
G1 X89.058 Y86.482 E1.71784
G1 X88.836 Y88.097 E1.78115
G1 X88.728 Y88.813 E1.80927
G1 X88.581 Y89.519 E1.83727
G1 X88.357 Y90.205 E1.8653
G1 X88.058 Y90.862 E1.89333
G1 X87.689 Y91.481 E1.92132
G1 X87.253 Y92.056 E1.94934
G1 X86.756 Y92.579 E1.97736
G1 X86.205 Y93.044 E2.00536
G1 X85.465 Y93.526 E2.03966
G1 X85.277 Y93.631 E2.04802
G1 X84.629 Y93.947 E2.07602
G1 X83.95 Y94.19 E2.10402
G1 X83.248 Y94.356 E2.13204
G1 X82.444 Y94.448 E2.16346
G1 X81.54 Y94.495 E2.19862
G1 X78.868 Y94.675 E2.30262
G1 X76.257 Y94.925 E2.40448
G1 X74.444 Y95.152 E2.47544
G1 X73.884 Y95.215 E2.49733
G1 X73.293 Y95.255 E2.52033
G1 X72.106 Y95.28 E2.56644
G1 X68.567 Y95.279 E2.70387
G1 X67.907 Y95.27 E2.72951
G1 X67.188 Y95.221 E2.75749
G1 X66.478 Y95.092 E2.78552
G1 X65.787 Y94.885 E2.81353
G1 X65.123 Y94.603 E2.84155
G1 X64.521 Y94.266 E2.86834
G1 X64.361 Y94.165 E2.87569
G1 X63.773 Y93.747 E2.90371
G1 X63.235 Y93.266 E2.93173
G1 X62.754 Y92.729 E2.95973
G1 X62.335 Y92.141 E2.98777
G1 X61.984 Y91.511 E3.01578
G1 X61.704 Y90.846 E3.0438
G1 X61.5 Y90.154 E3.07181
G1 X61.373 Y89.444 E3.09982
G1 X61.327 Y88.765 E3.12625
G1 X61.313 Y87.857 E3.16152
G1 X61.315 Y71.647 E3.79104
G1 X61.325 Y70.985 E3.81675
G1 X61.376 Y70.265 E3.84478
G1 X61.506 Y69.556 E3.87277
G1 X61.714 Y68.865 E3.9008
G1 X61.997 Y68.201 E3.92883
G1 X62.351 Y67.573 E3.95682
G1 X62.773 Y66.988 E3.98484
G1 X63.257 Y66.453 E4.01285
G0 F7200 X63.785 Y66.696
G1 F1800 X64.53 Y66.11 E4.04966
G1 X64.673 Y66.015 E4.05633
G1 X65.27 Y65.667 E4.08317
G1 X65.903 Y65.39 E4.11
G1 X66.563 Y65.188 E4.1368
G1 X67.243 Y65.063 E4.16365
G1 X67.866 Y65.019 E4.18791
G1 X68.421 Y65.01 E4.20947
G1 X71.342 Y65.016 E4.3229
G1 X72.26 Y65.007 E4.35855
G1 X73.104 Y65.018 E4.39133
G1 X74.112 Y65.118 E4.43067
G1 X75.148 Y65.311 E4.4716
G1 X75.94 Y65.47 E4.50297
G1 X78.576 Y65.923 E4.60684
G1 X81.173 Y66.293 E4.70871
G1 X82.18 Y66.407 E4.74807
G1 X83.156 Y66.531 E4.78628
G1 X83.835 Y66.657 E4.81309
G1 X84.22 Y66.766 E4.82863
G1 X84.48 Y66.849 E4.83923
G1 X85.124 Y67.097 E4.86603
G1 X85.736 Y67.417 E4.89285
G1 X86.307 Y67.806 E4.91968
G1 X86.829 Y68.259 E4.94653
G1 X87.295 Y68.769 E4.97335
G1 X87.699 Y69.329 E5.00017
G1 X88.036 Y69.932 E5.027
G1 X88.301 Y70.57 E5.05383
G1 X88.49 Y71.234 E5.08064
G1 X88.602 Y71.916 E5.10748
G1 X88.633 Y72.436 E5.12771
G1 X88.648 Y73.374 E5.16414
G1 X88.647 Y84.478 E5.59536
G1 X88.637 Y85.176 E5.62247
G1 X88.595 Y85.802 E5.64684
G1 X88.508 Y86.518 E5.67485
G1 X88.302 Y88.016 E5.73357
G1 X88.194 Y88.732 E5.76169
G1 X88.052 Y89.408 E5.78852
G1 X87.832 Y90.063 E5.81535
G1 X87.539 Y90.689 E5.84219
G1 X87.175 Y91.276 E5.86902
G1 X86.745 Y91.817 E5.89585
G1 X86.256 Y92.305 E5.92268
G1 X85.714 Y92.733 E5.9495
G1 X85.202 Y93.054 E5.97297
G1 X85.014 Y93.159 E5.98133
G1 X84.392 Y93.461 E6.00819
G1 X83.74 Y93.688 E6.035
G1 X83.066 Y93.839 E6.06182
G1 X82.415 Y93.909 E6.08725
G1 X81.546 Y93.955 E6.12104
G1 X78.816 Y94.138 E6.2273
G1 X76.172 Y94.391 E6.33045
G1 X74.383 Y94.616 E6.40047
G1 X73.823 Y94.679 E6.42236
G1 X73.282 Y94.715 E6.44341
G1 X72.095 Y94.74 E6.48952
G1 X68.575 Y94.739 E6.62622
G1 X67.915 Y94.73 E6.65185
G1 X67.226 Y94.681 E6.67868
G1 X66.547 Y94.552 E6.70552
G1 X65.888 Y94.346 E6.73233
G1 X65.256 Y94.065 E6.75919
G1 X64.809 Y93.809 E6.7792
G1 X64.649 Y93.708 E6.78655
G1 X64.087 Y93.306 E6.81338
G1 X63.576 Y92.842 E6.84018
G1 X63.121 Y92.322 E6.86702
G1 X62.73 Y91.753 E6.89383
G1 X62.407 Y91.142 E6.92067
G1 X62.156 Y90.499 E6.94748
G1 X61.982 Y89.83 E6.97432
G1 X61.886 Y89.146 E7.00114
G1 X61.867 Y88.757 E7.01627
G1 X61.853 Y87.857 E7.05122
G1 X61.855 Y71.655 E7.68043
G1 X61.865 Y70.993 E7.70614
G1 X61.915 Y70.304 E7.73297
G1 X62.045 Y69.625 E7.75982
G1 X62.252 Y68.966 E7.78664
G1 X62.534 Y68.336 E7.81345
G1 X62.887 Y67.742 E7.84028
G1 X63.306 Y67.193 E7.8671
G1 X63.785 Y66.696 E7.89391
G0 F7200 X64.311 Y66.951
G1 F1800 X64.829 Y66.56 E7.91911
G1 X64.972 Y66.465 E7.92578
G1 X65.542 Y66.135 E7.95136
G1 X66.148 Y65.875 E7.97697
G1 X66.78 Y65.691 E8.00253
G1 X67.431 Y65.586 E8.02814
G1 X67.876 Y65.559 E8.04545
G1 X68.42 Y65.55 E8.06658
G1 X71.346 Y65.556 E8.18021
G1 X72.265 Y65.547 E8.2159
G1 X73.096 Y65.558 E8.24818
G1 X74.013 Y65.649 E8.28396
G1 X75.042 Y65.841 E8.32461
G1 X75.82 Y65.997 E8.35543
G1 X78.475 Y66.453 E8.46005
G1 X81.142 Y66.833 E8.56467
G1 X82.19 Y66.952 E8.60563
G1 X83.088 Y67.066 E8.64078
G1 X83.735 Y67.189 E8.66636
G1 X84.315 Y67.363 E8.68987
G1 X84.93 Y67.601 E8.71548
G1 X85.511 Y67.912 E8.74107
G1 X86.05 Y68.291 E8.76666
G1 X86.539 Y68.732 E8.79223
G1 X86.971 Y69.229 E8.81781
G1 X87.34 Y69.775 E8.8434
G1 X87.64 Y70.362 E8.869
G1 X87.866 Y70.98 E8.89456
G1 X88.016 Y71.622 E8.92016
G1 X88.093 Y72.445 E8.95226
G1 X88.108 Y73.374 E8.98834
G1 X88.107 Y84.47 E9.41926
G1 X88.097 Y85.168 E9.44637
G1 X88.059 Y85.738 E9.46855
G1 X87.974 Y86.445 E9.4962
G1 X87.779 Y87.865 E9.55187
G1 X87.66 Y88.652 E9.58278
G1 X87.523 Y89.296 E9.60835
G1 X87.308 Y89.919 E9.63394
G1 X87.02 Y90.511 E9.65951
G1 X86.662 Y91.064 E9.68509
G1 X86.239 Y91.57 E9.7107
G1 X85.759 Y92.021 E9.73628
G1 X85.227 Y92.41 E9.76188
G1 X84.751 Y92.688 E9.78328
G1 X84.157 Y92.973 E9.80887
G1 X83.533 Y93.185 E9.83446
G1 X82.888 Y93.32 E9.86005
G1 X82.387 Y93.37 E9.87961
G1 X81.482 Y93.417 E9.9148
G1 X78.762 Y93.601 E10.02067
G1 X76.153 Y93.85 E10.12245
G1 X74.323 Y94.079 E10.19408
G1 X73.763 Y94.142 E10.21596
G1 X73.27 Y94.175 E10.23515
G1 X72.083 Y94.2 E10.28126
G1 X68.582 Y94.199 E10.41722
G1 X67.922 Y94.19 E10.44285
G1 X67.265 Y94.142 E10.46844
G1 X66.619 Y94.013 E10.49402
G1 X65.993 Y93.808 E10.5196
G1 X65.396 Y93.528 E10.54521
G1 X64.937 Y93.252 E10.56601
G1 X64.403 Y92.867 E10.59157
G1 X63.919 Y92.42 E10.61716
G1 X63.492 Y91.918 E10.64275
G1 X63.129 Y91.368 E10.66834
G1 X62.836 Y90.778 E10.69393
G1 X62.616 Y90.157 E10.71951
G1 X62.474 Y89.514 E10.74508
G1 X62.407 Y88.748 E10.77495
G1 X62.393 Y87.857 E10.80955
G1 X62.395 Y71.663 E11.43845
G1 X62.405 Y71.001 E11.46416
G1 X62.455 Y70.344 E11.48975
G1 X62.584 Y69.698 E11.51533
G1 X62.79 Y69.072 E11.54092
G1 X63.071 Y68.476 E11.56651
G1 X63.421 Y67.919 E11.59206
G1 X63.837 Y67.408 E11.61765
G1 X64.311 Y66.951 E11.64322
G0 F7200 X64.835 Y67.221
G1 F1800 X65.271 Y66.915 E11.6639
G1 X65.813 Y66.603 E11.68819
G1 X66.39 Y66.363 E11.71246
G1 X66.993 Y66.198 E11.73674
G1 X67.886 Y66.099 E11.77163
G1 X68.419 Y66.09 E11.79233
G1 X71.351 Y66.096 E11.9062
G1 X72.388 Y66.087 E11.94647
G1 X73.089 Y66.097 E11.9737
G1 X73.914 Y66.18 E12.0059
G1 X74.936 Y66.37 E12.04627
G1 X75.764 Y66.536 E12.07906
G1 X78.379 Y66.985 E12.1821
G1 X81.041 Y67.365 E12.28653
G1 X82.122 Y67.488 E12.32878
G1 X83.02 Y67.602 E12.36393
G1 X83.891 Y67.795 E12.39858
G1 X84.151 Y67.878 E12.40918
G1 X84.733 Y68.105 E12.43344
G1 X85.282 Y68.406 E12.45775
G1 X85.787 Y68.773 E12.482
G1 X86.242 Y69.202 E12.50628
G1 X86.638 Y69.686 E12.53057
G1 X86.969 Y70.216 E12.55484
G1 X87.23 Y70.785 E12.57915
G1 X87.416 Y71.381 E12.60339
G1 X87.524 Y71.997 E12.62768
G1 X87.553 Y72.454 E12.64546
G1 X87.568 Y73.374 E12.6812
G1 X87.567 Y84.462 E13.1118
G1 X87.557 Y85.16 E13.13891
G1 X87.523 Y85.673 E13.15888
G1 X87.439 Y86.371 E13.18618
G1 X87.244 Y87.791 E13.24184
G1 X87.126 Y88.571 E13.27248
G1 X86.994 Y89.182 E13.29675
G1 X86.784 Y89.771 E13.32104
G1 X86.501 Y90.329 E13.34533
G1 X86.15 Y90.846 E13.3696
G1 X85.735 Y91.313 E13.39386
G1 X85.264 Y91.724 E13.41814
G1 X84.675 Y92.111 E13.44551
G1 X84.487 Y92.216 E13.45387
G1 X83.923 Y92.486 E13.47816
G1 X83.329 Y92.681 E13.50243
G1 X82.715 Y92.798 E13.52671
G1 X82.359 Y92.83 E13.54059
G1 X81.481 Y92.876 E13.57473
G1 X78.748 Y93.06 E13.68111
G1 X76.069 Y93.316 E13.78562
G1 X74.263 Y93.542 E13.85631
G1 X73.703 Y93.605 E13.87819
G1 X73.259 Y93.635 E13.89547
G1 X72.072 Y93.66 E13.94158
G1 X68.589 Y93.66 E14.07684
G1 X67.929 Y93.651 E14.10248
G1 X67.306 Y93.602 E14.12675
G1 X66.694 Y93.475 E14.15102
G1 X66.103 Y93.27 E14.17531
G1 X65.386 Y92.896 E14.20672
G1 X65.226 Y92.795 E14.21406
G1 X64.72 Y92.428 E14.23834
G1 X64.264 Y92 E14.26263
G1 X63.867 Y91.517 E14.28691
G1 X63.535 Y90.987 E14.31119
G1 X63.274 Y90.42 E14.33544
G1 X63.086 Y89.823 E14.35974
G1 X62.977 Y89.208 E14.384
G1 X62.947 Y88.739 E14.40225
G1 X62.933 Y87.857 E14.43651
G1 X62.935 Y71.671 E15.06509
G1 X62.945 Y71.009 E15.0908
G1 X62.994 Y70.386 E15.11507
G1 X63.122 Y69.774 E15.13935
G1 X63.328 Y69.184 E15.16362
G1 X63.607 Y68.624 E15.18792
G1 X63.955 Y68.105 E15.21218
G1 X64.367 Y67.635 E15.23646
G1 X64.835 Y67.221 E15.26072
G0 F7200 X65.427 Y67.46
G1 F1800 X65.57 Y67.365 E15.26739
G1 X66.082 Y67.072 E15.2903
G1 X66.629 Y66.852 E15.3132
G1 X67.2 Y66.708 E15.33606
G1 X67.896 Y66.639 E15.36323
G1 X68.418 Y66.63 E15.3835
G1 X71.355 Y66.636 E15.49756
G1 X72.38 Y66.627 E15.53737
G1 X73.081 Y66.637 E15.56459
G1 X73.815 Y66.71 E15.59324
G1 X74.83 Y66.9 E15.63334
G1 X75.638 Y67.062 E15.66534
G1 X78.288 Y67.517 E15.76976
G1 X81.005 Y67.904 E15.87634
G1 X82.054 Y68.024 E15.91735
G1 X82.952 Y68.138 E15.9525
G1 X83.727 Y68.309 E15.98332
G1 X83.987 Y68.392 E15.99392
G1 X84.535 Y68.609 E16.01681
G1 X85.049 Y68.898 E16.03971
G1 X85.519 Y69.254 E16.06261
G1 X85.937 Y69.67 E16.08551
G1 X86.294 Y70.139 E16.1084
G1 X86.585 Y70.652 E16.1313
G1 X86.804 Y71.199 E16.15419
G1 X86.946 Y71.771 E16.17707
G1 X87.013 Y72.463 E16.20407
G1 X87.028 Y73.374 E16.23946
G1 X87.028 Y84.454 E16.66975
G1 X87.018 Y85.152 E16.69686
G1 X86.987 Y85.609 E16.71465
G1 X86.904 Y86.298 E16.7416
G1 X86.709 Y87.718 E16.79726
G1 X86.592 Y88.491 E16.82762
G1 X86.465 Y89.066 E16.85049
G1 X86.261 Y89.62 E16.87342
G1 X85.984 Y90.14 E16.8963
G1 X85.64 Y90.619 E16.9192
G1 X85.233 Y91.046 E16.94211
G1 X84.773 Y91.414 E16.96499
G1 X84.412 Y91.64 E16.98153
G1 X84.224 Y91.745 E16.98989
G1 X83.691 Y91.997 E17.01278
G1 X83.129 Y92.174 E17.03567
G1 X82.331 Y92.291 E17.06699
G1 X81.417 Y92.339 E17.10253
G1 X78.697 Y92.522 E17.2084
G1 X76.013 Y92.778 E17.31311
G1 X74.202 Y93.006 E17.38399
G1 X73.642 Y93.069 E17.40588
G1 X73.248 Y93.095 E17.42121
G1 X71.968 Y93.121 E17.47093
G1 X68.597 Y93.12 E17.60185
G1 X67.937 Y93.111 E17.62748
G1 X67.349 Y93.063 E17.65039
G1 X66.773 Y92.936 E17.6733
G1 X66.22 Y92.732 E17.69619
G1 X65.674 Y92.439 E17.72025
G1 X65.514 Y92.338 E17.7276
G1 X65.038 Y91.991 E17.75048
G1 X64.613 Y91.582 E17.77338
G1 X64.248 Y91.119 E17.79628
G1 X63.948 Y90.611 E17.81919
G1 X63.72 Y90.068 E17.84206
G1 X63.568 Y89.498 E17.86497
G1 X63.487 Y88.73 E17.89496
G1 X63.473 Y87.857 E17.92887
G1 X63.474 Y71.679 E18.55714
G1 X63.484 Y71.017 E18.58285
G1 X63.533 Y70.43 E18.60573
G1 X63.661 Y69.854 E18.62864
G1 X63.866 Y69.301 E18.65155
G1 X64.143 Y68.781 E18.67443
G1 X64.488 Y68.303 E18.69732
G1 X64.895 Y67.876 E18.72023
G1 X65.427 Y67.46 E18.74646
G0 F7200 X65.726 Y67.909
G1 F1800 X65.869 Y67.814 E18.75312
G1 X66.349 Y67.543 E18.77453
G1 X66.864 Y67.344 E18.79597
G1 X67.402 Y67.222 E18.81739
G1 X67.906 Y67.179 E18.83704
G1 X68.417 Y67.17 E18.85689
G1 X71.359 Y67.176 E18.97114
G1 X72.372 Y67.167 E19.01048
G1 X73.073 Y67.177 E19.03771
G1 X73.716 Y67.241 E19.0628
G1 X74.724 Y67.429 E19.10262
G1 X75.552 Y67.595 E19.13542
G1 X78.221 Y68.054 E19.24059
G1 X80.905 Y68.436 E19.34587
G1 X81.986 Y68.559 E19.38812
G1 X82.884 Y68.673 E19.42328
G1 X83.563 Y68.823 E19.45028
G1 X83.823 Y68.906 E19.46088
G1 X84.335 Y69.112 E19.48231
G1 X84.812 Y69.389 E19.50374
G1 X85.244 Y69.732 E19.52516
G1 X85.622 Y70.134 E19.54659
G1 X85.938 Y70.587 E19.56804
G1 X86.185 Y71.08 E19.58945
G1 X86.358 Y71.604 E19.61088
G1 X86.454 Y72.147 E19.63229
G1 X86.473 Y72.472 E19.64494
G1 X86.488 Y73.374 E19.67997
G1 X86.488 Y84.447 E20.10999
G1 X86.478 Y85.145 E20.1371
G1 X86.451 Y85.544 E20.15263
G1 X86.369 Y86.224 E20.17923
G1 X86.174 Y87.644 E20.23489
G1 X86.058 Y88.41 E20.26498
G1 X85.937 Y88.948 E20.2864
G1 X85.739 Y89.463 E20.30782
G1 X85.468 Y89.944 E20.32926
G1 X85.131 Y90.381 E20.3507
G1 X84.735 Y90.765 E20.37212
G1 X84.149 Y91.168 E20.39974
G1 X83.961 Y91.273 E20.4081
G1 X83.461 Y91.507 E20.42954
G1 X82.933 Y91.666 E20.45095
G1 X82.302 Y91.752 E20.47568
G1 X81.367 Y91.801 E20.51204
G1 X78.677 Y91.982 E20.61675
G1 X75.932 Y92.244 E20.72383
G1 X74.142 Y92.469 E20.7939
G1 X73.582 Y92.532 E20.81578
G1 X73.236 Y92.555 E20.82925
G1 X71.968 Y92.581 E20.8785
G1 X68.604 Y92.58 E21.00914
G1 X67.944 Y92.571 E21.03477
G1 X67.394 Y92.523 E21.05621
G1 X66.857 Y92.397 E21.07764
G1 X66.344 Y92.194 E21.09906
G1 X65.962 Y91.983 E21.11601
G1 X65.802 Y91.882 E21.12336
G1 X65.358 Y91.554 E21.14479
G1 X64.966 Y91.166 E21.16621
G1 X64.634 Y90.725 E21.18765
G1 X64.37 Y90.241 E21.20906
G1 X64.178 Y89.724 E21.23048
G1 X64.062 Y89.184 E21.25193
G1 X64.026 Y88.722 E21.26992
G1 X64.013 Y87.857 E21.30352
G1 X64.014 Y71.687 E21.93148
G1 X64.024 Y71.025 E21.95719
G1 X64.073 Y70.476 E21.9786
G1 X64.2 Y69.939 E22.00003
G1 X64.403 Y69.426 E22.02145
G1 X64.678 Y68.948 E22.04287
G1 X65.02 Y68.515 E22.0643
G1 X65.42 Y68.135 E22.08573
G1 X65.726 Y67.909 E22.1005
G0 F7200 X66.025 Y68.359
G1 F1800 X66.168 Y68.264 E22.10717
G1 X66.614 Y68.016 E22.12698
G1 X67.094 Y67.84 E22.14684
G1 X67.595 Y67.74 E22.16668
G1 X67.916 Y67.719 E22.17917
G1 X68.416 Y67.71 E22.19859
G1 X71.363 Y67.716 E22.31304
G1 X72.365 Y67.707 E22.35195
G1 X73.066 Y67.717 E22.37918
G1 X73.618 Y67.772 E22.40072
G1 X74.618 Y67.959 E22.44023
G1 X75.426 Y68.121 E22.47223
G1 X78.159 Y68.591 E22.57993
G1 X80.839 Y68.972 E22.68505
G1 X81.918 Y69.095 E22.72723
G1 X82.816 Y69.209 E22.76238
G1 X83.398 Y69.338 E22.78553
G1 X83.658 Y69.421 E22.79613
G1 X84.132 Y69.614 E22.81601
G1 X84.569 Y69.878 E22.83583
G1 X84.96 Y70.208 E22.8557
G1 X85.295 Y70.594 E22.87555
G1 X85.565 Y71.027 E22.89537
G1 X85.765 Y71.498 E22.91524
G1 X85.889 Y71.994 E22.93509
G1 X85.934 Y72.481 E22.95409
G1 X85.948 Y73.319 E22.98664
G1 X85.948 Y84.439 E23.41848
G1 X85.938 Y85.137 E23.44559
G1 X85.915 Y85.48 E23.45894
G1 X85.834 Y86.151 E23.48519
G1 X85.639 Y87.571 E23.54085
G1 X85.524 Y88.33 E23.57066
G1 X85.409 Y88.828 E23.59051
G1 X85.217 Y89.301 E23.61034
G1 X84.954 Y89.739 E23.63018
G1 X84.626 Y90.131 E23.65003
G1 X84.241 Y90.467 E23.66987
G1 X83.885 Y90.697 E23.68633
G1 X83.697 Y90.802 E23.6947
G1 X83.233 Y91.015 E23.71452
G1 X82.741 Y91.154 E23.73438
G1 X82.274 Y91.213 E23.75266
G1 X81.359 Y91.261 E23.78824
G1 X78.591 Y91.447 E23.89598
G1 X75.881 Y91.706 E24.0017
G1 X74.082 Y91.933 E24.07212
