;FLAVOR:RepRap
;TIME:1627
;Filament used: 1.61563m
;Layer height: 0.2
;MINX:37.087
;MINY:39.184
;MINZ:0.2
;MAXX:122.76
;MAXY:123.9
;MAXZ:6
;Generated with Cura_SteamEngine 5.2.1
T0


; Pre-Processed for Cancel-Object support by preprocess_cancellation v0.2.0
; 1 known objects
EXCLUDE_OBJECT_DEFINE NAME=LEFT_BREATHER_SPIDER_STL CENTER=79.882,80.688 POLYGON=[[41.49,43.611],[41.49,119.507],[118.364,119.507],[118.364,43.611]]
M82 ;absolute extrusion mode
PRINT_START BED=70 EXTRUDER=213 STANDBY=175 CHAMBER=28
M83 ;relative extrusion mode
G1 F7200 E-0.4
;LAYER_COUNT:30
;LAYER:0
M107
G1 F600 Z0.4
G0 F7200 X46.107 Y54.813 Z0.4
;TYPE:SKIRT
G1 F600 Z0.2
G1 F2880 E0.4
G1 F1800 X47.138 Y54.083 E0.05042
G1 X49.369 Y52.454 E0.11025
G1 X51.502 Y50.802 E0.10768
G1 X53.604 Y49.077 E0.10853
G1 X55.646 Y47.301 E0.10801
G1 X57.631 Y45.475 E0.10765
G1 X59.073 Y44.076 E0.08019
G1 X60.064 Y43.101 E0.05549
G1 X60.504 Y42.724 E0.02313
G1 X61.245 Y42.283 E0.03442
G1 X62.374 Y41.76 E0.04966
G1 X63.28 Y41.364 E0.03946
G1 X64.541 Y40.858 E0.05423
G1 X65.46 Y40.514 E0.03916
G1 X66.575 Y40.135 E0.047
G1 X67.518 Y39.836 E0.03948
G1 X68.759 Y39.484 E0.05148
G1 X69.415 Y39.312 E0.02707
G1 X69.984 Y39.204 E0.02312
G1 X70.82 Y39.189 E0.03337
G1 X72.09 Y39.292 E0.05085
G1 X74.864 Y39.479 E0.11097
G1 X77.558 Y39.584 E0.10761
G1 X80.291 Y39.613 E0.10909
G1 X82.953 Y39.565 E0.10626
G1 X85.705 Y39.44 E0.10995
G1 X89.064 Y39.188 E0.13444
G1 X89.643 Y39.184 E0.02311
G1 X90.441 Y39.313 E0.03226
G1 X91.157 Y39.501 E0.02955
G1 X92.577 Y39.909 E0.05897
G1 X93.949 Y40.361 E0.05765
G1 X94.79 Y40.658 E0.0356
G1 X95.954 Y41.111 E0.04985
G1 X96.89 Y41.497 E0.04041
G1 X97.973 Y41.984 E0.04739
G1 X98.622 Y42.288 E0.0286
G1 X99.128 Y42.569 E0.0231
G1 X99.79 Y43.102 E0.03392
G1 X100.735 Y44.034 E0.05297
G1 X102.757 Y45.974 E0.11184
G1 X104.726 Y47.761 E0.10613
G1 X106.797 Y49.534 E0.10881
G1 X108.896 Y51.233 E0.10778
G1 X111.076 Y52.895 E0.10941
G1 X113.768 Y54.829 E0.1323
G1 X114.214 Y55.199 E0.02313
G1 X114.762 Y55.836 E0.03354
G1 X115.525 Y56.931 E0.05327
G1 X116.081 Y57.771 E0.04021
G1 X116.678 Y58.734 E0.04522
G1 X117.238 Y59.682 E0.04395
G1 X117.842 Y60.784 E0.05016
G1 X118.253 Y61.571 E0.03544
G1 X118.807 Y62.717 E0.0508
G1 X119.101 Y63.352 E0.02793
G1 X119.308 Y63.894 E0.02316
G1 X119.471 Y64.723 E0.03372
G1 X119.588 Y65.964 E0.04975
G1 X119.882 Y68.705 E0.11003
G1 X120.251 Y71.416 E0.1092
G1 X120.687 Y74.062 E0.10703
G1 X121.208 Y76.741 E0.10893
G1 X121.798 Y79.379 E0.10789
G1 X122.643 Y82.695 E0.13658
G1 X122.747 Y83.265 E0.02313
G1 X122.76 Y84.068 E0.03205
G1 X122.714 Y84.641 E0.02294
G1 X122.633 Y85.468 E0.03317
G1 X122.525 Y86.42 E0.03824
G1 X122.342 Y87.673 E0.05054
G1 X122.176 Y88.663 E0.04006
G1 X121.94 Y89.845 E0.04811
G1 X121.757 Y90.685 E0.03431
G1 X121.427 Y91.996 E0.05396
G1 X121.242 Y92.672 E0.02797
G1 X121.051 Y93.219 E0.02312
G1 X120.643 Y93.956 E0.03362
G1 X119.944 Y94.964 E0.04896
G1 X118.398 Y97.266 E0.11067
G1 X116.955 Y99.552 E0.1079
G1 X115.569 Y101.894 E0.10862
G1 X114.252 Y104.266 E0.10829
G1 X113.023 Y106.642 E0.10677
G1 X111.526 Y109.749 E0.13765
G1 X111.239 Y110.252 E0.02311
G1 X110.705 Y110.903 E0.03361
G1 X109.816 Y111.788 E0.05007
G1 X109.01 Y112.554 E0.04438
G1 X108.079 Y113.383 E0.04975
G1 X107.476 Y113.9 E0.0317
G1 X106.387 Y114.777 E0.05581
G1 X105.753 Y115.268 E0.03201
G1 X104.683 Y116.043 E0.05273
G1 X104.04 Y116.488 E0.03121
G1 X103.542 Y116.784 E0.02312
G1 X102.758 Y117.085 E0.03352
G1 X101.524 Y117.422 E0.05106
G1 X98.944 Y118.167 E0.10718
G1 X96.329 Y119.005 E0.1096
G1 X93.765 Y119.906 E0.10847
G1 X91.288 Y120.854 E0.10586
G1 X88.738 Y121.917 E0.11027
G1 X86.922 Y122.731 E0.07943
G1 X85.642 Y123.315 E0.05615
G1 X85.1 Y123.519 E0.02311
G1 X84.29 Y123.676 E0.03293
G1 X83.637 Y123.737 E0.02618
G1 X81.911 Y123.853 E0.06904
G1 X80.675 Y123.89 E0.04935
G1 X79.868 Y123.9 E0.03221
G1 X78.512 Y123.873 E0.05413
G1 X77.639 Y123.838 E0.03487
G1 X76.338 Y123.746 E0.05206
G1 X75.569 Y123.676 E0.03082
G1 X74.998 Y123.584 E0.02308
G1 X74.196 Y123.309 E0.03384
G1 X73.071 Y122.791 E0.04943
G1 X70.546 Y121.673 E0.11022
G1 X68.006 Y120.635 E0.10952
G1 X65.517 Y119.697 E0.10616
G1 X62.953 Y118.814 E0.10823
G1 X60.361 Y118.001 E0.10842
G1 X57.059 Y117.072 E0.13691
G1 X56.513 Y116.877 E0.02314
G1 X55.817 Y116.49 E0.03178
G1 X55.292 Y116.129 E0.02543
G1 X53.993 Y115.185 E0.06409
G1 X52.92 Y114.341 E0.05449
G1 X52.25 Y113.792 E0.03457
G1 X51.168 Y112.845 E0.05739
G1 X50.501 Y112.235 E0.03608
G1 X49.657 Y111.415 E0.04697
G1 X49.116 Y110.867 E0.03073
G1 X48.738 Y110.427 E0.02315
G1 X48.31 Y109.715 E0.03316
G1 X47.756 Y108.544 E0.0517
G1 X46.575 Y106.137 E0.10701
G1 X45.295 Y103.704 E0.10972
G1 X43.971 Y101.351 E0.10776
G1 X42.578 Y99.032 E0.10797
G1 X41.128 Y96.766 E0.10737
G1 X39.191 Y93.926 E0.1372
G1 X38.899 Y93.426 E0.02311
G1 X38.611 Y92.672 E0.03221
G1 X38.44 Y92.05 E0.02575
G1 X38.03 Y90.393 E0.06813
G1 X37.792 Y89.252 E0.04652
G1 X37.593 Y88.182 E0.04344
G1 X37.408 Y86.982 E0.04846
G1 X37.295 Y86.152 E0.03343
G1 X37.151 Y84.752 E0.05617
G1 X37.095 Y84.076 E0.02707
G1 X37.087 Y83.496 E0.02315
G1 X37.218 Y82.663 E0.03366
G1 X37.548 Y81.405 E0.05191
G1 X38.199 Y78.765 E0.10852
G1 X38.777 Y76.097 E0.10896
G1 X39.272 Y73.462 E0.10701
G1 X39.695 Y70.792 E0.10789
G1 X40.045 Y68.099 E0.10839
G1 X40.385 Y64.699 E0.13638
G1 X40.482 Y64.128 E0.02312
G1 X40.762 Y63.333 E0.03364
G1 X41.337 Y62.11 E0.05394
G1 X41.78 Y61.223 E0.03957
G1 X42.369 Y60.128 E0.04963
G1 X42.847 Y59.282 E0.03878
G1 X43.453 Y58.284 E0.0466
G1 X44.023 Y57.385 E0.04249
G1 X44.705 Y56.382 E0.04841
G1 X45.105 Y55.816 E0.02766
G1 X45.471 Y55.367 E0.02312
G1 X46.107 Y54.813 E0.03366
G0 F7200 X46.384 Y55.205
G1 F1800 X47.432 Y54.462 E0.05127
G1 X49.663 Y52.833 E0.11025
G1 X51.779 Y51.195 E0.1068
G1 X53.92 Y49.438 E0.11054
G1 X55.965 Y47.66 E0.10816
G1 X57.97 Y45.815 E0.10875
G1 X59.407 Y44.421 E0.07991
G1 X60.401 Y43.443 E0.05566
G1 X60.816 Y43.09 E0.02175
G1 X61.446 Y42.719 E0.02918
G1 X62.653 Y42.161 E0.05307
G1 X63.576 Y41.76 E0.04017
G1 X64.71 Y41.307 E0.04874
G1 X65.502 Y41.009 E0.03377
G1 X66.794 Y40.569 E0.05447
G1 X67.649 Y40.297 E0.03581
G1 X68.808 Y39.968 E0.04809
G1 X69.537 Y39.777 E0.03008
G1 X70.073 Y39.677 E0.02176
G1 X70.782 Y39.667 E0.0283
G1 X72.074 Y39.772 E0.05174
G1 X74.848 Y39.959 E0.11097
G1 X77.536 Y40.063 E0.10736
G1 X80.294 Y40.093 E0.11008
G1 X82.983 Y40.045 E0.10734
G1 X85.696 Y39.921 E0.10839
G1 X89.1 Y39.666 E0.13624
G1 X89.645 Y39.666 E0.02175
G1 X90.32 Y39.777 E0.0273
G1 X90.939 Y39.939 E0.02554
G1 X92.586 Y40.414 E0.06841
G1 X93.728 Y40.792 E0.04801
G1 X94.616 Y41.105 E0.03758
G1 X95.773 Y41.555 E0.04955
G1 X96.579 Y41.885 E0.03476
G1 X97.769 Y42.418 E0.05204
G1 X98.418 Y42.722 E0.0286
G1 X98.893 Y42.989 E0.02175
G1 X99.453 Y43.443 E0.02877
G1 X100.44 Y44.417 E0.05534
G1 X102.386 Y46.285 E0.10766
G1 X104.43 Y48.139 E0.11014
G1 X106.486 Y49.899 E0.10802
G1 X108.608 Y51.616 E0.10895
G1 X110.787 Y53.279 E0.1094
G1 X113.488 Y55.219 E0.13273
G1 X113.907 Y55.568 E0.02176
G1 X114.369 Y56.111 E0.02846
G1 X115.125 Y57.196 E0.05278
G1 X115.609 Y57.924 E0.03489
G1 X116.27 Y58.987 E0.04996
G1 X116.817 Y59.913 E0.04293
G1 X117.417 Y61.007 E0.0498
G1 X117.766 Y61.671 E0.02994
G1 X118.372 Y62.919 E0.05537
G1 X118.666 Y63.554 E0.02793
G1 X118.858 Y64.064 E0.02175
G1 X118.994 Y64.768 E0.02862
G1 X119.111 Y66.015 E0.04999
G1 X119.409 Y68.787 E0.11127
G1 X119.776 Y71.486 E0.10871
G1 X120.212 Y74.13 E0.10695
G1 X120.742 Y76.856 E0.11084
G1 X121.326 Y79.469 E0.10686
G1 X122.178 Y82.813 E0.13773
G1 X122.273 Y83.35 E0.02177
G1 X122.281 Y84.03 E0.02714
G1 X122.23 Y84.665 E0.02543
G1 X122.162 Y85.365 E0.02807
G1 X122.05 Y86.351 E0.03961
G1 X121.869 Y87.595 E0.05017
G1 X121.727 Y88.451 E0.03463
G1 X121.471 Y89.743 E0.05257
G1 X121.26 Y90.703 E0.03923
G1 X120.983 Y91.799 E0.04512
G1 X120.779 Y92.545 E0.03087
G1 X120.597 Y93.059 E0.02176
G1 X120.248 Y93.682 E0.0285
G1 X119.545 Y94.696 E0.04925
G1 X118.009 Y96.983 E0.10996
G1 X116.541 Y99.308 E0.10975
G1 X115.151 Y101.659 E0.10901
G1 X113.843 Y104.013 E0.10748
G1 X112.572 Y106.47 E0.11041
G1 X111.093 Y109.54 E0.13601
G1 X110.821 Y110.013 E0.02178
G1 X110.366 Y110.562 E0.02846
G1 X109.419 Y111.504 E0.05331
G1 X108.691 Y112.196 E0.04009
G1 X107.82 Y112.972 E0.04656
G1 X107.072 Y113.611 E0.03926
G1 X106.093 Y114.397 E0.05011
G1 X105.459 Y114.888 E0.03201
G1 X104.34 Y115.697 E0.05511
G1 X103.767 Y116.093 E0.0278
G1 X103.297 Y116.37 E0.02177
G1 X102.632 Y116.622 E0.02838
G1 X101.398 Y116.959 E0.05106
G1 X98.795 Y117.711 E0.10814
G1 X96.175 Y118.55 E0.1098
G1 X93.607 Y119.452 E0.10863
G1 X91.116 Y120.406 E0.10646
G1 X88.542 Y121.479 E0.1113
G1 X86.701 Y122.304 E0.08052
G1 X85.443 Y122.878 E0.05519
G1 X84.932 Y123.068 E0.02176
G1 X84.245 Y123.198 E0.02791
G1 X83.592 Y123.259 E0.02618
G1 X82.039 Y123.366 E0.06213
G1 X80.669 Y123.41 E0.05471
G1 X79.862 Y123.42 E0.03221
G1 X78.531 Y123.393 E0.05313
G1 X77.658 Y123.358 E0.03487
G1 X76.3 Y123.261 E0.05434
G1 X75.613 Y123.198 E0.02753
G1 X75.076 Y123.109 E0.02173
G1 X74.397 Y122.873 E0.02869
G1 X73.279 Y122.358 E0.04913
G1 X70.72 Y121.225 E0.1117
G1 X68.191 Y120.192 E0.10903
G1 X65.671 Y119.242 E0.10749
G1 X63.123 Y118.364 E0.10756
G1 X60.493 Y117.54 E0.11
G1 X57.189 Y116.61 E0.13699
G1 X56.676 Y116.424 E0.02178
G1 X56.089 Y116.094 E0.02688
G1 X55.483 Y115.676 E0.02938
G1 X54.275 Y114.797 E0.05963
G1 X53.224 Y113.969 E0.0534
G1 X52.554 Y113.42 E0.03457
G1 X51.491 Y112.49 E0.05637
G1 X50.924 Y111.974 E0.0306
G1 X49.934 Y111.014 E0.05504
G1 X49.457 Y110.53 E0.02712
G1 X49.104 Y110.115 E0.02175
G1 X48.744 Y109.51 E0.0281
G1 X48.213 Y108.387 E0.04958
G1 X46.98 Y105.874 E0.11172
G1 X45.723 Y103.486 E0.10771
G1 X44.395 Y101.125 E0.10812
G1 X42.988 Y98.784 E0.10901
G1 X41.504 Y96.464 E0.10992
G1 X39.588 Y93.655 E0.13571
G1 X39.314 Y93.184 E0.02175
G1 X39.074 Y92.545 E0.02724
G1 X38.903 Y91.923 E0.02575
G1 X38.5 Y90.295 E0.06694
G1 X38.262 Y89.154 E0.04652
G1 X38.068 Y88.109 E0.04242
G1 X37.884 Y86.917 E0.04814
G1 X37.756 Y85.961 E0.0385
G1 X37.63 Y84.712 E0.0501
G1 X37.574 Y84.036 E0.02707
G1 X37.569 Y83.491 E0.02175
G1 X37.683 Y82.785 E0.02854
G1 X37.999 Y81.579 E0.04976
G1 X38.665 Y78.882 E0.11088
G1 X39.251 Y76.179 E0.11039
G1 X39.743 Y73.552 E0.10667
G1 X40.171 Y70.856 E0.10895
G1 X40.523 Y68.144 E0.10915
G1 X40.863 Y64.746 E0.1363
G1 X40.956 Y64.209 E0.02175
G1 X41.196 Y63.537 E0.02848
G1 X41.766 Y62.324 E0.05349
G1 X42.148 Y61.555 E0.03427
G1 X42.787 Y60.364 E0.05394
G1 X43.257 Y59.531 E0.03817
G1 X43.859 Y58.54 E0.04628
G1 X44.42 Y57.654 E0.04185
G1 X45.097 Y56.659 E0.04803
G1 X45.497 Y56.093 E0.02766
G1 X45.843 Y55.672 E0.02175
G1 X46.384 Y55.205 E0.02852
G0 F7200 X46.662 Y55.596
G1 F1800 X47.694 Y54.864 E0.0505
G1 X49.94 Y53.224 E0.111
G1 X52.112 Y51.543 E0.10962
G1 X54.218 Y49.814 E0.10875
G1 X56.284 Y48.018 E0.10926
G1 X58.29 Y46.173 E0.10878
G1 X59.741 Y44.765 E0.0807
G1 X60.737 Y43.785 E0.05577
G1 X61.127 Y43.458 E0.02031
G1 X61.648 Y43.154 E0.02408
G1 X62.844 Y42.601 E0.05259
G1 X63.754 Y42.206 E0.03959
G1 X64.816 Y41.781 E0.04565
G1 X65.769 Y41.423 E0.04063
G1 X66.94 Y41.026 E0.04935
G1 X67.78 Y40.759 E0.03518
G1 X69.002 Y40.413 E0.05069
G1 X69.658 Y40.241 E0.02707
G1 X70.159 Y40.151 E0.02032
G1 X70.743 Y40.146 E0.02331
G1 X72.026 Y40.25 E0.05138
G1 X74.798 Y40.437 E0.11089
G1 X77.547 Y40.544 E0.1098
G1 X80.297 Y40.573 E0.10976
G1 X82.977 Y40.525 E0.10698
G1 X85.754 Y40.399 E0.11095
G1 X89.136 Y40.145 E0.13536
G1 X89.644 Y40.147 E0.02028
G1 X90.198 Y40.242 E0.02243
G1 X90.892 Y40.424 E0.02864
G1 X92.435 Y40.87 E0.06411
G1 X93.577 Y41.248 E0.04801
G1 X94.442 Y41.553 E0.03661
G1 X95.591 Y42 E0.04921
G1 X96.496 Y42.372 E0.03905
G1 X97.565 Y42.853 E0.04679
G1 X98.214 Y43.157 E0.0286
G1 X98.657 Y43.408 E0.02032
G1 X99.116 Y43.785 E0.02371
G1 X100.091 Y44.747 E0.05467
G1 X102.09 Y46.664 E0.11054
G1 X104.099 Y48.487 E0.10827
G1 X106.193 Y50.281 E0.11005
G1 X108.297 Y51.984 E0.10804
G1 X110.499 Y53.663 E0.11052
G1 X113.208 Y55.609 E0.13313
G1 X113.597 Y55.937 E0.02031
G1 X113.975 Y56.386 E0.02343
G1 X114.725 Y57.462 E0.05235
G1 X115.265 Y58.277 E0.03902
G1 X115.895 Y59.295 E0.04778
G1 X116.396 Y60.144 E0.03935
G1 X116.992 Y61.231 E0.04948
G1 X117.389 Y61.99 E0.03419
G1 X117.936 Y63.121 E0.05014
G1 X118.23 Y63.756 E0.02793
G1 X118.407 Y64.233 E0.02031
G1 X118.516 Y64.813 E0.02355
G1 X118.638 Y66.108 E0.05192
G1 X118.93 Y68.835 E0.10946
G1 X119.296 Y71.522 E0.10823
G1 X119.748 Y74.266 E0.11099
G1 X120.262 Y76.911 E0.10754
G1 X120.862 Y79.593 E0.10969
G1 X121.713 Y82.932 E0.13753
G1 X121.799 Y83.433 E0.02029
G1 X121.803 Y83.991 E0.02227
G1 X121.752 Y84.618 E0.02511
G1 X121.679 Y85.362 E0.02984
G1 X121.575 Y86.282 E0.03695
G1 X121.395 Y87.516 E0.04977
G1 X121.235 Y88.475 E0.0388
G1 X121.002 Y89.641 E0.04746
G1 X120.819 Y90.481 E0.03431
G1 X120.501 Y91.742 E0.0519
G1 X120.316 Y92.418 E0.02797
G1 X120.144 Y92.897 E0.02031
G1 X119.854 Y93.409 E0.02349
G1 X119.12 Y94.468 E0.05143
G1 X117.604 Y96.726 E0.10855
G1 X116.137 Y99.05 E0.10969
G1 X114.739 Y101.412 E0.10955
G1 X113.413 Y103.801 E0.10905
G1 X112.15 Y106.242 E0.10969
G1 X110.661 Y109.332 E0.1369
G1 X110.405 Y109.772 E0.02032
G1 X110.028 Y110.222 E0.02343
G1 X109.088 Y111.157 E0.05292
G1 X108.451 Y111.764 E0.03512
G1 X107.454 Y112.654 E0.05334
G1 X106.851 Y113.171 E0.0317
G1 X105.799 Y114.018 E0.05391
G1 X105.165 Y114.509 E0.03201
G1 X104.067 Y115.302 E0.05406
G1 X103.494 Y115.698 E0.0278
G1 X103.054 Y115.954 E0.02032
G1 X102.506 Y116.159 E0.02335
G1 X101.272 Y116.496 E0.05106
G1 X98.625 Y117.26 E0.10996
G1 X96.043 Y118.088 E0.10822
G1 X93.461 Y118.995 E0.10923
G1 X90.92 Y119.968 E0.1086
G1 X88.359 Y121.035 E0.11073
G1 X86.524 Y121.858 E0.08027
G1 X85.244 Y122.442 E0.05615
G1 X84.766 Y122.616 E0.0203
G1 X84.2 Y122.72 E0.02297
G1 X83.547 Y122.781 E0.02618
G1 X81.883 Y122.894 E0.06657
G1 X80.663 Y122.93 E0.04871
G1 X79.856 Y122.94 E0.03221
G1 X78.55 Y122.913 E0.05214
G1 X77.574 Y122.873 E0.03899
G1 X76.407 Y122.789 E0.0467
G1 X75.657 Y122.72 E0.03006
G1 X75.156 Y122.634 E0.02029
G1 X74.597 Y122.437 E0.02366
G1 X73.429 Y121.899 E0.05133
G1 X70.924 Y120.79 E0.10934
G1 X68.37 Y119.746 E0.11012
G1 X65.824 Y118.787 E0.10859
G1 X63.271 Y117.908 E0.10777
G1 X60.635 Y117.082 E0.11025
G1 X57.319 Y116.148 E0.1375
G1 X56.842 Y115.972 E0.02029
G1 X56.361 Y115.699 E0.02207
G1 X55.836 Y115.338 E0.02543
G1 X54.455 Y114.331 E0.06822
G1 X53.528 Y113.598 E0.04717
G1 X52.858 Y113.049 E0.03457
G1 X51.814 Y112.135 E0.05538
G1 X51.17 Y111.547 E0.03481
G1 X50.276 Y110.677 E0.04979
G1 X49.799 Y110.193 E0.02712
G1 X49.472 Y109.804 E0.02028
G1 X49.178 Y109.305 E0.02312
G1 X48.624 Y108.134 E0.0517
G1 X47.414 Y105.668 E0.10963
G1 X46.152 Y103.27 E0.10815
G1 X44.795 Y100.858 E0.11046
G1 X43.389 Y98.519 E0.10892
G1 X41.932 Y96.241 E0.10793
G1 X39.984 Y93.385 E0.13798
G1 X39.732 Y92.943 E0.02031
G1 X39.537 Y92.418 E0.02235
G1 X39.345 Y91.718 E0.02897
G1 X38.997 Y90.316 E0.05765
G1 X38.719 Y88.991 E0.05404
G1 X38.559 Y88.137 E0.03468
G1 X38.36 Y86.852 E0.0519
G1 X38.234 Y85.913 E0.03781
G1 X38.108 Y84.672 E0.04979
G1 X38.052 Y83.996 E0.02707
G1 X38.05 Y83.488 E0.02028
G1 X38.147 Y82.907 E0.02351
G1 X38.465 Y81.694 E0.05005
G1 X39.133 Y78.99 E0.11117
G1 X39.726 Y76.251 E0.11185
G1 X40.215 Y73.644 E0.10587
G1 X40.646 Y70.926 E0.10984
G1 X40.997 Y68.22 E0.10891
G1 X41.34 Y64.794 E0.13742
G1 X41.43 Y64.294 E0.02028
G1 X41.631 Y63.741 E0.02348
G1 X42.196 Y62.538 E0.05305
G1 X42.578 Y61.769 E0.03427
G1 X43.205 Y60.599 E0.05298
G1 X43.613 Y59.873 E0.03324
G1 X44.265 Y58.796 E0.05025
G1 X44.817 Y57.924 E0.04119
G1 X45.489 Y56.936 E0.04769
G1 X45.889 Y56.37 E0.02766
G1 X46.214 Y55.979 E0.02029
G1 X46.662 Y55.596 E0.02352
G1 F7200 E-0.4
G1 F600 Z0.4
;MESH:LEFT BREATHER SPIDER.STL
EXCLUDE_OBJECT_START NAME=LEFT_BREATHER_SPIDER_STL
G0 F7200 X68.61 Y81.928 Z0.4
;TYPE:WALL-INNER
G1 F600 Z0.2
G1 F2880 E0.4
G1 F1800 X68.482 Y82.148 E0.01016
G1 X68.176 Y82.438 E0.01683
G1 X67.619 Y82.632 E0.02354
G1 X42.583 Y84.822 E1.00306
G1 X42.658 Y85.582 E0.03048
G1 X42.943 Y87.471 E0.07625
G1 X43.331 Y89.381 E0.07779
G1 X43.512 Y90.087 E0.02909
G1 X67.785 Y83.583 E1.00296
