;FLAVOR:RepRap
;TIME:2172
;Filament used: 2.67104m
;Layer height: 0.2
;MINX:35.091
;MINY:28.223
;MINZ:0.2
;MAXX:126.399
;MAXY:119.533
;MAXZ:4.6
;Generated with Cura_SteamEngine 5.2.1
T0


; Pre-Processed for Cancel-Object support by preprocess_cancellation v0.2.0
; 1 known objects
EXCLUDE_OBJECT_DEFINE NAME=LEFT_BREATHER_SPIDER_SURROUND_STL CENTER=81.324,75.383 POLYGON=[[37.344,30.477],[37.344,117.268],[124.144,117.268],[124.144,30.477]]
M82 ;absolute extrusion mode
PRINT_START BED=70 EXTRUDER=213 STANDBY=175 CHAMBER=28
M83 ;relative extrusion mode
G1 F7200 E-0.4
;LAYER_COUNT:22
;LAYER:0
M107
G1 F600 Z0.4
G0 F7200 X46.989 Y43.142 Z0.4
;TYPE:SKIRT
G1 F600 Z0.2
G1 F2880 E0.4
G1 F1800 X47.712 Y42.367 E0.0423
G1 X48.203 Y41.855 E0.02831
G1 X48.804 Y41.261 E0.03373
G1 X49.551 Y40.546 E0.04127
G1 X50.146 Y39.993 E0.03242
G1 X50.695 Y39.511 E0.02916
G1 X51.494 Y38.827 E0.04198
G1 X51.98 Y38.423 E0.02522
G1 X52.761 Y37.81 E0.03963
G1 X53.48 Y37.263 E0.03606
G1 X54.181 Y36.745 E0.03479
G1 X54.761 Y36.342 E0.02819
G1 X55.653 Y35.739 E0.04297
G1 X56.204 Y35.378 E0.02629
G1 X56.933 Y34.929 E0.03417
G1 X57.861 Y34.376 E0.04312
G1 X58.498 Y34.01 E0.02932
G1 X59.2 Y33.631 E0.03184
G1 X60.086 Y33.168 E0.0399
G1 X60.802 Y32.808 E0.03199
G1 X61.545 Y32.461 E0.03273
G1 X62.426 Y32.064 E0.03857
G1 X63.172 Y31.741 E0.03245
G1 X63.873 Y31.459 E0.03016
G1 X64.785 Y31.107 E0.03902
G1 X65.496 Y30.845 E0.03024
G1 X66.317 Y30.567 E0.0346
G1 X67.264 Y30.263 E0.0397
G1 X68.056 Y30.022 E0.03304
G1 X68.754 Y29.83 E0.02889
G1 X69.726 Y29.577 E0.04009
G1 X70.463 Y29.397 E0.03028
G1 X71.301 Y29.215 E0.03423
G1 X72.291 Y29.016 E0.0403
G1 X72.928 Y28.897 E0.02586
G1 X73.89 Y28.745 E0.03887
G1 X74.867 Y28.607 E0.03938
G1 X75.656 Y28.508 E0.03174
G1 X76.329 Y28.44 E0.027
G1 X77.414 Y28.348 E0.04346
G1 X78.213 Y28.293 E0.03197
G1 X78.926 Y28.263 E0.02848
G1 X79.978 Y28.233 E0.042
G1 X80.796 Y28.223 E0.03265
G1 X81.515 Y28.233 E0.0287
G1 X82.549 Y28.263 E0.04129
G1 X83.395 Y28.3 E0.0338
G1 X84.107 Y28.351 E0.02849
G1 X85.181 Y28.443 E0.04302
G1 X85.844 Y28.509 E0.02659
G1 X86.702 Y28.618 E0.03452
G1 X87.725 Y28.763 E0.04124
G1 X88.392 Y28.868 E0.02695
G1 X89.264 Y29.029 E0.03539
G1 X90.217 Y29.221 E0.0388
G1 X91.111 Y29.415 E0.03651
G1 X92.76 Y29.836 E0.06793
G1 X93.451 Y30.027 E0.02861
G1 X94.262 Y30.275 E0.03385
G1 X95.224 Y30.585 E0.04034
G1 X95.991 Y30.844 E0.03231
G1 X96.706 Y31.108 E0.03042
G1 X97.653 Y31.473 E0.04051
G1 X98.32 Y31.741 E0.02869
G1 X99.113 Y32.086 E0.03452
G1 X100.007 Y32.49 E0.03916
G1 X100.785 Y32.856 E0.03432
G1 X101.433 Y33.184 E0.02899
G1 X102.317 Y33.646 E0.03981
G1 X102.997 Y34.012 E0.03082
G1 X104.595 Y34.953 E0.07402
G1 X105.259 Y35.363 E0.03115
G1 X105.922 Y35.797 E0.03163
G1 X106.782 Y36.379 E0.04145
G1 X107.399 Y36.811 E0.03006
G1 X108.026 Y37.275 E0.03113
G1 X108.804 Y37.869 E0.03907
G1 X109.384 Y38.323 E0.0294
G1 X110.074 Y38.895 E0.03577
G1 X110.807 Y39.523 E0.03852
G1 X111.425 Y40.069 E0.03291
G1 X111.999 Y40.604 E0.03132
G1 X112.683 Y41.259 E0.0378
G1 X113.306 Y41.876 E0.035
G1 X113.793 Y42.383 E0.02806
G1 X114.534 Y43.179 E0.04341
G1 X114.972 Y43.662 E0.02602
G1 X115.536 Y44.32 E0.03459
G1 X116.212 Y45.134 E0.04223
G1 X116.702 Y45.741 E0.03114
G1 X117.153 Y46.336 E0.0298
G1 X117.73 Y47.117 E0.03876
G1 X118.187 Y47.754 E0.03129
G1 X118.671 Y48.467 E0.03439
G1 X119.234 Y49.327 E0.04103
G1 X119.59 Y49.889 E0.02655
G1 X120.045 Y50.651 E0.03542
G1 X120.558 Y51.54 E0.04097
G1 X120.887 Y52.129 E0.02693
G1 X121.243 Y52.806 E0.03053
G1 X122.09 Y54.509 E0.07591
G1 X122.416 Y55.233 E0.03169
G1 X122.814 Y56.148 E0.03982
G1 X123.132 Y56.913 E0.03307
G1 X123.4 Y57.607 E0.02969
G1 X123.747 Y58.551 E0.04014
G1 X124.024 Y59.336 E0.03322
G1 X124.253 Y60.052 E0.03
G1 X124.54 Y60.99 E0.03915
G1 X124.752 Y61.716 E0.03019
G1 X124.965 Y62.532 E0.03366
G1 X125.21 Y63.532 E0.04109
G1 X125.365 Y64.201 E0.02741
G1 X125.534 Y65.041 E0.0342
G1 X125.722 Y66.049 E0.04093
G1 X125.842 Y66.749 E0.02835
G1 X125.962 Y67.585 E0.03371
G1 X126.09 Y68.586 E0.04028
G1 X126.188 Y69.455 E0.0349
G1 X126.244 Y70.116 E0.02648
G1 X126.321 Y71.202 E0.04345
G1 X126.364 Y71.973 E0.03082
G1 X126.386 Y72.782 E0.0323
G1 X126.399 Y73.702 E0.03672
G1 X126.398 Y74.609 E0.0362
G1 X126.378 Y75.297 E0.02747
G1 X126.334 Y76.326 E0.04111
G1 X126.287 Y77.135 E0.03234
G1 X126.217 Y77.961 E0.03309
G1 X126.121 Y78.915 E0.03827
G1 X126.026 Y79.733 E0.03287
G1 X125.918 Y80.485 E0.03032
G1 X125.761 Y81.485 E0.0404
G1 X125.625 Y82.268 E0.03172
G1 X125.465 Y83.065 E0.03244
G1 X125.257 Y84.029 E0.03936
G1 X125.073 Y84.822 E0.03249
G1 X124.894 Y85.507 E0.02826
G1 X124.614 Y86.525 E0.04214
G1 X124.419 Y87.195 E0.02785
G1 X124.153 Y88.028 E0.0349
G1 X123.823 Y89.004 E0.04112
G1 X123.562 Y89.738 E0.03109
G1 X123.282 Y90.462 E0.03098
G1 X122.908 Y91.394 E0.04008
G1 X122.644 Y92.024 E0.02726
G1 X122.259 Y92.878 E0.03739
G1 X121.825 Y93.802 E0.04074
G1 X121.494 Y94.479 E0.03008
G1 X121.157 Y95.124 E0.02905
G1 X120.649 Y96.062 E0.04258
G1 X120.257 Y96.759 E0.03192
G1 X119.88 Y97.391 E0.02937
G1 X119.324 Y98.294 E0.04232
G1 X118.958 Y98.87 E0.02724
G1 X118.5 Y99.55 E0.03272
G1 X117.888 Y100.428 E0.04272
G1 X117.497 Y100.972 E0.02674
G1 X116.932 Y101.716 E0.03729
G1 X116.364 Y102.44 E0.03673
G1 X115.82 Y103.113 E0.03454
G1 X115.341 Y103.671 E0.02935
G1 X114.665 Y104.44 E0.04087
G1 X114.138 Y105.019 E0.03125
G1 X113.559 Y105.623 E0.03339
G1 X112.929 Y106.262 E0.03581
G1 X112.285 Y106.895 E0.03604
G1 X111.767 Y107.378 E0.02827
G1 X110.996 Y108.075 E0.04148
G1 X110.374 Y108.62 E0.03301
G1 X109.815 Y109.085 E0.02902
G1 X109.028 Y109.719 E0.04034
G1 X108.339 Y110.257 E0.03489
G1 X107.838 Y110.628 E0.02488
G1 X106.911 Y111.293 E0.04553
G1 X106.284 Y111.727 E0.03044
G1 X105.608 Y112.171 E0.03228
G1 X104.807 Y112.68 E0.03788
G1 X104.189 Y113.061 E0.02898
G1 X103.391 Y113.523 E0.0368
G1 X102.581 Y113.975 E0.03702
G1 X101.81 Y114.39 E0.03495
G1 X101.148 Y114.723 E0.02958
G1 X100.275 Y115.148 E0.03875
G1 X99.523 Y115.498 E0.03311
G1 X98.771 Y115.825 E0.03273
G1 X97.91 Y116.185 E0.03725
G1 X97.093 Y116.512 E0.03512
G1 X96.423 Y116.759 E0.0285
G1 X95.472 Y117.094 E0.04024
G1 X94.765 Y117.333 E0.02979
G1 X93.968 Y117.578 E0.03328
G1 X92.94 Y117.877 E0.04273
G1 X92.322 Y118.047 E0.02558
G1 X91.442 Y118.264 E0.03617
G1 X90.512 Y118.478 E0.03809
G1 X89.66 Y118.661 E0.03478
G1 X88.997 Y118.784 E0.02691
G1 X87.931 Y118.966 E0.04316
G1 X87.133 Y119.09 E0.03223
G1 X86.381 Y119.186 E0.03026
G1 X85.381 Y119.3 E0.04017
G1 X84.582 Y119.378 E0.03204
G1 X83.751 Y119.436 E0.03325
G1 X82.83 Y119.488 E0.03682
G1 X81.974 Y119.523 E0.03419
G1 X81.274 Y119.533 E0.02794
G1 X80.212 Y119.533 E0.04239
G1 X79.394 Y119.52 E0.03265
G1 X78.658 Y119.488 E0.0294
G1 X77.634 Y119.43 E0.04094
G1 X76.952 Y119.382 E0.02729
G1 X76.016 Y119.289 E0.03754
G1 X75.032 Y119.177 E0.03953
G1 X74.253 Y119.076 E0.03135
G1 X73.515 Y118.959 E0.02982
G1 X72.495 Y118.784 E0.04131
G1 X71.741 Y118.642 E0.03062
G1 X70.91 Y118.463 E0.03393
G1 X69.971 Y118.246 E0.03847
G1 X69.187 Y118.053 E0.03223
G1 X68.468 Y117.854 E0.02978
G1 X67.499 Y117.572 E0.04028
G1 X66.818 Y117.364 E0.02842
G1 X65.962 Y117.076 E0.03605
G1 X65.118 Y116.778 E0.03572
G1 X64.251 Y116.455 E0.03693
G1 X63.577 Y116.184 E0.02899
G1 X62.666 Y115.803 E0.03941
G1 X61.948 Y115.49 E0.03126
G1 X61.232 Y115.156 E0.03153
G1 X60.308 Y114.707 E0.041
G1 X59.584 Y114.34 E0.0324
G1 X58.874 Y113.957 E0.0322
G1 X57.999 Y113.467 E0.04003
G1 X57.406 Y113.124 E0.02734
G1 X56.645 Y112.656 E0.03566
G1 X55.822 Y112.134 E0.0389
G1 X55.131 Y111.68 E0.033
G1 X54.512 Y111.247 E0.03015
G1 X53.676 Y110.645 E0.04112
G1 X53.032 Y110.168 E0.03199
G1 X52.454 Y109.714 E0.02933
G1 X51.652 Y109.067 E0.04113
G1 X51.111 Y108.618 E0.02806
G1 X50.441 Y108.029 E0.03561
G1 X49.082 Y106.779 E0.0737
G1 X47.909 Y105.602 E0.06632
G1 X47.306 Y104.972 E0.03481
G1 X46.771 Y104.38 E0.03185
G1 X46.105 Y103.623 E0.04024
G1 X45.676 Y103.119 E0.02642
G1 X45.096 Y102.404 E0.03675
G1 X44.503 Y101.646 E0.03841
G1 X43.981 Y100.959 E0.03444
G1 X43.627 Y100.467 E0.02419
G1 X42.961 Y99.511 E0.0465
G1 X42.608 Y98.989 E0.02515
G1 X42.105 Y98.198 E0.03741
G1 X41.587 Y97.355 E0.03949
G1 X41.22 Y96.739 E0.02862
G1 X40.828 Y96.038 E0.03206
G1 X40.316 Y95.09 E0.043
G1 X39.954 Y94.395 E0.03128
G1 X39.637 Y93.744 E0.0289
G1 X39.185 Y92.778 E0.04257
G1 X38.858 Y92.052 E0.03178
G1 X38.561 Y91.34 E0.03079
G1 X38.201 Y90.443 E0.03858
G1 X37.917 Y89.706 E0.03152
G1 X37.66 Y88.981 E0.0307
G1 X37.308 Y87.938 E0.04394
G1 X37.073 Y87.201 E0.03087
G1 X36.86 Y86.466 E0.03054
G1 X36.589 Y85.483 E0.0407
G1 X36.416 Y84.819 E0.02739
G1 X36.216 Y83.953 E0.03547
G1 X36.014 Y83.016 E0.03826
G1 X35.845 Y82.169 E0.03447
G1 X35.718 Y81.421 E0.03028
G1 X35.563 Y80.434 E0.03988
G1 X35.461 Y79.721 E0.02875
G1 X35.366 Y78.896 E0.03315
G1 X35.263 Y77.855 E0.04175
G1 X35.207 Y77.195 E0.02644
G1 X35.152 Y76.243 E0.03806
G1 X35.114 Y75.308 E0.03735
G1 X35.091 Y74.463 E0.03374
G1 X35.091 Y73.703 E0.03033
G1 X35.105 Y72.723 E0.03912
G1 X35.125 Y71.998 E0.02895
G1 X35.175 Y71.094 E0.03614
G1 X35.244 Y70.126 E0.03873
G1 X35.304 Y69.418 E0.02836
G1 X35.399 Y68.568 E0.03414
G1 X35.531 Y67.549 E0.04101
G1 X35.647 Y66.747 E0.03234
G1 X35.771 Y66.023 E0.02932
G1 X35.961 Y65.006 E0.04129
G1 X36.124 Y64.198 E0.0329
G1 X36.543 Y62.456 E0.07151
G1 X36.724 Y61.762 E0.02863
G1 X37.25 Y60.003 E0.07328
G1 X37.457 Y59.36 E0.02696
G1 X37.765 Y58.485 E0.03702
G1 X38.11 Y57.552 E0.0397
G1 X38.412 Y56.775 E0.03327
G1 X39.103 Y55.163 E0.07
G1 X39.434 Y54.436 E0.03188
G1 X39.751 Y53.785 E0.0289
G1 X40.217 Y52.861 E0.0413
G1 X40.592 Y52.146 E0.03222
G1 X40.992 Y51.432 E0.03266
G1 X41.463 Y50.618 E0.03754
G1 X41.853 Y49.966 E0.03032
G1 X42.291 Y49.273 E0.03272
G1 X42.878 Y48.378 E0.04272
G1 X43.295 Y47.762 E0.02969
G1 X43.778 Y47.091 E0.033
G1 X44.354 Y46.311 E0.0387
G1 X44.822 Y45.699 E0.03075
G1 X45.365 Y45.026 E0.03451
G1 X45.989 Y44.278 E0.03888
G1 X46.515 Y43.664 E0.03227
G1 X46.989 Y43.142 E0.02814
G0 F7200 X47.34 Y43.47
G1 F1800 X48.059 Y42.699 E0.04208
G1 X48.613 Y42.123 E0.0319
G1 X49.136 Y41.608 E0.0293
G1 X49.878 Y40.897 E0.04102
G1 X50.463 Y40.353 E0.03188
G1 X51.801 Y39.196 E0.0706
G1 X52.287 Y38.792 E0.02522
G1 X53.052 Y38.192 E0.0388
G1 X53.766 Y37.648 E0.03583
G1 X54.455 Y37.139 E0.03419
G1 X55.03 Y36.739 E0.02796
G1 X55.916 Y36.141 E0.04266
G1 X56.545 Y35.73 E0.02999
G1 X57.178 Y35.341 E0.02965
G1 X58.06 Y34.815 E0.04099
G1 X58.726 Y34.433 E0.03064
G1 X59.422 Y34.056 E0.03159
G1 X60.264 Y33.616 E0.03792
G1 X61.005 Y33.243 E0.03311
G1 X61.742 Y32.899 E0.03246
G1 X62.617 Y32.504 E0.03832
G1 X63.271 Y32.22 E0.02846
G1 X64.046 Y31.907 E0.03336
G1 X64.951 Y31.558 E0.03871
G1 X65.744 Y31.267 E0.03371
G1 X66.463 Y31.024 E0.03029
G1 X67.405 Y30.722 E0.03948
G1 X68.097 Y30.51 E0.02889
G1 X68.875 Y30.295 E0.03222
G1 X69.84 Y30.044 E0.0398
G1 X70.661 Y29.844 E0.03373
G1 X71.396 Y29.686 E0.03001
G1 X72.379 Y29.488 E0.04002
G1 X73.109 Y29.353 E0.02963
G1 X73.958 Y29.22 E0.0343
G1 X74.927 Y29.083 E0.03906
G1 X75.705 Y28.985 E0.0313
G1 X76.37 Y28.919 E0.02667
G1 X77.448 Y28.827 E0.04318
G1 X78.14 Y28.778 E0.02769
G1 X78.99 Y28.741 E0.03396
G1 X79.985 Y28.713 E0.03973
G1 X80.789 Y28.703 E0.03209
G1 X81.557 Y28.714 E0.03066
G1 X82.529 Y28.743 E0.03881
G1 X83.361 Y28.779 E0.03324
G1 X84.066 Y28.83 E0.02821
G1 X85.134 Y28.921 E0.04278
G1 X85.887 Y28.997 E0.03021
G1 X86.634 Y29.093 E0.03006
G1 X87.651 Y29.237 E0.041
G1 X88.406 Y29.357 E0.03051
G1 X89.122 Y29.49 E0.02907
G1 X90.116 Y29.691 E0.04048
G1 X90.992 Y29.88 E0.03577
G1 X92.632 Y30.299 E0.06756
G1 X93.409 Y30.515 E0.03219
G1 X94.115 Y30.732 E0.02948
G1 X95.071 Y31.04 E0.04009
G1 X95.824 Y31.295 E0.03173
G1 X96.582 Y31.575 E0.03225
G1 X97.474 Y31.919 E0.03816
G1 X98.228 Y32.223 E0.03245
G1 X98.915 Y32.523 E0.02992
G1 X99.803 Y32.925 E0.0389
G1 X100.568 Y33.285 E0.03374
G1 X101.21 Y33.609 E0.0287
G1 X102.09 Y34.069 E0.03963
G1 X102.77 Y34.435 E0.03082
G1 X104.343 Y35.361 E0.07285
G1 X104.921 Y35.717 E0.02709
G1 X105.653 Y36.195 E0.03489
G1 X106.507 Y36.773 E0.04116
G1 X107.114 Y37.198 E0.02957
G1 X107.735 Y37.657 E0.03082
G1 X108.508 Y38.247 E0.03881
G1 X109.088 Y38.701 E0.0294
G1 X109.762 Y39.26 E0.03495
G1 X110.49 Y39.883 E0.03824
G1 X111.098 Y40.421 E0.0324
G1 X111.667 Y40.951 E0.03104
G1 X112.385 Y41.639 E0.03969
G1 X112.96 Y42.208 E0.03229
G1 X113.442 Y42.711 E0.02781
G1 X114.178 Y43.502 E0.04312
G1 X114.679 Y44.055 E0.02978
G1 X115.167 Y44.627 E0.03001
G1 X115.839 Y45.435 E0.04194
G1 X116.258 Y45.953 E0.02659
G1 X116.767 Y46.622 E0.03355
G1 X117.34 Y47.396 E0.03844
G1 X117.797 Y48.033 E0.03129
G1 X118.269 Y48.73 E0.0336
G1 X118.828 Y49.584 E0.04074
G1 X119.184 Y50.146 E0.02655
G1 X119.629 Y50.891 E0.03464
G1 X120.139 Y51.774 E0.0407
G1 X120.468 Y52.363 E0.02693
G1 X120.849 Y53.089 E0.03272
G1 X121.599 Y54.594 E0.06711
G1 X121.976 Y55.424 E0.03638
G1 X122.371 Y56.333 E0.03956
G1 X122.652 Y57.006 E0.02911
G1 X122.949 Y57.773 E0.03283
G1 X123.295 Y58.712 E0.03994
G1 X123.567 Y59.483 E0.03263
G1 X123.781 Y60.149 E0.02792
G1 X124.079 Y61.125 E0.04073
G1 X124.291 Y61.851 E0.03019
G1 X124.499 Y62.646 E0.0328
G1 X124.733 Y63.599 E0.03917
G1 X124.918 Y64.407 E0.03308
G1 X125.062 Y65.129 E0.02938
G1 X125.248 Y66.131 E0.04068
G1 X125.383 Y66.922 E0.03203
G1 X125.485 Y67.646 E0.02918
G1 X125.613 Y68.64 E0.04
G1 X125.7 Y69.402 E0.03061
G1 X125.765 Y70.151 E0.03001
G1 X125.842 Y71.23 E0.04317
G1 X125.884 Y71.986 E0.03022
G1 X125.906 Y72.789 E0.03206
G1 X125.919 Y73.709 E0.03672
G1 X125.918 Y74.596 E0.0354
G1 X125.898 Y75.277 E0.02719
G1 X125.855 Y76.299 E0.04083
G1 X125.815 Y77.005 E0.02822
G1 X125.739 Y77.913 E0.03637
G1 X125.644 Y78.861 E0.03803
G1 X125.551 Y79.666 E0.03234
G1 X125.444 Y80.411 E0.03004
G1 X125.288 Y81.403 E0.04008
G1 X125.17 Y82.088 E0.02774
G1 X124.996 Y82.964 E0.03565
G1 X124.789 Y83.922 E0.03912
G1 X124.608 Y84.701 E0.03192
G1 X124.431 Y85.38 E0.02801
G1 X124.153 Y86.39 E0.04181
G1 X123.958 Y87.06 E0.02785
G1 X123.698 Y87.874 E0.03411
G1 X123.37 Y88.844 E0.04087
G1 X123.114 Y89.565 E0.03054
G1 X122.836 Y90.284 E0.03077
G1 X122.465 Y91.208 E0.03974
G1 X122.165 Y91.921 E0.03087
G1 X121.824 Y92.675 E0.03303
G1 X121.394 Y93.592 E0.04042
G1 X121.069 Y94.257 E0.02954
G1 X120.756 Y94.856 E0.02697
G1 X120.23 Y95.828 E0.04411
G1 X119.845 Y96.513 E0.03136
G1 X119.495 Y97.1 E0.02728
G1 X118.919 Y98.037 E0.0439
G1 X118.553 Y98.613 E0.02724
G1 X118.106 Y99.275 E0.03188
G1 X117.498 Y100.148 E0.04246
G1 X117.054 Y100.764 E0.03031
G1 X116.554 Y101.42 E0.03292
G1 X115.99 Y102.139 E0.03647
G1 X115.517 Y102.726 E0.03009
G1 X114.981 Y103.354 E0.03295
G1 X114.309 Y104.118 E0.04061
G1 X113.851 Y104.623 E0.02721
G1 X113.217 Y105.286 E0.03661
G1 X112.554 Y105.958 E0.03768
G1 X112.021 Y106.483 E0.02986
G1 X111.445 Y107.022 E0.03149
G1 X110.679 Y107.715 E0.04123
G1 X110.134 Y108.194 E0.02896
G1 X109.513 Y108.711 E0.03225
G1 X108.732 Y109.341 E0.04005
G1 X108.053 Y109.871 E0.03438
G1 X107.514 Y110.27 E0.02677
G1 X106.637 Y110.899 E0.04308
G1 X106.02 Y111.326 E0.02995
G1 X105.35 Y111.766 E0.03199
G1 X104.555 Y112.271 E0.03759
G1 X103.858 Y112.699 E0.03264
G1 X103.157 Y113.104 E0.03231
G1 X102.353 Y113.553 E0.03675
G1 X101.677 Y113.918 E0.03066
G1 X100.938 Y114.291 E0.03304
G1 X100.02 Y114.738 E0.04075
G1 X99.413 Y115.022 E0.02675
G1 X98.585 Y115.383 E0.03605
G1 X97.731 Y115.74 E0.03694
G1 X96.927 Y116.062 E0.03457
G1 X96.263 Y116.306 E0.02823
G1 X95.319 Y116.639 E0.03995
G1 X94.522 Y116.907 E0.03356
G1 X93.834 Y117.117 E0.02871
G1 X92.812 Y117.414 E0.04248
G1 X92.107 Y117.607 E0.02917
G1 X91.334 Y117.796 E0.03176
G1 X90.41 Y118.009 E0.03785
G1 X89.572 Y118.189 E0.03421
G1 X88.866 Y118.319 E0.02865
G1 X87.857 Y118.492 E0.04086
G1 X87.072 Y118.614 E0.03171
G1 X86.327 Y118.709 E0.02998
G1 X85.334 Y118.822 E0.03989
G1 X84.548 Y118.899 E0.03152
G1 X83.724 Y118.957 E0.03297
G1 X82.809 Y119.008 E0.03658
G1 X81.967 Y119.043 E0.03364
G1 X81.267 Y119.053 E0.02794
G1 X80.218 Y119.053 E0.04187
G1 X79.506 Y119.043 E0.02842
G1 X78.685 Y119.009 E0.0328
G1 X77.668 Y118.951 E0.04066
G1 X76.889 Y118.895 E0.03117
G1 X76.07 Y118.812 E0.03286
G1 X75.093 Y118.701 E0.03925
