;FLAVOR:Marlin
;TIME:1380
;Filament used: 1.59067m
;Layer height: 0.2
;MINX:65.676
;MINY:56.56
;MINZ:0.2
;MAXX:111.298
;MAXY:108.447
;MAXZ:8.8
;Generated with Cura_SteamEngine 5.2.1
M82 ;absolute extrusion mode


; Pre-Processed for Cancel-Object support by preprocess_cancellation v0.2.0
; 2 known objects
EXCLUDE_OBJECT_DEFINE NAME=Middle_finger_keychain_stl_1 CENTER=79.615,78.959 POLYGON=[[70.539,61.421],[70.539,98.62],[89.453,98.62],[89.453,61.421]]
EXCLUDE_OBJECT_DEFINE NAME=Middle_finger_keychain_stl CENTER=97.410,85.991 POLYGON=[[87.516,66.387],[87.516,103.585],[106.428,103.585],[106.428,66.387]]
PRINT_START BED=70 EXTRUDER=225 STANDBY=175 CHAMBER=28
G92 E0
G92 E0
G1 F2100 E-0.4
;LAYER_COUNT:43
;LAYER:0
M107
G1 F600 Z0.4
G0 F7200 X75.229 Y58.71 Z0.4
;TYPE:SKIRT
G1 F600 Z0.2
G1 F2100 E0
G1 F1800 X75.669 Y58.272 E0.02478
G1 X75.98 Y58.001 E0.04124
G1 X76.598 Y57.546 E0.07187
G1 X76.846 Y57.393 E0.0835
G1 X77.386 Y57.107 E0.10789
G1 X77.999 Y56.881 E0.13397
G1 X78.416 Y56.76 E0.1513
G1 X79.194 Y56.605 E0.18296
G1 X79.406 Y56.581 E0.19148
G1 X80.216 Y56.56 E0.22381
G1 X80.512 Y56.578 E0.23565
G1 X81.331 Y56.701 E0.26871
G1 X81.669 Y56.783 E0.28259
G1 X82.156 Y56.929 E0.30288
G1 X82.84 Y57.176 E0.3319
G1 X84.071 Y57.642 E0.38444
G1 X86.613 Y58.523 E0.49182
G1 X89.188 Y59.336 E0.59959
G1 X91.796 Y60.077 E0.7078
G1 X94.417 Y60.741 E0.81572
G1 X97.024 Y61.326 E0.92235
G1 X98.821 Y61.694 E0.99557
G1 X99.347 Y61.822 E1.01717
G1 X99.79 Y61.956 E1.03564
G1 X100.205 Y62.105 E1.05324
G1 X100.693 Y62.312 E1.0744
G1 X101.109 Y62.517 E1.09291
G1 X101.565 Y62.775 E1.11382
G1 X101.938 Y63.014 E1.1315
G1 X102.369 Y63.326 E1.15274
G1 X102.731 Y63.621 E1.17138
G1 X103.109 Y63.965 E1.19178
G1 X103.37 Y64.23 E1.20662
G1 X103.626 Y64.512 E1.22182
G1 X103.82 Y64.744 E1.23389
G1 X104.088 Y65.096 E1.25155
G1 X104.349 Y65.476 E1.26995
G1 X104.595 Y65.877 E1.28873
G1 X104.85 Y66.356 E1.31038
G1 X105.047 Y66.786 E1.32926
G1 X105.145 Y67.025 E1.33957
G1 X105.272 Y67.374 E1.35439
G1 X105.386 Y67.73 E1.36931
G1 X105.483 Y68.077 E1.38369
G1 X105.727 Y69.106 E1.4259
G1 X106.381 Y71.694 E1.53244
G1 X107.128 Y74.339 E1.64214
G1 X107.926 Y76.879 E1.7484
G1 X108.799 Y79.411 E1.8553
G1 X109.762 Y81.968 E1.96435
G1 X110.154 Y82.92 E2.00544
G1 X110.199 Y83.052 E2.01101
G1 X110.805 Y84.568 E2.07617
G1 X111.035 Y85.319 E2.10752
G1 X111.159 Y85.894 E2.131
G1 X111.25 Y86.52 E2.15624
G1 X111.285 Y86.973 E2.17438
G1 X111.298 Y87.435 E2.19282
G1 X111.286 Y87.99 E2.21498
G1 X111.256 Y88.425 E2.23238
G1 X111.183 Y89.025 E2.25651
G1 X111.099 Y89.508 E2.27607
G1 X110.996 Y89.985 E2.29555
G1 X110.813 Y90.713 E2.32551
G1 X110.724 Y91.02 E2.33827
G1 X110.408 Y91.982 E2.37868
G1 X110.216 Y92.505 E2.40092
G1 X109.843 Y93.384 E2.43903
G1 X109.549 Y94.018 E2.46692
G1 X109.344 Y94.429 E2.48525
G1 X109.036 Y94.986 E2.51066
G1 X108.801 Y95.375 E2.5288
G1 X108.648 Y95.608 E2.53992
G1 X106.875 Y98.142 E2.66336
G1 X105.387 Y100.396 E2.77115
G1 X103.972 Y102.675 E2.87822
G1 X103.113 Y104.165 E2.94686
G1 X102.38 Y105.414 E3.00467
G1 X101.971 Y106.002 E3.03325
G1 X101.79 Y106.224 E3.04468
G1 X101.256 Y106.78 E3.07545
G1 X100.98 Y107.023 E3.09013
G1 X100.495 Y107.396 E3.11455
G1 X99.946 Y107.713 E3.13985
G1 X99.648 Y107.859 E3.1531
G1 X98.954 Y108.132 E3.18286
G1 X98.672 Y108.218 E3.19463
G1 X97.877 Y108.387 E3.22707
G1 X97.608 Y108.42 E3.23789
G1 X96.758 Y108.447 E3.27183
G1 X96.458 Y108.429 E3.28382
G1 X95.625 Y108.303 E3.31745
G1 X95.29 Y108.221 E3.33121
G1 X94.81 Y108.076 E3.35123
G1 X94.02 Y107.789 E3.38477
G1 X92.803 Y107.33 E3.43669
G1 X90.25 Y106.449 E3.54448
G1 X87.671 Y105.638 E3.65238
G1 X85.097 Y104.91 E3.75914
G1 X82.443 Y104.24 E3.86839
G1 X79.404 Y103.569 E3.99261
G1 X78.247 Y103.333 E4.03974
G1 X77.674 Y103.2 E4.06322
G1 X77.123 Y103.035 E4.08617
G1 X76.73 Y102.89 E4.10289
G1 X76.385 Y102.746 E4.11781
G1 X76.13 Y102.628 E4.12903
G1 X75.774 Y102.445 E4.145
G1 X75.408 Y102.236 E4.16182
G1 X75.02 Y101.988 E4.1802
G1 X74.689 Y101.753 E4.19641
G1 X74.251 Y101.401 E4.21883
G1 X73.879 Y101.063 E4.23889
G1 X73.452 Y100.621 E4.26342
G1 X73.151 Y100.265 E4.28203
G1 X72.86 Y99.882 E4.30123
G1 X72.632 Y99.548 E4.31737
G1 X72.428 Y99.221 E4.33275
G1 X72.278 Y98.957 E4.34487
G1 X72.106 Y98.625 E4.35979
G1 X71.986 Y98.368 E4.37111
G1 X71.847 Y98.037 E4.38544
G1 X71.722 Y97.705 E4.3996
G1 X71.584 Y97.276 E4.41759
G1 X71.483 Y96.902 E4.43305
G1 X70.695 Y93.704 E4.56451
G1 X69.965 Y91.079 E4.67325
G1 X69.179 Y88.536 E4.77949
G1 X68.289 Y85.92 E4.88977
G1 X67.38 Y83.476 E4.99385
G1 X66.794 Y82.056 E5.05516
G1 X66.709 Y81.803 E5.06581
G1 X66.24 Y80.641 E5.11582
G1 X66.126 Y80.338 E5.12874
G1 X65.93 Y79.67 E5.15653
G1 X65.805 Y79.086 E5.18037
G1 X65.711 Y78.413 E5.20749
G1 X65.687 Y78.048 E5.22209
G1 X65.677 Y77.751 E5.23395
G1 X65.676 Y77.262 E5.25347
G1 X65.691 Y76.883 E5.2686
G1 X65.749 Y76.251 E5.29393
G1 X65.831 Y75.695 E5.31637
G1 X65.955 Y75.067 E5.34191
G1 X66.123 Y74.391 E5.36972
G1 X66.343 Y73.651 E5.40053
G1 X66.637 Y72.806 E5.43624
G1 X66.994 Y71.916 E5.47451
G1 X67.267 Y71.309 E5.50107
G1 X67.445 Y70.942 E5.51735
G1 X67.81 Y70.248 E5.54865
G1 X68.114 Y69.722 E5.5729
G1 X68.287 Y69.448 E5.58583
G1 X68.529 Y69.096 E5.60288
G1 X69.651 Y67.523 E5.68
G1 X71.15 Y65.289 E5.78737
G1 X72.585 Y63.014 E5.89473
G1 X73.96 Y60.689 E6.00254
G1 X74.224 Y60.216 E6.02416
G1 X74.508 Y59.73 E6.04662
G1 X74.856 Y59.195 E6.0721
G1 X75.229 Y58.71 E6.09652
G0 F7200 X75.61 Y59.004
G1 F1800 X75.985 Y58.634 E6.11754
G1 X76.296 Y58.363 E6.13401
G1 X76.85 Y57.955 E6.16147
G1 X77.098 Y57.802 E6.1731
G1 X77.611 Y57.532 E6.19623
G1 X78.133 Y57.342 E6.21841
G1 X78.55 Y57.221 E6.23574
G1 X79.248 Y57.082 E6.26414
G1 X79.46 Y57.058 E6.27266
G1 X80.187 Y57.039 E6.30168
G1 X80.483 Y57.057 E6.31352
G1 X81.218 Y57.167 E6.34318
G1 X81.556 Y57.249 E6.35706
G1 X81.993 Y57.381 E6.37528
G1 X82.736 Y57.65 E6.40682
G1 X83.917 Y58.097 E6.45722
G1 X86.452 Y58.976 E6.56431
G1 X89.054 Y59.797 E6.67321
G1 X91.655 Y60.536 E6.78113
G1 X94.302 Y61.207 E6.89012
G1 X96.938 Y61.798 E6.99794
G1 X98.724 Y62.164 E7.0707
G1 X99.231 Y62.287 E7.09152
G1 X99.628 Y62.408 E7.10809
G1 X100.043 Y62.557 E7.12569
G1 X100.481 Y62.743 E7.14468
G1 X100.897 Y62.948 E7.16319
G1 X101.306 Y63.179 E7.18194
G1 X101.679 Y63.418 E7.19962
G1 X102.066 Y63.698 E7.21868
G1 X102.428 Y63.993 E7.23732
G1 X102.767 Y64.302 E7.25563
G1 X103.028 Y64.567 E7.27047
G1 X103.258 Y64.82 E7.28412
G1 X103.452 Y65.052 E7.29619
G1 X103.692 Y65.368 E7.31203
G1 X103.953 Y65.748 E7.33043
G1 X104.174 Y66.108 E7.34729
G1 X104.417 Y66.563 E7.36787
G1 X104.506 Y66.749 E7.3761
G1 X104.701 Y67.208 E7.39601
G1 X104.815 Y67.52 E7.40927
G1 X104.929 Y67.876 E7.42419
G1 X105.016 Y68.188 E7.43711
G1 X105.258 Y69.206 E7.47888
G1 X105.922 Y71.834 E7.58706
G1 X106.664 Y74.462 E7.69605
G1 X107.466 Y77.017 E7.80293
G1 X108.366 Y79.628 E7.91316
G1 X109.305 Y82.12 E8.01945
G1 X109.71 Y83.103 E8.06188
G1 X109.745 Y83.208 E8.0663
G1 X110.36 Y84.746 E8.13241
G1 X110.566 Y85.421 E8.16058
G1 X110.69 Y85.996 E8.18405
G1 X110.772 Y86.557 E8.20668
G1 X110.807 Y87.01 E8.22482
G1 X110.818 Y87.425 E8.24139
G1 X110.806 Y87.98 E8.26354
G1 X110.779 Y88.37 E8.27915
G1 X110.709 Y88.949 E8.30242
G1 X110.629 Y89.406 E8.32094
G1 X110.491 Y90.033 E8.34656
G1 X110.348 Y90.595 E8.36971
G1 X110.268 Y90.87 E8.38114
G1 X109.894 Y91.998 E8.42857
G1 X109.692 Y92.521 E8.45095
G1 X109.35 Y93.31 E8.48527
G1 X109.058 Y93.931 E8.51266
G1 X108.826 Y94.379 E8.53279
G1 X108.537 Y94.888 E8.55616
G1 X108.254 Y95.333 E8.5772
G1 X106.485 Y97.861 E8.70035
G1 X105 Y100.111 E8.80795
G1 X103.558 Y102.434 E8.91708
G1 X102.699 Y103.922 E8.98565
G1 X101.966 Y105.171 E9.04345
G1 X101.599 Y105.699 E9.06912
G1 X101.418 Y105.921 E9.08055
G1 X100.938 Y106.419 E9.10816
G1 X100.662 Y106.662 E9.12283
G1 X100.202 Y107.014 E9.14595
G1 X99.735 Y107.282 E9.16744
G1 X99.437 Y107.428 E9.18069
G1 X98.814 Y107.673 E9.2074
G1 X98.532 Y107.759 E9.21917
G1 X97.818 Y107.911 E9.24831
G1 X97.549 Y107.944 E9.25912
G1 X96.786 Y107.967 E9.28959
G1 X96.486 Y107.949 E9.30159
G1 X95.739 Y107.837 E9.33173
G1 X95.404 Y107.755 E9.3455
G1 X94.973 Y107.624 E9.36348
G1 X94.189 Y107.34 E9.39676
G1 X92.945 Y106.871 E9.44982
G1 X90.409 Y105.996 E9.55689
G1 X87.813 Y105.18 E9.6655
G1 X85.203 Y104.441 E9.77377
G1 X82.555 Y103.773 E9.88277
G1 X79.486 Y103.095 E10.00821
G1 X78.223 Y102.836 E10.05967
G1 X77.784 Y102.733 E10.07767
G1 X77.289 Y102.584 E10.0983
G1 X76.896 Y102.439 E10.11502
G1 X76.586 Y102.311 E10.1284
G1 X76.331 Y102.193 E10.13962
G1 X76.012 Y102.028 E10.15395
G1 X75.646 Y101.819 E10.17078
G1 X75.298 Y101.597 E10.18725
G1 X74.967 Y101.362 E10.20345
G1 X74.574 Y101.046 E10.22358
G1 X74.202 Y100.708 E10.24364
G1 X73.819 Y100.311 E10.26566
G1 X73.518 Y99.955 E10.28426
G1 X73.256 Y99.611 E10.30152
G1 X73.028 Y99.277 E10.31766
G1 X72.845 Y98.984 E10.33145
G1 X72.695 Y98.72 E10.34357
G1 X72.541 Y98.422 E10.35696
G1 X72.421 Y98.165 E10.36828
G1 X72.296 Y97.868 E10.38114
G1 X72.171 Y97.536 E10.3953
G1 X72.047 Y97.151 E10.41144
G1 X71.946 Y96.777 E10.4269
G1 X71.158 Y93.577 E10.55844
G1 X70.434 Y90.973 E10.66631
G1 X69.626 Y88.359 E10.77551
G1 X68.762 Y85.82 E10.88256
G1 X67.814 Y83.27 E10.99114
G1 X67.238 Y81.873 E11.05145
G1 X67.159 Y81.635 E11.06146
G1 X66.689 Y80.472 E11.11152
G1 X66.575 Y80.169 E11.12444
G1 X66.399 Y79.569 E11.1494
G1 X66.274 Y78.985 E11.17324
G1 X66.19 Y78.382 E11.19754
G1 X66.157 Y77.75 E11.22279
G1 X66.156 Y77.261 E11.24231
G1 X66.169 Y76.921 E11.25589
G1 X66.224 Y76.318 E11.28006
G1 X66.303 Y75.783 E11.30164
G1 X66.422 Y75.18 E11.32617
G1 X66.584 Y74.525 E11.3531
G1 X66.741 Y73.985 E11.37555
G1 X67.083 Y72.983 E11.41781
G1 X67.432 Y72.112 E11.45526
G1 X67.699 Y71.518 E11.48125
G1 X67.877 Y71.151 E11.49753
G1 X68.234 Y70.473 E11.52811
G1 X68.528 Y69.965 E11.55154
G1 X68.683 Y69.719 E11.56314
G1 X68.874 Y69.44 E11.57664
G1 X70.041 Y67.803 E11.65688
G1 X71.55 Y65.555 E11.76494
G1 X72.982 Y63.284 E11.87209
G1 X74.388 Y60.909 E11.98225
G1 X74.639 Y60.458 E12.00285
G1 X74.923 Y59.972 E12.02532
G1 X75.255 Y59.462 E12.04961
G1 X75.61 Y59.004 E12.07273
G0 F7200 X75.99 Y59.3
G1 F1800 X76.3 Y58.995 E12.09009
G1 X76.611 Y58.724 E12.10656
G1 X77.102 Y58.363 E12.13088
G1 X77.35 Y58.21 E12.14251
G1 X77.833 Y57.959 E12.16423
G1 X78.266 Y57.803 E12.1826
G1 X78.683 Y57.682 E12.19993
G1 X79.302 Y57.559 E12.22512
G1 X79.514 Y57.535 E12.23364
G1 X80.158 Y57.518 E12.25935
G1 X80.454 Y57.536 E12.27119
G1 X81.105 Y57.634 E12.29746
G1 X81.443 Y57.716 E12.31134
G1 X81.829 Y57.832 E12.32743
G1 X82.566 Y58.099 E12.35872
G1 X83.731 Y58.54 E12.40843
G1 X86.335 Y59.442 E12.51842
G1 X88.879 Y60.246 E12.62491
G1 X91.548 Y61.003 E12.73564
G1 X94.187 Y61.672 E12.8443
G1 X96.885 Y62.278 E12.95466
G1 X98.628 Y62.635 E13.02567
G1 X99.114 Y62.753 E13.04563
G1 X99.466 Y62.86 E13.06032
G1 X99.881 Y63.009 E13.07792
G1 X100.268 Y63.173 E13.09469
G1 X100.684 Y63.378 E13.1132
G1 X101.047 Y63.583 E13.12984
G1 X101.42 Y63.822 E13.14752
G1 X101.763 Y64.07 E13.16442
G1 X102.125 Y64.365 E13.18305
G1 X102.425 Y64.639 E13.19927
G1 X102.686 Y64.904 E13.21412
G1 X102.89 Y65.128 E13.22621
G1 X103.084 Y65.36 E13.23828
G1 X103.296 Y65.64 E13.2523
G1 X103.557 Y66.02 E13.2707
G1 X103.753 Y66.338 E13.2856
G1 X103.984 Y66.77 E13.30516
G1 X104.073 Y66.956 E13.31339
G1 X104.257 Y67.39 E13.3322
G1 X104.358 Y67.667 E13.34397
G1 X104.472 Y68.023 E13.35889
G1 X104.549 Y68.299 E13.37032
G1 X104.78 Y69.274 E13.41032
G1 X105.462 Y71.974 E13.52146
G1 X106.206 Y74.605 E13.63059
G1 X107.009 Y77.165 E13.73767
G1 X107.911 Y79.78 E13.84808
G1 X108.854 Y82.282 E13.9548
G1 X109.267 Y83.286 E13.99813
G1 X109.304 Y83.4 E14.00291
G1 X109.914 Y84.924 E14.06843
G1 X110.096 Y85.522 E14.09338
G1 X110.22 Y86.097 E14.11685
G1 X110.293 Y86.594 E14.1369
G1 X110.328 Y87.047 E14.15504
G1 X110.338 Y87.414 E14.16969
G1 X110.326 Y87.969 E14.19185
G1 X110.303 Y88.315 E14.20569
G1 X110.257 Y88.714 E14.22172
G1 X110.198 Y89.106 E14.23754
G1 X110.026 Y89.914 E14.27051
G1 X109.883 Y90.476 E14.29366
G1 X109.812 Y90.72 E14.3038
G1 X109.496 Y91.682 E14.34421
G1 X109.251 Y92.331 E14.3719
G1 X108.915 Y93.107 E14.40565
G1 X108.629 Y93.715 E14.43247
G1 X108.408 Y94.144 E14.45173
G1 X108.128 Y94.636 E14.47432
G1 X107.861 Y95.058 E14.49425
G1 X106.085 Y97.596 E14.61789
G1 X104.59 Y99.86 E14.72617
G1 X103.143 Y102.192 E14.83571
G1 X102.285 Y103.679 E14.90423
G1 X101.552 Y104.928 E14.96203
G1 X101.227 Y105.396 E14.98477
G1 X101.046 Y105.618 E14.9962
G1 X100.621 Y106.059 E15.02065
G1 X100.345 Y106.302 E15.03533
G1 X99.911 Y106.631 E15.05706
G1 X99.524 Y106.851 E15.07483
G1 X99.226 Y106.997 E15.08807
G1 X98.674 Y107.214 E15.11175
G1 X98.392 Y107.3 E15.12351
G1 X97.76 Y107.434 E15.1493
G1 X97.491 Y107.467 E15.16012
G1 X96.815 Y107.488 E15.18711
G1 X96.515 Y107.47 E15.1991
G1 X95.854 Y107.37 E15.22579
G1 X95.519 Y107.288 E15.23955
G1 X95.137 Y107.173 E15.25547
G1 X94.358 Y106.891 E15.28854
G1 X93.098 Y106.416 E15.34228
G1 X90.568 Y105.543 E15.4491
G1 X87.937 Y104.716 E15.55918
G1 X85.344 Y103.982 E15.66674
G1 X82.683 Y103.31 E15.77628
G1 X79.557 Y102.62 E15.90405
G1 X78.332 Y102.369 E15.95395
G1 X77.893 Y102.266 E15.97195
G1 X77.455 Y102.134 E15.99021
G1 X77.062 Y101.989 E16.00693
G1 X76.788 Y101.875 E16.01877
G1 X76.533 Y101.757 E16.02999
G1 X76.25 Y101.611 E16.0427
G1 X75.884 Y101.402 E16.05952
G1 X75.575 Y101.205 E16.07415
G1 X75.244 Y100.97 E16.09035
G1 X74.896 Y100.69 E16.10817
G1 X74.524 Y100.352 E16.12824
G1 X74.185 Y100.001 E16.14771
G1 X73.884 Y99.645 E16.16632
G1 X73.653 Y99.34 E16.18159
G1 X73.425 Y99.006 E16.19773
G1 X73.263 Y98.747 E16.20992
G1 X73.113 Y98.483 E16.22204
G1 X72.976 Y98.219 E16.23391
G1 X72.856 Y97.962 E16.24523
G1 X72.746 Y97.699 E16.25661
G1 X72.621 Y97.367 E16.27077
G1 X72.511 Y97.026 E16.28507
G1 X72.378 Y96.528 E16.30564
G1 X72.276 Y96.091 E16.32355
G1 X71.616 Y93.432 E16.4329
G1 X70.887 Y90.811 E16.54148
G1 X70.091 Y88.236 E16.64905
G1 X69.212 Y85.65 E16.75807
G1 X68.258 Y83.088 E16.86718
G1 X67.682 Y81.69 E16.92753
G1 X67.61 Y81.471 E16.93673
G1 X67.138 Y80.303 E16.98701
G1 X67.024 Y80 E16.99993
G1 X66.868 Y79.469 E17.02202
G1 X66.743 Y78.885 E17.04586
G1 X66.669 Y78.35 E17.06741
G1 X66.637 Y77.749 E17.09143
G1 X66.636 Y77.26 E17.11095
G1 X66.648 Y76.959 E17.12297
G1 X66.7 Y76.384 E17.14602
G1 X66.775 Y75.871 E17.16671
G1 X66.888 Y75.292 E17.19025
G1 X67 Y74.827 E17.20934
G1 X67.202 Y74.119 E17.23873
G1 X67.466 Y73.331 E17.2719
G1 X67.809 Y72.452 E17.30956
G1 X68.08 Y71.836 E17.33642
G1 X68.309 Y71.361 E17.35746
G1 X68.736 Y70.557 E17.3938
G1 X68.941 Y70.208 E17.40995
G1 X69.079 Y69.991 E17.42022
G1 X69.311 Y69.653 E17.43658
G1 X70.437 Y68.074 E17.51398
G1 X71.966 Y65.796 E17.62348
G1 X73.393 Y63.533 E17.73026
G1 X74.784 Y61.183 E17.83926
G1 X75.053 Y60.7 E17.86132
G1 X75.337 Y60.214 E17.88379
G1 X75.654 Y59.729 E17.90691
G1 X75.99 Y59.3 E17.92866
G0 F7200 X76.368 Y59.597
G1 F1800 X76.615 Y59.357 E17.94241
G1 X76.926 Y59.086 E17.95887
G1 X77.354 Y58.772 E17.98006
G1 X77.602 Y58.619 E17.99169
G1 X78.054 Y58.386 E18.01199
G1 X78.4 Y58.264 E18.02663
G1 X78.817 Y58.143 E18.04396
G1 X79.356 Y58.036 E18.06589
G1 X79.568 Y58.012 E18.07441
G1 X80.129 Y57.997 E18.09681
G1 X80.425 Y58.015 E18.10864
G1 X80.992 Y58.1 E18.13152
G1 X81.33 Y58.182 E18.14541
G1 X81.666 Y58.284 E18.15942
G1 X82.397 Y58.548 E18.19044
G1 X83.588 Y58.999 E18.24127
G1 X86.142 Y59.884 E18.34915
G1 X88.776 Y60.715 E18.45939
G1 X91.407 Y61.463 E18.56856
G1 X94.114 Y62.149 E18.68002
G1 X96.732 Y62.737 E18.78711
G1 X98.67 Y63.136 E18.86608
G1 X98.997 Y63.218 E18.87954
G1 X99.304 Y63.312 E18.89235
G1 X99.719 Y63.461 E18.90995
G1 X100.056 Y63.604 E18.92456
G1 X100.472 Y63.809 E18.94307
G1 X100.788 Y63.987 E18.95755
G1 X101.161 Y64.226 E18.97523
G1 X101.46 Y64.442 E18.98995
G1 X101.822 Y64.737 E19.00859
G1 X102.083 Y64.975 E19.02269
G1 X102.344 Y65.24 E19.03753
G1 X102.522 Y65.436 E19.0481
G1 X102.716 Y65.668 E19.06017
G1 X102.901 Y65.912 E19.07239
G1 X103.162 Y66.292 E19.09079
G1 X103.332 Y66.569 E19.10376
G1 X103.551 Y66.978 E19.12228
G1 X103.715 Y67.333 E19.13789
G1 X103.813 Y67.572 E19.1482
G1 X103.901 Y67.813 E19.15844
