;FLAVOR:RepRap
;TIME:4211
;Filament used: 4.8091m
;Layer height: 0.2
;MINX:51.205
;MINY:31.205
;MINZ:0.2
;MAXX:138.108
;MAXY:135.829
;MAXZ:7.2
;Generated with Cura_SteamEngine 5.2.1
T0


; Pre-Processed for Cancel-Object support by preprocess_cancellation v0.2.0
; 2 known objects
EXCLUDE_OBJECT_DEFINE NAME=Axle_Center_Tool_stl_1 CENTER=80.396,97.089 POLYGON=[[55.215,35.215],[55.215,124.814],[104.815,124.814],[104.815,35.215]]
EXCLUDE_OBJECT_DEFINE NAME=Axle_Center_Tool_stl CENTER=109.679,69.919 POLYGON=[[84.498,42.22],[84.498,131.819],[134.098,131.819],[134.098,42.22]]
M82 ;absolute extrusion mode
PRINT_START BED=70 EXTRUDER=213 STANDBY=175 CHAMBER=28
M83 ;relative extrusion mode
G1 F7200 E-0.4
;LAYER_COUNT:35
;LAYER:0
M107
G1 F600 Z0.4
G0 F7200 X51.857 Y32.907 Z0.4
;TYPE:SKIRT
G1 F600 Z0.2
G1 F2880 E0.4
G1 F1800 X52.196 Y32.472 E0.02476
G1 X52.595 Y32.09 E0.0248
G1 X53.044 Y31.77 E0.02476
G1 X53.535 Y31.518 E0.02478
G1 X54.057 Y31.339 E0.02478
G1 X54.599 Y31.238 E0.02476
G1 X54.918 Y31.216 E0.01436
G1 X55.345 Y31.205 E0.01918
G1 X104.362 Y31.205 E2.20092
G1 X105.064 Y31.215 E0.03152
G1 X105.614 Y31.263 E0.02479
G1 X106.151 Y31.39 E0.02478
G1 X106.664 Y31.593 E0.02477
G1 X107.142 Y31.868 E0.02476
G1 X107.576 Y32.209 E0.02478
G1 X107.904 Y32.547 E0.02115
G1 X108.463 Y33.2 E0.0386
G1 X109.21 Y34.098 E0.05245
G1 X111.035 Y36.172 E0.12405
G1 X112.849 Y38.118 E0.11945
G1 X115.675 Y40.959 E0.17993
G1 X115.958 Y41.271 E0.01891
G1 X116.188 Y41.55 E0.01624
G1 X116.478 Y41.938 E0.02175
G1 X116.666 Y42.215 E0.01503
G1 X116.893 Y42.582 E0.01938
G1 X117.041 Y42.843 E0.01347
G1 X117.184 Y43.121 E0.01404
G1 X117.315 Y43.403 E0.01396
G1 X117.535 Y43.933 E0.02577
G1 X117.681 Y44.354 E0.02001
G1 X117.938 Y45.272 E0.0428
G1 X137.857 Y128.522 E3.84353
G1 X137.997 Y129.144 E0.02863
G1 X138.089 Y129.908 E0.03455
G1 X138.108 Y130.956 E0.04706
G1 X138.098 Y132.045 E0.0489
G1 X138.053 Y132.595 E0.02478
G1 X137.929 Y133.132 E0.02475
G1 X137.729 Y133.647 E0.02481
G1 X137.456 Y134.126 E0.02476
G1 X137.117 Y134.562 E0.0248
G1 X136.719 Y134.944 E0.02477
G1 X136.27 Y135.264 E0.02476
G1 X135.779 Y135.516 E0.02478
G1 X135.257 Y135.695 E0.02478
G1 X134.715 Y135.796 E0.02476
G1 X134.395 Y135.818 E0.0144
G1 X133.968 Y135.829 E0.01918
G1 X84.951 Y135.829 E2.20092
G1 X84.249 Y135.819 E0.03152
G1 X83.699 Y135.771 E0.02479
G1 X83.162 Y135.644 E0.02478
G1 X82.649 Y135.441 E0.02477
G1 X82.171 Y135.166 E0.02476
G1 X81.737 Y134.825 E0.02478
G1 X81.408 Y134.486 E0.02121
G1 X80.821 Y133.8 E0.04054
G1 X80.1 Y132.932 E0.05067
G1 X78.278 Y130.862 E0.12382
G1 X76.462 Y128.914 E0.11958
G1 X74.141 Y126.575 E0.14796
G1 X73.788 Y126.231 E0.02213
G1 X73.61 Y126.046 E0.01153
G1 X73.315 Y125.717 E0.01984
G1 X73.104 Y125.459 E0.01497
G1 X72.873 Y125.151 E0.01729
G1 X72.702 Y124.904 E0.01349
G1 X72.467 Y124.533 E0.01972
G1 X72.307 Y124.254 E0.01444
G1 X72.121 Y123.897 E0.01807
G1 X71.974 Y123.579 E0.01573
G1 X71.774 Y123.09 E0.02372
G1 X71.653 Y122.75 E0.0162
G1 X71.523 Y122.315 E0.02039
G1 X71.403 Y121.873 E0.02056
G1 X51.464 Y38.545 E3.84715
G1 X51.316 Y37.888 E0.03024
G1 X51.224 Y37.122 E0.03464
G1 X51.205 Y36.054 E0.04796
G1 X51.215 Y34.988 E0.04787
G1 X51.26 Y34.438 E0.02478
G1 X51.384 Y33.901 E0.02475
G1 X51.585 Y33.387 E0.02478
G1 X51.857 Y32.907 E0.02477
G0 F7200 X52.393 Y33.084
G1 F1800 X52.727 Y32.697 E0.02295
G1 X53.118 Y32.368 E0.02294
G1 X53.555 Y32.103 E0.02295
G1 X54.028 Y31.91 E0.02294
G1 X54.526 Y31.792 E0.02298
G1 X54.933 Y31.755 E0.01835
G1 X55.253 Y31.746 E0.01437
G1 X104.355 Y31.745 E2.20474
G1 X105.057 Y31.755 E0.03152
G1 X105.565 Y31.803 E0.02291
G1 X106.061 Y31.928 E0.02297
G1 X106.53 Y32.13 E0.02293
G1 X106.963 Y32.402 E0.02296
G1 X107.494 Y32.899 E0.03266
G1 X108.047 Y33.545 E0.03818
G1 X108.803 Y34.455 E0.05312
G1 X110.617 Y36.514 E0.12321
G1 X112.453 Y38.485 E0.12095
G1 X115.275 Y41.322 E0.17967
G1 X115.558 Y41.634 E0.01891
G1 X115.755 Y41.873 E0.01391
G1 X116.045 Y42.261 E0.02175
G1 X116.207 Y42.499 E0.01293
G1 X116.434 Y42.866 E0.01938
G1 X116.561 Y43.09 E0.01156
G1 X116.704 Y43.368 E0.01404
G1 X116.816 Y43.61 E0.01197
G1 X117.036 Y44.14 E0.02577
G1 X117.162 Y44.502 E0.01721
G1 X117.413 Y45.398 E0.04178
G1 X137.33 Y128.641 E3.84321
G1 X137.47 Y129.263 E0.02863
G1 X137.549 Y129.918 E0.02962
G1 X137.568 Y130.951 E0.04639
G1 X137.558 Y132.04 E0.0489
G1 X137.513 Y132.549 E0.02294
G1 X137.39 Y133.045 E0.02295
G1 X137.191 Y133.516 E0.02296
G1 X136.921 Y133.95 E0.02295
G1 X136.586 Y134.336 E0.02295
G1 X136.196 Y134.666 E0.02294
G1 X135.759 Y134.931 E0.02295
G1 X135.286 Y135.124 E0.02294
G1 X134.788 Y135.242 E0.02298
G1 X134.38 Y135.279 E0.01839
G1 X134.06 Y135.288 E0.01437
G1 X84.958 Y135.289 E2.20474
G1 X84.256 Y135.279 E0.03152
G1 X83.748 Y135.231 E0.02291
G1 X83.252 Y135.106 E0.02297
G1 X82.783 Y134.904 E0.02293
G1 X82.35 Y134.632 E0.02296
G1 X81.818 Y134.135 E0.03269
G1 X81.237 Y133.455 E0.04016
G1 X80.506 Y132.575 E0.05137
G1 X78.696 Y130.52 E0.12296
G1 X76.859 Y128.548 E0.12101
G1 X74.012 Y125.685 E0.18129
G1 X73.717 Y125.356 E0.01984
G1 X73.536 Y125.135 E0.01283
G1 X73.305 Y124.827 E0.01729
G1 X73.159 Y124.615 E0.01156
G1 X72.924 Y124.244 E0.01972
G1 X72.786 Y124.005 E0.01239
G1 X72.6 Y123.648 E0.01807
G1 X72.473 Y123.375 E0.01352
G1 X72.273 Y122.886 E0.02372
G1 X72.17 Y122.594 E0.0139
G1 X72.044 Y122.174 E0.01969
G1 X71.924 Y121.732 E0.02056
G1 X51.991 Y38.427 E3.84608
G1 X51.843 Y37.77 E0.03024
G1 X51.764 Y37.112 E0.02976
G1 X51.745 Y36.059 E0.04729
G1 X51.755 Y34.993 E0.04787
G1 X51.8 Y34.484 E0.02294
G1 X51.923 Y33.988 E0.02295
G1 X52.123 Y33.518 E0.02293
G1 X52.393 Y33.084 E0.02295
G1 F7200 E-0.4
G1 F600 Z0.4
;MESH:Axle_Center_Tool.stl(1)
EXCLUDE_OBJECT_START NAME=Axle_Center_Tool_stl_1
G0 F7200 X81.758 Y116.719 Z0.4
;TYPE:WALL-INNER
G1 F600 Z0.2
G1 F2880 E0.4
G1 F1800 X82.004 Y116.861 E0.01134
G1 X82.194 Y116.99 E0.00917
G1 X82.421 Y117.168 E0.01151
G1 X82.599 Y117.328 E0.00955
G1 X82.796 Y117.532 E0.01132
G1 X82.938 Y117.702 E0.00884
G1 X83.11 Y117.935 E0.01156
G1 X83.238 Y118.141 E0.00968
G1 X83.38 Y118.407 E0.01203
G1 X83.48 Y118.631 E0.00979
G1 X83.57 Y118.883 E0.01068
G1 X83.638 Y119.13 E0.01023
G1 X103.335 Y36.801 E3.37866
G1 X103.335 Y36.695 E0.00423
G1 X56.695 Y36.695 E1.8615
G1 X56.695 Y36.813 E0.00471
G1 X76.392 Y119.12 E3.37781
G1 X76.474 Y118.847 E0.01138
G1 X76.552 Y118.635 E0.00902
G1 X76.666 Y118.374 E0.01137
G1 X76.782 Y118.158 E0.00979
G1 X76.937 Y117.913 E0.01157
G1 X77.059 Y117.743 E0.00835
G1 X77.241 Y117.523 E0.0114
G1 X77.416 Y117.34 E0.01011
G1 X77.631 Y117.147 E0.01153
G1 X77.816 Y117.003 E0.00936
G1 X78.051 Y116.845 E0.0113
G1 X78.26 Y116.725 E0.00962
G1 X78.521 Y116.6 E0.01155
G1 X78.719 Y116.52 E0.00852
G1 X78.987 Y116.431 E0.01127
G1 X79.233 Y116.369 E0.01013
G1 X79.519 Y116.32 E0.01158
G1 X79.743 Y116.298 E0.00898
G1 X80.069 Y116.287 E0.01302
G1 X80.261 Y116.295 E0.00767
G1 X80.548 Y116.325 E0.01152
G1 X80.787 Y116.368 E0.00969
G1 X81.063 Y116.438 E0.01136
G1 X81.27 Y116.505 E0.00868
G1 X81.535 Y116.61 E0.01138
G1 X81.758 Y116.719 E0.00991
G0 F7200 X78.87 Y116.976
G1 F1800 X79.138 Y116.886 E0.01128
G1 X79.314 Y116.843 E0.00723
G1 X79.6 Y116.794 E0.01158
G1 X79.76 Y116.777 E0.00642
G1 X80.074 Y116.767 E0.01254
G1 X80.211 Y116.773 E0.00547
G1 X80.498 Y116.803 E0.01152
G1 X80.669 Y116.833 E0.00693
G1 X80.945 Y116.903 E0.01136
G1 X81.093 Y116.951 E0.00621
G1 X81.357 Y117.056 E0.01134
G1 X81.517 Y117.134 E0.0071
G1 X81.763 Y117.277 E0.01136
G1 X81.898 Y117.368 E0.0065
G1 X82.126 Y117.547 E0.01157
G1 X82.253 Y117.661 E0.00681
G1 X82.449 Y117.865 E0.01129
G1 X82.551 Y117.986 E0.00632
G1 X82.722 Y118.219 E0.01154
G1 X82.814 Y118.366 E0.00692
G1 X82.956 Y118.632 E0.01203
G1 X83.028 Y118.793 E0.00704
G1 X83.118 Y119.045 E0.01068
G1 X83.162 Y119.202 E0.00651
G1 X83.22 Y119.485 E0.01153
G1 F1674.4 X83.299 Y120.099 E0.02656
G1 F1600 X83.267 Y120.386 E0.01297
G1 F1652 X83.239 Y120.549 E0.00719
G1 F1680.9 X83.161 Y120.907 E0.01566
G1 F1690.8 X83.029 Y121.274 E0.01657
G1 F1684.2 X82.986 Y121.373 E0.0046
G1 F1687.5 X82.794 Y121.734 E0.01741
G1 F1684.2 X82.733 Y121.827 E0.00474
G1 X82.495 Y122.142 E0.01684
G1 F1690.8 X82.223 Y122.425 E0.01668
G1 F1684.2 X82.155 Y122.485 E0.00387
G1 F1687.5 X81.829 Y122.733 E0.01744
G1 F1690.8 X81.488 Y122.933 E0.0168
G1 F1687.5 X81.396 Y122.978 E0.00436
G1 F1680.9 X81.099 Y123.096 E0.01366
G1 X81.019 Y123.124 E0.00362
G1 F1687.5 X80.635 Y123.224 E0.01689
G1 X80.54 Y123.241 E0.00411
G1 X80.139 Y123.28 E0.01715
G1 F1680.9 X79.75 Y123.272 E0.01663
G1 F1677.7 X79.639 Y123.261 E0.00478
G1 F1680.9 X79.247 Y123.192 E0.01701
G1 F1684.2 X79.133 Y123.161 E0.00504
G1 F1680.9 X78.773 Y123.037 E0.01627
G1 X78.408 Y122.862 E0.0173
G1 F1684.2 X78.001 Y122.589 E0.0209
G1 X77.701 Y122.323 E0.0171
G1 X77.63 Y122.25 E0.00434
G1 X77.417 Y121.994 E0.01421
G1 F1677.7 X77.307 Y121.839 E0.00814
G1 X77.112 Y121.515 E0.01619
G1 F1680.9 X76.952 Y121.154 E0.01688
G1 X76.827 Y120.733 E0.01877
G1 F1655.2 X76.756 Y120.332 E0.01768
G1 F1600 X76.736 Y120.16 E0.00778
G1 F1642.6 X76.758 Y119.874 E0.01255
G1 F1756.1 X76.821 Y119.421 E0.01871
G1 F1800 X76.857 Y119.254 E0.00682
G1 X76.936 Y118.981 E0.01134
G1 X76.991 Y118.829 E0.00645
G1 X77.106 Y118.569 E0.01135
G1 X77.188 Y118.414 E0.007
G1 X77.343 Y118.17 E0.01154
G1 X77.43 Y118.048 E0.00598
G1 X77.612 Y117.828 E0.0114
G1 X77.737 Y117.697 E0.00723
G1 X77.952 Y117.504 E0.01153
G1 X78.084 Y117.401 E0.00668
G1 X78.319 Y117.244 E0.01128
G1 X78.468 Y117.158 E0.00687
G1 X78.729 Y117.033 E0.01155
G1 X78.87 Y116.976 E0.00607
G0 F7200 X78.352 Y117.8
G1 F1800 X78.676 Y117.59 E0.01541
G1 X78.937 Y117.465 E0.01155
G1 X79.29 Y117.342 E0.01492
G1 X79.395 Y117.316 E0.00432
G1 X79.777 Y117.257 E0.01543
G1 X80.078 Y117.247 E0.01202
G1 X80.448 Y117.28 E0.01483
G1 X80.551 Y117.298 E0.00417
G1 X80.916 Y117.397 E0.01509
G1 X81.18 Y117.502 E0.01134
G1 X81.275 Y117.549 E0.00423
G1 X81.603 Y117.747 E0.01529
G1 X81.831 Y117.925 E0.01154
G1 X81.907 Y117.993 E0.00407
G1 X82.164 Y118.27 E0.01508
G1 X82.335 Y118.503 E0.01154
G1 X82.39 Y118.591 E0.00414
G1 X82.532 Y118.858 E0.01207
G1 X82.575 Y118.954 E0.0042
G1 X82.692 Y119.301 E0.01462
G1 X82.765 Y119.679 E0.01537
G1 X82.784 Y119.961 E0.01128
G1 X82.784 Y120.063 E0.00407
G1 X82.764 Y120.351 E0.01152
G1 X82.683 Y120.773 E0.01715
G1 X82.541 Y121.153 E0.01619
G1 X82.371 Y121.476 E0.01457
G1 X82.124 Y121.813 E0.01668
G1 X81.882 Y122.063 E0.01389
G1 X81.557 Y122.318 E0.01649
G1 X81.199 Y122.522 E0.01645
G1 X80.915 Y122.633 E0.01217
G1 X80.529 Y122.739 E0.01598
G1 X80.118 Y122.784 E0.0165
G1 X79.753 Y122.773 E0.01457
G1 X79.357 Y122.708 E0.01602
G1 X78.936 Y122.566 E0.01773
G1 X78.645 Y122.425 E0.01291
G1 X78.352 Y122.231 E0.01403
G1 X78.272 Y122.17 E0.00402
G1 X78.001 Y121.92 E0.01472
G1 X77.748 Y121.605 E0.01613
G1 X77.579 Y121.335 E0.01271
G1 X77.416 Y120.975 E0.01577
G1 X77.31 Y120.615 E0.01498
G1 X77.256 Y120.261 E0.01429
G1 F1803.8 X77.25 Y119.874 E0.01542
G1 X77.256 Y119.774 E0.00399
G1 F1800 X77.296 Y119.488 E0.01153
G1 X77.318 Y119.387 E0.00413
G1 X77.43 Y119.023 E0.0152
G1 X77.545 Y118.763 E0.01135
G1 X77.594 Y118.67 E0.0042
G1 X77.801 Y118.353 E0.01511
G1 X77.982 Y118.133 E0.01137
G1 X78.057 Y118.055 E0.00432
G1 X78.272 Y117.862 E0.01153
G1 X78.352 Y117.8 E0.00404
G0 F7200 X78.253 Y117.653
G0 X77.676 Y118.317
G0 X77.298 Y119.027
G0 X77.251 Y119.25
G0 X77.079 Y120.286
G0 X77.732 Y120.194
;TYPE:WALL-OUTER
G1 F1800 X77.732 Y119.84 E0.01413
G1 X77.779 Y119.521 E0.01287
G1 X77.869 Y119.217 E0.01265
G1 X78 Y118.926 E0.01274
G1 X78.172 Y118.658 E0.01271
G1 X78.378 Y118.412 E0.01281
G1 X78.62 Y118.198 E0.01289
G1 X78.884 Y118.023 E0.01264
G1 X79.145 Y117.898 E0.01155
G1 X79.476 Y117.789 E0.01391
G1 X79.762 Y117.74 E0.01158
G1 X80.111 Y117.728 E0.01394
G1 X80.433 Y117.764 E0.01293
G1 X80.738 Y117.843 E0.01257
G1 X81.002 Y117.948 E0.01134
G1 X81.307 Y118.125 E0.01407
G1 X81.561 Y118.326 E0.01293
G1 X81.777 Y118.554 E0.01254
G1 X81.948 Y118.787 E0.01154
G1 X82.123 Y119.116 E0.01487
G1 X82.222 Y119.399 E0.01197
G1 X82.285 Y119.713 E0.01278
G1 X82.305 Y120.03 E0.01268
G1 X82.285 Y120.317 E0.01148
G1 X82.219 Y120.644 E0.01331
G1 X82.118 Y120.921 E0.01177
G1 X81.96 Y121.226 E0.01371
G1 X81.764 Y121.494 E0.01325
G1 X81.536 Y121.728 E0.01304
G1 X81.294 Y121.916 E0.01223
G1 X81.002 Y122.083 E0.01343
G1 X80.738 Y122.187 E0.01132
G1 X80.406 Y122.273 E0.01369
G1 X80.097 Y122.304 E0.01239
G1 X79.786 Y122.294 E0.01242
G1 X79.463 Y122.24 E0.01307
G1 X79.144 Y122.133 E0.01343
G1 X78.874 Y122.003 E0.01196
G1 X78.605 Y121.822 E0.01294
G1 X78.373 Y121.615 E0.01241
G1 X78.154 Y121.349 E0.01375
G1 X77.988 Y121.083 E0.01251
G1 X77.864 Y120.803 E0.01222
G1 X77.776 Y120.501 E0.01255
G1 X77.732 Y120.194 E0.01238
G0 F7200 X77.732 Y119.994
G1 F7200 E-0.4
G0 X77.07 Y119.994
G0 X77.298 Y121.004
G0 X77.676 Y121.714
G0 X78.236 Y122.294
G0 X78.932 Y122.696
G0 X79.714 Y122.891
G0 X80.516 Y122.863
G0 X81.283 Y122.614
G0 X81.823 Y122.25
G0 X83.842 Y120.182
;TYPE:WALL-INNER
G1 F2880 E0.4
G1 F1674.4 X83.992 Y119.707 E0.02137
G1 F1800 X103.815 Y36.87 E3.39955
G1 X103.815 Y36.801 E0.00275
G1 X103.815 Y36.215 E0.02339
G1 X56.215 Y36.215 E1.89982
G1 X56.215 Y36.87 E0.02614
G1 X76.044 Y119.743 E3.401
G1 F1680.9 X76.194 Y120.223 E0.02149
G1 F1624.1 X76.342 Y120.912 E0.03117
G1 F1677.7 X76.435 Y121.232 E0.01427
G1 F1674.4 X76.556 Y121.54 E0.0142
G1 X76.699 Y121.835 E0.01407
G1 F1677.7 X76.875 Y122.12 E0.01434
G1 F1674.4 X77.083 Y122.399 E0.01493
G1 F1680.9 X77.296 Y122.643 E0.01384
G1 F1684.2 X77.554 Y122.882 E0.015
G1 X77.683 Y122.991 E0.0072
G1 F1680.9 X77.819 Y123.092 E0.00724
G1 X78.092 Y123.271 E0.01395
G1 F1677.7 X78.396 Y123.432 E0.01473
G1 F1674.4 X78.695 Y123.559 E0.01394
G1 F1677.7 X79.012 Y123.661 E0.01426
G1 X79.345 Y123.735 E0.01461
G1 F1674.4 X79.728 Y123.786 E0.01658
G1 X80.015 Y123.796 E0.01232
G1 X80.351 Y123.781 E0.01443
G1 F1677.7 X80.684 Y123.736 E0.01439
G1 X81.019 Y123.661 E0.0147
G1 F1671.2 X81.349 Y123.553 E0.01493
G1 F1677.7 X81.598 Y123.45 E0.01154
G1 F1680.9 X81.95 Y123.262 E0.01706
G1 F1677.7 X82.212 Y123.092 E0.01337
G1 F1680.9 X82.492 Y122.871 E0.01525
G1 F1677.7 X82.739 Y122.635 E0.01463
G1 X82.948 Y122.402 E0.0134
G1 X83.16 Y122.113 E0.01535
G1 F1674.4 X83.335 Y121.823 E0.01453
G1 X83.478 Y121.533 E0.01387
G1 F1677.7 X83.603 Y121.209 E0.01487
G1 X83.693 Y120.889 E0.01423
G1 F1621 X83.842 Y120.182 E0.03202
G1 F7200 E-0.4
G0 X80.568 Y116.126
G0 X76.437 Y118.335
G0 X55.885 Y35.885
G1 F2880 E0.4
G0 F7200 X55.735 Y35.735
G1 F1800 X55.735 Y36.926 E0.04754
G1 X75.868 Y121.056 E3.45262
G1 X75.959 Y121.378 E0.01336
G1 X76.094 Y121.729 E0.01501
G1 X76.263 Y122.074 E0.01533
G1 X76.461 Y122.398 E0.01516
G1 X76.687 Y122.705 E0.01522
G1 X76.939 Y122.988 E0.01512
G1 X77.219 Y123.252 E0.01536
G1 X77.518 Y123.489 E0.01523
G1 X77.773 Y123.657 E0.01219
G1 X78.168 Y123.877 E0.01805
G1 X78.521 Y124.026 E0.01529
G1 X78.881 Y124.141 E0.01508
G1 X79.256 Y124.226 E0.01535
G1 X79.634 Y124.277 E0.01522
G1 X80.015 Y124.294 E0.01522
G1 X80.395 Y124.277 E0.01518
G1 X80.762 Y124.227 E0.01478
G1 X81.148 Y124.142 E0.01578
G1 X81.512 Y124.026 E0.01525
G1 X81.855 Y123.878 E0.01491
G1 X82.195 Y123.697 E0.01537
G1 X82.512 Y123.489 E0.01513
G1 X82.808 Y123.256 E0.01504
G1 X83.089 Y122.991 E0.01542
G1 X83.342 Y122.706 E0.01521
G1 X83.568 Y122.4 E0.01518
G1 X83.767 Y122.073 E0.01528
G1 X83.934 Y121.733 E0.01512
G1 X84.076 Y121.366 E0.01571
G1 X84.176 Y121.005 E0.01495
G1 X104.295 Y36.926 E3.45051
G1 X104.295 Y36.801 E0.00499
G1 X104.295 Y35.735 E0.04255
G1 X55.735 Y35.735 E1.93813
G0 F7200 X55.255 Y35.255
;TYPE:WALL-OUTER
G1 F1800 X55.255 Y36.983 E0.06897
G1 X75.406 Y121.186 E3.45562
G1 X75.503 Y121.53 E0.01427
G1 X75.654 Y121.922 E0.01677
G1 X75.842 Y122.305 E0.01703
G1 X76.061 Y122.666 E0.01685
G1 X76.314 Y123.008 E0.01698
G1 X76.594 Y123.322 E0.01679
G1 X76.904 Y123.616 E0.01705
G1 X77.238 Y123.879 E0.01697
G1 X77.592 Y124.11 E0.01687
G1 X77.96 Y124.31 E0.01672
G1 X78.354 Y124.477 E0.01708
G1 X78.755 Y124.605 E0.0168
G1 X79.17 Y124.699 E0.01698
G1 X79.592 Y124.756 E0.017
G1 X80.015 Y124.774 E0.0169
G1 X80.438 Y124.756 E0.0169
G1 X80.846 Y124.7 E0.01644
G1 X81.272 Y124.606 E0.01741
