;FLAVOR:RepRap
;TIME:7255
;Filament used: 13.4639m
;Layer height: 0.2
;MINX:31.893
;MINY:26.991
;MINZ:0.2
;MAXX:128.139
;MAXY:108.325
;MAXZ:23.8
;Generated with Cura_SteamEngine 5.2.1
T0


; Pre-Processed for Cancel-Object support by preprocess_cancellation v0.2.0
; 4 known objects
EXCLUDE_OBJECT_DEFINE NAME=MHST_Anti_Rotation_TRX_4_V3_stl_3 CENTER=80.169,38.328 POLYGON=[[60.826,27.102],[60.826,61.103],[99.159,61.103],[99.159,27.102]]
EXCLUDE_OBJECT_DEFINE NAME=MHST_Anti_Rotation_TRX_4_V3_stl_1 CENTER=80.158,74.202 POLYGON=[[60.835,63.002],[60.835,97.002],[99.168,97.002],[99.168,63.002]]
EXCLUDE_OBJECT_DEFINE NAME=MHST_Anti_Rotation_TRX_4_V3_stl CENTER=51.142,96.977 POLYGON=[[31.893,74.187],[31.893,108.187],[70.226,108.187],[70.226,74.187]]
EXCLUDE_OBJECT_DEFINE NAME=MHST_Anti_Rotation_TRX_4_V3_stl_2 CENTER=108.975,96.993 POLYGON=[[89.806,74.214],[89.806,108.214],[128.139,108.214],[128.139,74.214]]
M82 ;absolute extrusion mode
PRINT_START BED=60 EXTRUDER=220 STANDBY=175 CHAMBER=28
M83 ;relative extrusion mode
G1 F7200 E-0.4
;LAYER_COUNT:118
;LAYER:0
M107
G1 F600 Z0.4
G0 F7200 X63.348 Y29.226 Z0.4
;TYPE:SKIRT
G1 F600 Z0.2
G1 F2880 E0.4
G1 F1800 X63.613 Y28.742 E0.02478
G1 X63.946 Y28.302 E0.02478
G1 X64.339 Y27.914 E0.0248
G1 X64.783 Y27.587 E0.02476
G1 X65.27 Y27.328 E0.02477
G1 X65.789 Y27.142 E0.02476
G1 X66.33 Y27.033 E0.02478
G1 X66.694 Y27.004 E0.0164
G1 X67.135 Y26.992 E0.01981
G1 X92.55 Y26.991 E1.14116
G1 X93.254 Y27.001 E0.03161
G1 X93.804 Y27.049 E0.02479
G1 X94.341 Y27.176 E0.02478
G1 X94.854 Y27.379 E0.02477
G1 X95.332 Y27.654 E0.02476
G1 X95.766 Y27.995 E0.02478
G1 X96.146 Y28.395 E0.02477
G1 X96.464 Y28.845 E0.02474
G1 X96.714 Y29.337 E0.02478
G1 X96.86 Y29.751 E0.01971
G1 X97.199 Y30.92 E0.05465
G1 X97.999 Y33.524 E0.12232
G1 X98.872 Y36.106 E0.12238
G1 X99.809 Y38.638 E0.12122
G1 X100.829 Y41.169 E0.12253
G1 X101.927 Y43.687 E0.12334
G1 X103.065 Y46.109 E0.12016
G1 X104.3 Y48.555 E0.12303
G1 X105.606 Y50.97 E0.12328
G1 X106.946 Y53.285 E0.1201
G1 X108.394 Y55.634 E0.1239
G1 X109.879 Y57.897 E0.12154
G1 X111.439 Y60.131 E0.12235
G1 X113.062 Y62.324 E0.1225
G1 X114.732 Y64.451 E0.12142
G1 X116.457 Y66.524 E0.12109
G1 X118.28 Y68.594 E0.12385
G1 X120.155 Y70.604 E0.12342
G1 X120.901 Y71.382 E0.0484
G1 X121.253 Y71.807 E0.02478
G1 X121.54 Y72.278 E0.02477
G1 X121.756 Y72.786 E0.02479
G1 X121.896 Y73.319 E0.02474
G1 X121.947 Y73.692 E0.0169
G1 X122.055 Y74.949 E0.05665
G1 X122.332 Y77.699 E0.1241
G1 X122.684 Y80.428 E0.12355
G1 X123.103 Y83.078 E0.12047
G1 X123.606 Y85.761 E0.12257
G1 X124.187 Y88.443 E0.12322
G1 X124.825 Y91.039 E0.12003
G1 X125.574 Y93.742 E0.12594
G1 X125.802 Y94.527 E0.0367
G1 X125.918 Y95.066 E0.02476
G1 X125.953 Y95.524 E0.02062
G1 X125.97 Y96.5 E0.04383
G1 X125.97 Y103.83 E0.32913
G1 X125.96 Y104.557 E0.03265
G1 X125.912 Y105.107 E0.02479
G1 X125.786 Y105.644 E0.02477
G1 X125.583 Y106.157 E0.02477
G1 X125.308 Y106.636 E0.0248
G1 X124.968 Y107.07 E0.02476
G1 X124.568 Y107.45 E0.02477
G1 X124.117 Y107.768 E0.02478
G1 X123.625 Y108.018 E0.02478
G1 X123.102 Y108.194 E0.02478
G1 X122.559 Y108.293 E0.02478
G1 X122.263 Y108.313 E0.01332
G1 X121.846 Y108.324 E0.01873
G1 X96.415 Y108.325 E1.14188
G1 X95.709 Y108.315 E0.0317
G1 X95.22 Y108.276 E0.02203
G1 X92.176 Y107.838 E0.13809
G1 X89.428 Y107.525 E0.12419
G1 X86.766 Y107.299 E0.11996
G1 X84.006 Y107.142 E0.12413
G1 X81.328 Y107.066 E0.12029
G1 X78.574 Y107.066 E0.12366
G1 X75.887 Y107.142 E0.1207
G1 X73.144 Y107.296 E0.12336
G1 X70.466 Y107.525 E0.12068
G1 X67.719 Y107.836 E0.12413
G1 X66.199 Y108.052 E0.06894
G1 X66.124 Y108.057 E0.00338
G1 X64.775 Y108.25 E0.06119
G1 X64.343 Y108.286 E0.01946
G1 X63.917 Y108.297 E0.01913
G1 X38.507 Y108.298 E1.14094
G1 X37.808 Y108.289 E0.03139
G1 X37.258 Y108.242 E0.02479
G1 X36.721 Y108.116 E0.02477
G1 X36.208 Y107.914 E0.02476
G1 X35.729 Y107.639 E0.0248
G1 X35.295 Y107.299 E0.02476
G1 X34.914 Y106.899 E0.0248
G1 X34.596 Y106.449 E0.02474
G1 X34.345 Y105.957 E0.0248
G1 X34.169 Y105.435 E0.02473
G1 X34.069 Y104.892 E0.02479
G1 X34.049 Y104.589 E0.01363
G1 X34.038 Y104.166 E0.019
G1 X34.038 Y96.23 E0.35634
G1 X34.05 Y95.514 E0.03215
G1 X34.099 Y94.965 E0.02475
G1 X34.199 Y94.52 E0.02048
G1 X34.851 Y92.264 E0.10544
G1 X35.536 Y89.634 E0.12203
G1 X36.157 Y86.936 E0.12431
G1 X36.685 Y84.315 E0.12005
G1 X37.146 Y81.631 E0.12228
G1 X37.533 Y78.911 E0.12336
G1 X37.838 Y76.246 E0.12044
G1 X38.061 Y73.664 E0.11637
G1 X38.148 Y73.119 E0.02478
G1 X38.313 Y72.593 E0.02475
G1 X38.553 Y72.095 E0.02482
G1 X38.861 Y71.638 E0.02475
G1 X39.101 Y71.362 E0.01642
G1 X40.918 Y69.458 E0.11817
G1 X42.736 Y67.447 E0.12172
G1 X44.518 Y65.36 E0.12322
G1 X46.226 Y63.242 E0.12217
G1 X47.884 Y61.06 E0.12305
G1 X49.455 Y58.869 E0.12105
G1 X50.977 Y56.613 E0.12219
G1 X52.437 Y54.311 E0.1224
G1 X53.818 Y51.99 E0.12127
G1 X55.149 Y49.605 E0.12264
G1 X56.414 Y47.179 E0.12285
G1 X57.603 Y44.731 E0.1222
G1 X58.705 Y42.287 E0.12038
G1 X59.772 Y39.735 E0.1242
G1 X60.747 Y37.198 E0.12204
G1 X61.646 Y34.646 E0.12149
G1 X62.485 Y32.035 E0.12314
G1 X63.155 Y29.743 E0.10722
G1 X63.348 Y29.226 E0.02478
G0 F7200 X63.855 Y29.416
G1 F1800 X64.108 Y28.973 E0.02291
G1 X64.428 Y28.574 E0.02297
G1 X64.806 Y28.23 E0.02295
G1 X65.233 Y27.949 E0.02295
G1 X65.698 Y27.738 E0.02293
G1 X66.191 Y27.602 E0.02296
G1 X66.711 Y27.544 E0.02349
G1 X67.135 Y27.532 E0.01905
G1 X92.542 Y27.531 E1.1408
G1 X93.246 Y27.541 E0.03161
G1 X93.755 Y27.589 E0.02296
G1 X94.251 Y27.714 E0.02297
G1 X94.72 Y27.916 E0.02293
G1 X95.153 Y28.188 E0.02296
G1 X95.538 Y28.524 E0.02294
G1 X95.865 Y28.917 E0.02296
G1 X96.128 Y29.355 E0.02294
G1 X96.341 Y29.901 E0.02632
G1 X96.667 Y31.027 E0.05264
G1 X97.484 Y33.685 E0.12486
G1 X98.363 Y36.284 E0.12319
G1 X99.315 Y38.857 E0.12319
G1 X100.33 Y41.376 E0.12194
G1 X101.42 Y43.877 E0.1225
G1 X102.598 Y46.383 E0.12433
G1 X103.819 Y48.8 E0.12159
G1 X105.132 Y51.23 E0.12402
G1 X106.485 Y53.567 E0.12125
G1 X107.926 Y55.906 E0.12335
G1 X109.445 Y58.219 E0.12425
G1 X111.006 Y60.455 E0.12244
G1 X112.597 Y62.605 E0.1201
G1 X114.325 Y64.805 E0.12561
G1 X116.069 Y66.901 E0.12243
G1 X117.862 Y68.936 E0.12178
G1 X119.774 Y70.987 E0.1259
G1 X120.511 Y71.756 E0.04783
G1 X120.835 Y72.151 E0.02294
G1 X121.093 Y72.592 E0.02294
G1 X121.28 Y73.068 E0.02296
G1 X121.409 Y73.738 E0.03064
G1 X121.518 Y75.003 E0.05701
G1 X121.798 Y77.786 E0.12559
G1 X122.145 Y80.476 E0.12178
G1 X122.575 Y83.196 E0.12365
G1 X123.075 Y85.862 E0.12179
G1 X123.664 Y88.581 E0.12492
G1 X124.301 Y91.172 E0.1198
G1 X125.042 Y93.846 E0.12459
G1 X125.284 Y94.678 E0.03891
G1 X125.388 Y95.178 E0.02293
G1 X125.413 Y95.533 E0.01598
G1 X125.43 Y96.5 E0.04343
G1 X125.43 Y103.823 E0.32881
G1 X125.42 Y104.55 E0.03265
G1 X125.373 Y105.059 E0.02295
G1 X125.247 Y105.554 E0.02293
G1 X125.046 Y106.024 E0.02295
G1 X124.774 Y106.457 E0.02296
G1 X124.438 Y106.842 E0.02294
G1 X124.046 Y107.17 E0.02295
G1 X123.607 Y107.432 E0.02296
G1 X123.133 Y107.624 E0.02296
G1 X122.635 Y107.739 E0.02295
G1 X122.247 Y107.774 E0.01749
G1 X121.943 Y107.783 E0.01366
G1 X96.423 Y107.785 E1.14588
G1 X95.717 Y107.775 E0.0317
G1 X95.297 Y107.742 E0.01892
G1 X92.214 Y107.298 E0.13986
G1 X89.498 Y106.989 E0.12274
G1 X86.807 Y106.761 E0.12126
G1 X84.053 Y106.604 E0.12386
G1 X81.307 Y106.526 E0.12335
G1 X78.594 Y106.526 E0.12182
G1 X75.843 Y106.604 E0.12357
G1 X73.102 Y106.758 E0.12327
G1 X70.395 Y106.989 E0.12199
G1 X67.689 Y107.296 E0.12228
G1 X66.123 Y107.518 E0.07102
G1 X66.041 Y107.523 E0.00369
G1 X64.699 Y107.715 E0.06087
G1 X64.328 Y107.747 E0.01672
G1 X64.009 Y107.756 E0.01433
G1 X38.514 Y107.758 E1.14476
G1 X37.815 Y107.749 E0.03139
G1 X37.306 Y107.702 E0.02295
G1 X36.81 Y107.577 E0.02297
G1 X36.341 Y107.376 E0.02291
G1 X35.908 Y107.104 E0.02296
G1 X35.522 Y106.769 E0.02295
G1 X35.194 Y106.377 E0.02295
G1 X34.931 Y105.939 E0.02294
G1 X34.739 Y105.465 E0.02296
G1 X34.624 Y104.967 E0.02295
G1 X34.588 Y104.573 E0.01776
G1 X34.579 Y104.26 E0.01406
G1 X34.577 Y96.239 E0.36015
G1 X34.589 Y95.523 E0.03215
G1 X34.638 Y95.014 E0.02296
G1 X34.718 Y94.67 E0.01586
G1 X35.374 Y92.402 E0.10601
G1 X36.055 Y89.785 E0.12142
G1 X36.683 Y87.058 E0.12565
G1 X37.217 Y84.407 E0.12142
G1 X37.684 Y81.687 E0.12392
G1 X38.064 Y79.017 E0.12109
G1 X38.377 Y76.282 E0.12361
G1 X38.599 Y73.71 E0.11592
G1 X38.683 Y73.206 E0.02294
G1 X38.844 Y72.721 E0.02295
G1 X39.079 Y72.267 E0.02295
G1 X39.491 Y71.734 E0.03025
G1 X41.327 Y69.81 E0.11941
G1 X43.165 Y67.778 E0.12303
G1 X44.935 Y65.704 E0.12243
G1 X46.645 Y63.583 E0.12233
G1 X48.321 Y61.377 E0.1244
G1 X49.881 Y59.202 E0.12018
G1 X51.447 Y56.881 E0.12572
G1 X52.888 Y54.61 E0.12077
G1 X54.294 Y52.246 E0.1235
G1 X55.625 Y49.862 E0.1226
G1 X56.896 Y47.423 E0.12349
G1 X58.085 Y44.976 E0.12216
G1 X59.213 Y42.474 E0.12323
G1 X60.266 Y39.954 E0.12263
G1 X61.264 Y37.359 E0.12484
G1 X62.158 Y34.82 E0.12086
G1 X62.987 Y32.239 E0.12172
G1 X63.673 Y29.894 E0.10971
G1 X63.855 Y29.416 E0.02297
G1 F7200 E-0.4
G1 F600 Z0.4
;MESH:MHST - Anti-Rotation (TRX-4) - V3.stl(3)
EXCLUDE_OBJECT_START NAME=MHST_Anti_Rotation_TRX_4_V3_stl_3
G0 F7200 X76.133 Y43.443 Z0.4
;TYPE:WALL-INNER
G1 F600 Z0.2
G1 F2880 E0.4
G1 F1800 X76.184 Y43.337 E0.00469
G1 X76.238 Y43.258 E0.00382
G1 X76.295 Y43.193 E0.00345
G1 X77.333 Y42.158 E0.0585
G1 X77.39 Y42.113 E0.0029
G1 X77.54 Y42.033 E0.00679
G1 X77.624 Y42.005 E0.00353
G1 X77.713 Y41.988 E0.00362
G1 X82.296 Y41.988 E0.18292
G1 X82.385 Y42.005 E0.00362
G1 X82.47 Y42.033 E0.00357
G1 X82.549 Y42.07 E0.00348
G1 X82.685 Y42.165 E0.00662
G1 X83.715 Y43.193 E0.05808
G1 X83.773 Y43.259 E0.00351
G1 X83.827 Y43.34 E0.00389
G1 X83.878 Y43.445 E0.00466
G1 X83.905 Y43.533 E0.00367
G1 X83.924 Y43.655 E0.00493
G1 X83.925 Y60.583 E0.67563
G1 X88.485 Y60.583 E0.182
G1 X88.486 Y43.655 E0.67563
G1 X88.52 Y43.134 E0.02084
G1 X88.532 Y43.043 E0.00366
G1 X88.644 Y42.48 E0.02291
G1 X88.827 Y41.94 E0.02276
G1 X89.111 Y41.354 E0.02599
G1 X89.458 Y40.827 E0.02518
G1 X89.908 Y40.325 E0.02691
G1 X90.369 Y39.929 E0.02426
G1 X90.802 Y39.639 E0.0208
G1 X90.886 Y39.591 E0.00386
G1 X91.442 Y39.325 E0.0246
G1 X91.933 Y39.157 E0.02071
G1 X92.027 Y39.132 E0.00388
G1 X92.485 Y39.043 E0.01862
G1 X92.485 Y31.522 E0.30018
G1 X67.526 Y31.523 E0.99617
G1 X67.525 Y39.042 E0.3001
G1 X67.982 Y39.132 E0.01859
G1 X68.075 Y39.157 E0.00384
G1 X68.649 Y39.359 E0.02429
G1 X69.116 Y39.587 E0.02074
G1 X69.2 Y39.635 E0.00386
G1 X69.634 Y39.924 E0.02081
G1 X70.102 Y40.326 E0.02462
G1 X70.169 Y40.393 E0.00378
G1 X70.542 Y40.82 E0.02263
G1 X70.88 Y41.32 E0.02409
G1 X71.146 Y41.853 E0.02378
G1 X71.181 Y41.937 E0.00363
G1 X71.35 Y42.431 E0.02084
G1 X71.375 Y42.524 E0.00384
G1 X71.478 Y43.041 E0.02104
G1 X71.524 Y43.656 E0.02461
G1 X71.525 Y60.583 E0.67559
G1 X76.085 Y60.583 E0.182
G1 X76.085 Y58.303 E0.091
G1 X76.086 Y43.656 E0.58459
G1 X76.104 Y43.533 E0.00496
G1 X76.133 Y43.443 E0.00377
G0 F7200 X76.581 Y43.616
;TYPE:WALL-OUTER
G1 F1800 X76.606 Y43.567 E0.0022
G1 X77.666 Y42.506 E0.05986
G1 X77.716 Y42.479 E0.00227
G1 X77.774 Y42.464 E0.00239
G1 X82.236 Y42.464 E0.17809
G1 X82.294 Y42.479 E0.00239
G1 X82.365 Y42.523 E0.00333
G1 X83.404 Y43.567 E0.05879
G1 X83.43 Y43.617 E0.00225
G1 X83.445 Y43.687 E0.00286
G1 X83.445 Y61.063 E0.69351
G1 X88.965 Y61.063 E0.22032
G1 X88.965 Y43.686 E0.69355
G1 X89.003 Y43.135 E0.02204
G1 X89.112 Y42.59 E0.02218
G1 X89.293 Y42.067 E0.02209
G1 X89.527 Y41.594 E0.02106
G1 X89.84 Y41.117 E0.02277
G1 X90.224 Y40.686 E0.02304
G1 X90.611 Y40.347 E0.02053
G1 X91.069 Y40.038 E0.02205
G1 X91.598 Y39.779 E0.02351
G1 X92.089 Y39.611 E0.02071
G1 X92.638 Y39.501 E0.02235
G1 X92.965 Y39.478 E0.01308
G1 X92.965 Y31.042 E0.3367
G1 X67.046 Y31.043 E1.03448
G1 X67.045 Y39.478 E0.33666
G1 X67.372 Y39.501 E0.01308
G1 X67.92 Y39.611 E0.02231
G1 X68.411 Y39.779 E0.02071
G1 X68.934 Y40.035 E0.02324
G1 X69.393 Y40.343 E0.02206
G1 X69.808 Y40.709 E0.02208
G1 X70.161 Y41.112 E0.02138
G1 X70.478 Y41.582 E0.02263
G1 X70.727 Y42.093 E0.02269
G1 X70.896 Y42.587 E0.02084
G1 X71.009 Y43.15 E0.02292
G1 X71.045 Y43.687 E0.02148
G1 X71.045 Y61.063 E0.69351
G1 X76.565 Y61.063 E0.22032
G1 X76.565 Y58.303 E0.11016
G1 X76.565 Y43.687 E0.58336
G1 X76.581 Y43.616 E0.0029
G0 F7200 X76.606 Y43.567
G0 X76.708 Y43.465
G0 X76.24 Y42.997
G0 X71.417 Y41.255
;TYPE:FILL
G1 F1800 X71.335 Y41.089 E0.00831
G1 X70.946 Y40.51 E0.03132
G1 X70.545 Y40.049 E0.02743
G1 X70.444 Y39.947 E0.00645
G1 X70.037 Y39.592 E0.02425
G1 X69.923 Y39.503 E0.00649
G1 X69.473 Y39.204 E0.02426
G1 X69.244 Y39.082 E0.01165
G1 X68.034 Y37.871 E0.07687
G1 X68.034 Y38.508 E0.0286
G1 X68.186 Y38.66 E0.00965
G1 X68.034 Y38.622 E0.00704
G1 F7200 E-0.4
G0 X82.515 Y41.512
G1 F2880 E0.4
G1 F1800 X82.656 Y41.558 E0.00666
G1 X82.787 Y41.619 E0.00649
G1 X82.927 Y41.705 E0.00738
G1 X83.021 Y41.781 E0.00543
G1 X84.079 Y42.837 E0.06712
G1 X84.171 Y42.941 E0.00623
G1 X84.271 Y43.088 E0.00798
G1 X84.351 Y43.255 E0.00831
G1 X84.402 Y43.421 E0.0078
G1 X87.975 Y46.994 E0.22689
G1 X87.975 Y47.63 E0.02856
G1 X84.432 Y44.088 E0.22495
G1 X84.432 Y44.724 E0.02856
G1 X87.975 Y48.267 E0.22498
G1 X87.975 Y48.903 E0.02856
G1 X84.432 Y45.36 E0.22498
G1 X84.432 Y45.997 E0.0286
G1 X87.975 Y49.539 E0.22495
G1 X87.975 Y50.176 E0.0286
G1 X84.432 Y46.633 E0.22498
G1 X84.432 Y47.27 E0.0286
G1 X87.975 Y50.812 E0.22495
G1 X87.975 Y51.449 E0.0286
G1 X84.432 Y47.906 E0.22498
G1 X84.432 Y48.542 E0.02856
G1 X87.974 Y52.084 E0.22492
G1 X87.974 Y52.721 E0.0286
G1 X84.432 Y49.179 E0.22492
G1 X84.432 Y49.815 E0.02856
G1 X87.974 Y53.357 E0.22492
G1 X87.974 Y53.993 E0.02856
G1 X84.432 Y50.452 E0.22488
G1 X84.432 Y51.088 E0.02856
G1 X87.974 Y54.63 E0.22492
G1 X87.974 Y55.266 E0.02856
G1 X84.432 Y51.724 E0.22492
G1 X84.433 Y52.361 E0.0286
G1 X87.974 Y55.903 E0.22488
G1 X87.974 Y56.539 E0.02856
G1 X84.433 Y52.998 E0.22485
G1 X84.433 Y53.634 E0.02856
G1 X87.974 Y57.175 E0.22485
G1 X87.974 Y57.812 E0.0286
G1 X84.433 Y54.271 E0.22485
G1 X84.433 Y54.907 E0.02856
G1 X87.974 Y58.448 E0.22485
G1 X87.974 Y59.085 E0.0286
G1 X84.433 Y55.543 E0.22488
G1 X84.433 Y56.18 E0.0286
G1 X87.974 Y59.721 E0.22485
G1 X87.973 Y60.072 E0.01576
G1 X87.689 Y60.072 E0.01275
G1 X84.433 Y56.816 E0.20676
G1 X84.433 Y57.453 E0.0286
G1 X87.053 Y60.072 E0.16634
G1 X86.416 Y60.072 E0.0286
G1 X84.433 Y58.089 E0.12592
G1 X84.433 Y58.725 E0.02856
G1 X85.78 Y60.072 E0.08553
G1 X85.144 Y60.072 E0.02856
G1 X84.433 Y59.362 E0.04512
G1 X84.434 Y60.072 E0.03188
G1 X84.507 Y60.072 E0.00328
G1 F7200 E-0.4
G0 X88.529 Y42.45
G0 X91.974 Y32.538
G1 F2880 E0.4
G1 F1800 X91.469 Y32.032 E0.0321
G1 X90.832 Y32.032 E0.0286
G1 X91.974 Y33.174 E0.07252
G1 X91.974 Y33.811 E0.0286
G1 X90.196 Y32.032 E0.11293
G1 X89.56 Y32.032 E0.02856
G1 X91.974 Y34.447 E0.15332
G1 X91.974 Y35.083 E0.02856
G1 X88.923 Y32.032 E0.19374
G1 X88.287 Y32.032 E0.02856
G1 X91.974 Y35.72 E0.23416
G1 X91.974 Y36.356 E0.02856
G1 X87.65 Y32.032 E0.27457
G1 X87.014 Y32.032 E0.02856
G1 X91.974 Y36.992 E0.31496
G1 X91.974 Y37.629 E0.0286
G1 X86.378 Y32.032 E0.35538
G1 X85.741 Y32.032 E0.0286
G1 X91.974 Y38.265 E0.39579
G1 X91.974 Y38.622 E0.01603
G1 X91.752 Y38.679 E0.01029
G1 X85.105 Y32.032 E0.42208
G1 X84.468 Y32.032 E0.0286
G1 X91.277 Y38.841 E0.43237
G1 X91.141 Y38.897 E0.0066
G1 X90.842 Y39.042 E0.01492
G1 X83.832 Y32.032 E0.44513
G1 X83.196 Y32.032 E0.02856
G1 X90.434 Y39.27 E0.45961
G1 X90.054 Y39.527 E0.0206
G1 X82.559 Y32.032 E0.47593
G1 X81.923 Y32.032 E0.02856
G1 X89.709 Y39.819 E0.49444
G1 X89.564 Y39.946 E0.00865
G1 X89.388 Y40.133 E0.01153
G1 X81.286 Y32.032 E0.51444
G1 X80.65 Y32.032 E0.02856
G1 X89.089 Y40.471 E0.53588
G1 X89.005 Y40.582 E0.00625
G1 X88.831 Y40.85 E0.01435
G1 X80.014 Y32.032 E0.55991
G1 X79.378 Y32.033 E0.02856
G1 X88.594 Y41.249 E0.58521
G1 X88.384 Y41.676 E0.02137
G1 X78.741 Y32.033 E0.61233
G1 X78.105 Y32.033 E0.02856
G1 X88.219 Y42.147 E0.64224
G1 X88.151 Y42.346 E0.00944
G1 X88.089 Y42.653 E0.01406
G1 X77.469 Y32.033 E0.67437
G1 X76.832 Y32.033 E0.0286
G1 X88.003 Y43.204 E0.70936
G1 X87.975 Y43.628 E0.01908
G1 X87.975 Y43.812 E0.00826
G1 X76.196 Y32.033 E0.74796
G1 X75.56 Y32.033 E0.02856
G1 X87.975 Y44.448 E0.78835
G1 X87.975 Y45.085 E0.0286
G1 X74.923 Y32.033 E0.8288
