;FLAVOR:RepRap
;TIME:693
;Filament used: 0.336222m
;Layer height: 0.16
;MINX:60.775
;MINY:70.071
;MINZ:0.16
;MAXX:95.679
;MAXY:89.929
;MAXZ:8.56
;Generated with Cura_SteamEngine 5.2.1
T0


; Pre-Processed for Cancel-Object support by preprocess_cancellation v0.2.0
; 1 known objects
EXCLUDE_OBJECT_DEFINE NAME=Nimrod_v1_stl CENTER=84.472,80.027 POLYGON=[[68.83,74.725],[68.83,85.274],[91.025,85.274],[91.025,74.725]]
M82 ;absolute extrusion mode
PRINT_START BED=60 EXTRUDER=220 STANDBY=175 CHAMBER=28
M83 ;relative extrusion mode
G1 F7200 E-0.4
;LAYER_COUNT:53
;LAYER:0
M107
G1 F600 Z0.56
G0 F7200 X63.344 Y72.57 Z0.56
;TYPE:SKIRT
G1 F600 Z0.16
G1 F2880 E0.4
G1 F1800 X63.943 Y72.053 E0.02899
G1 X64.592 Y71.6 E0.029
G1 X65.282 Y71.214 E0.02897
G1 X66.008 Y70.9 E0.02898
G1 X66.763 Y70.66 E0.02903
G1 X67.537 Y70.499 E0.02897
G1 X68.324 Y70.416 E0.029
G1 X68.752 Y70.404 E0.01569
G1 X75.165 Y70.406 E0.23497
G1 X75.956 Y70.446 E0.02902
G1 X76.738 Y70.566 E0.02899
G1 X77.504 Y70.764 E0.02899
G1 X78.246 Y71.038 E0.02898
G1 X78.956 Y71.386 E0.02897
G1 X79.628 Y71.804 E0.029
G1 X79.88 Y71.999 E0.01167
G1 X80.209 Y71.767 E0.01475
G1 X80.879 Y71.347 E0.02897
G1 X81.387 Y71.087 E0.02091
G1 X81.719 Y70.932 E0.01342
G1 X82.452 Y70.634 E0.02899
G1 X83.007 Y70.463 E0.02128
G1 X83.362 Y70.368 E0.01346
G1 X84.136 Y70.202 E0.029
G1 X84.726 Y70.13 E0.02178
G1 X85.104 Y70.098 E0.0139
G1 X85.894 Y70.071 E0.02896
G1 X86.473 Y70.102 E0.02124
G1 X86.836 Y70.135 E0.01335
G1 X87.619 Y70.247 E0.02898
G1 X88.222 Y70.388 E0.02269
G1 X88.575 Y70.486 E0.01342
G1 X89.325 Y70.736 E0.02897
G1 X89.835 Y70.956 E0.02035
G1 X90.164 Y71.112 E0.01334
G1 X90.861 Y71.487 E0.029
G1 X91.342 Y71.803 E0.02109
G1 X91.642 Y72.016 E0.01348
G1 X92.263 Y72.506 E0.02898
G1 X92.646 Y72.863 E0.01918
G1 X92.895 Y73.112 E0.0129
G1 X93.425 Y73.699 E0.02898
G1 X93.773 Y74.159 E0.02113
G1 X93.983 Y74.459 E0.01342
G1 X94.403 Y75.129 E0.02897
G1 X94.663 Y75.637 E0.02091
G1 X94.818 Y75.969 E0.01342
G1 X95.116 Y76.702 E0.02899
G1 X95.285 Y77.252 E0.02108
G1 X95.38 Y77.606 E0.01343
G1 X95.547 Y78.379 E0.02898
G1 X95.62 Y78.975 E0.022
G1 X95.652 Y79.353 E0.0139
G1 X95.679 Y80.143 E0.02896
G1 X95.648 Y80.72 E0.02117
G1 X95.615 Y81.084 E0.01339
G1 X95.504 Y81.867 E0.02898
G1 X95.364 Y82.463 E0.02243
G1 X95.267 Y82.814 E0.01334
G1 X95.018 Y83.565 E0.02899
G1 X94.795 Y84.084 E0.0207
G1 X94.638 Y84.415 E0.01342
G1 X94.263 Y85.111 E0.02897
G1 X93.947 Y85.592 E0.02109
G1 X93.734 Y85.892 E0.01348
G1 X93.244 Y86.513 E0.02898
G1 X92.887 Y86.896 E0.01918
G1 X92.638 Y87.145 E0.0129
G1 X92.051 Y87.675 E0.02898
G1 X91.591 Y88.023 E0.02113
G1 X91.291 Y88.233 E0.01342
G1 X90.621 Y88.653 E0.02897
G1 X90.113 Y88.913 E0.02091
G1 X89.781 Y89.068 E0.01342
G1 X89.048 Y89.366 E0.02899
G1 X88.493 Y89.537 E0.02128
G1 X88.138 Y89.632 E0.01346
G1 X87.364 Y89.798 E0.029
G1 X86.774 Y89.87 E0.02178
G1 X86.396 Y89.902 E0.0139
G1 X85.606 Y89.929 E0.02896
G1 X85.027 Y89.898 E0.02124
G1 X84.664 Y89.865 E0.01335
G1 X83.881 Y89.753 E0.02898
G1 X83.278 Y89.612 E0.02269
G1 X82.925 Y89.514 E0.01342
G1 X82.175 Y89.264 E0.02897
G1 X81.664 Y89.044 E0.02038
G1 X81.333 Y88.887 E0.01342
G1 X80.637 Y88.512 E0.02897
G1 X80.15 Y88.192 E0.02135
G1 X79.884 Y88.003 E0.01196
G1 X79.688 Y88.157 E0.00913
G1 X79.02 Y88.581 E0.02899
G1 X78.313 Y88.936 E0.02899
G1 X77.574 Y89.217 E0.02897
G1 X76.809 Y89.422 E0.02902
G1 X76.028 Y89.549 E0.02899
G1 X75.164 Y89.597 E0.03171
G1 X68.75 Y89.597 E0.235
G1 X67.96 Y89.557 E0.02898
G1 X67.178 Y89.438 E0.02898
G1 X66.412 Y89.24 E0.02899
G1 X65.669 Y88.966 E0.02902
G1 X64.959 Y88.618 E0.02897
G1 X64.287 Y88.2 E0.029
G1 X63.66 Y87.717 E0.029
G1 X63.086 Y87.173 E0.02898
G1 X62.569 Y86.574 E0.02899
G1 X62.116 Y85.925 E0.029
G1 X61.73 Y85.235 E0.02897
G1 X61.416 Y84.509 E0.02898
G1 X61.176 Y83.754 E0.02903
G1 X61.015 Y82.98 E0.02897
G1 X60.932 Y82.193 E0.029
G1 X60.925 Y81.93 E0.00964
G1 X60.838 Y81.445 E0.01805
G1 X60.775 Y80.456 E0.03631
G1 X60.775 Y79.545 E0.03338
G1 X60.815 Y78.755 E0.02898
G1 X60.933 Y77.981 E0.02869
G1 X60.96 Y77.444 E0.0197
G1 X61.079 Y76.662 E0.02898
G1 X61.277 Y75.896 E0.02899
G1 X61.551 Y75.153 E0.02902
G1 X61.899 Y74.443 E0.02897
G1 X62.317 Y73.771 E0.029
G1 X62.8 Y73.144 E0.029
G1 X63.344 Y72.57 E0.02898
G0 F7200 X63.874 Y72.815
G1 F1800 X64.468 Y72.334 E0.028
G1 X65.108 Y71.919 E0.02795
G1 X65.788 Y71.573 E0.02795
G1 X66.501 Y71.299 E0.02799
G1 X67.239 Y71.102 E0.02799
G1 X67.993 Y70.983 E0.02797
G1 X68.752 Y70.944 E0.02785
G1 X75.165 Y70.946 E0.23497
G1 X75.928 Y70.986 E0.02799
G1 X76.682 Y71.106 E0.02797
G1 X77.419 Y71.304 E0.02796
G1 X78.131 Y71.578 E0.02795
G1 X78.812 Y71.925 E0.028
G1 X79.452 Y72.341 E0.02797
G1 X79.871 Y72.681 E0.01977
G1 X80.218 Y72.42 E0.01591
G1 X80.518 Y72.21 E0.01342
G1 X81.166 Y71.805 E0.028
G1 X81.615 Y71.576 E0.01847
G1 X81.947 Y71.421 E0.01342
G1 X82.655 Y71.135 E0.02798
G1 X83.146 Y70.985 E0.01881
G1 X83.501 Y70.89 E0.01346
G1 X84.248 Y70.731 E0.02798
G1 X84.771 Y70.668 E0.0193
G1 X85.149 Y70.636 E0.0139
G1 X85.912 Y70.612 E0.02797
G1 X86.424 Y70.64 E0.01879
G1 X86.787 Y70.673 E0.01335
G1 X87.543 Y70.782 E0.02799
G1 X88.077 Y70.909 E0.02011
G1 X88.43 Y71.007 E0.01342
G1 X89.154 Y71.249 E0.02797
G1 X89.603 Y71.444 E0.01794
G1 X89.932 Y71.6 E0.01334
G1 X90.604 Y71.963 E0.02798
G1 X91.029 Y72.243 E0.01865
G1 X91.329 Y72.456 E0.01348
G1 X91.928 Y72.93 E0.02799
G1 X92.264 Y73.245 E0.01687
G1 X92.513 Y73.494 E0.0129
G1 X93.024 Y74.062 E0.02799
G1 X93.33 Y74.468 E0.01863
G1 X93.54 Y74.768 E0.01342
G1 X93.945 Y75.416 E0.028
G1 X94.174 Y75.865 E0.01847
G1 X94.329 Y76.197 E0.01342
G1 X94.615 Y76.905 E0.02798
G1 X94.764 Y77.392 E0.01866
G1 X94.859 Y77.746 E0.01343
G1 X95.018 Y78.492 E0.02795
G1 X95.082 Y79.02 E0.01949
G1 X95.114 Y79.398 E0.0139
G1 X95.138 Y80.161 E0.02797
G1 X95.11 Y80.671 E0.01871
G1 X95.077 Y81.035 E0.01339
G1 X94.969 Y81.791 E0.02798
G1 X94.844 Y82.319 E0.01988
G1 X94.747 Y82.67 E0.01334
G1 X94.505 Y83.394 E0.02797
G1 X94.307 Y83.852 E0.01828
G1 X94.15 Y84.183 E0.01342
G1 X93.787 Y84.855 E0.02798
G1 X93.507 Y85.279 E0.01862
G1 X93.294 Y85.579 E0.01348
G1 X92.82 Y86.178 E0.02799
G1 X92.505 Y86.514 E0.01687
G1 X92.256 Y86.763 E0.0129
G1 X91.688 Y87.274 E0.02799
G1 X91.282 Y87.58 E0.01863
G1 X90.982 Y87.79 E0.01342
G1 X90.334 Y88.195 E0.028
G1 X89.885 Y88.424 E0.01847
G1 X89.553 Y88.579 E0.01342
G1 X88.845 Y88.865 E0.02798
G1 X88.354 Y89.015 E0.01881
G1 X87.999 Y89.11 E0.01346
G1 X87.252 Y89.269 E0.02798
G1 X86.729 Y89.332 E0.0193
G1 X86.351 Y89.364 E0.0139
G1 X85.588 Y89.388 E0.02797
G1 X85.076 Y89.36 E0.01879
G1 X84.713 Y89.327 E0.01335
G1 X83.957 Y89.218 E0.02799
G1 X83.423 Y89.091 E0.02011
G1 X83.07 Y88.993 E0.01342
G1 X82.346 Y88.751 E0.02797
G1 X81.896 Y88.556 E0.01797
G1 X81.565 Y88.399 E0.01342
G1 X80.893 Y88.036 E0.02798
G1 X80.463 Y87.752 E0.01888
G1 X80.165 Y87.54 E0.0134
G1 X79.882 Y87.315 E0.01325
G1 X79.75 Y87.434 E0.00651
G1 X79.132 Y87.882 E0.02797
G1 X78.471 Y88.264 E0.02797
G1 X77.774 Y88.574 E0.02795
G1 X77.047 Y88.81 E0.02801
G1 X76.301 Y88.968 E0.02794
G1 X75.164 Y89.057 E0.04179
G1 X68.75 Y89.057 E0.235
G1 X67.988 Y89.017 E0.02796
G1 X67.234 Y88.898 E0.02797
G1 X66.496 Y88.7 E0.028
G1 X65.784 Y88.426 E0.02795
G1 X65.103 Y88.079 E0.028
G1 X64.463 Y87.663 E0.02797
G1 X63.87 Y87.183 E0.02795
G1 X63.331 Y86.643 E0.02795
G1 X62.85 Y86.049 E0.028
G1 X62.435 Y85.409 E0.02795
G1 X62.089 Y84.729 E0.02795
G1 X61.815 Y84.016 E0.02799
G1 X61.618 Y83.278 E0.02799
G1 X61.499 Y82.524 E0.02797
G1 X61.467 Y81.902 E0.02282
G1 X61.367 Y81.323 E0.02153
G1 X61.315 Y80.456 E0.03182
G1 X61.315 Y79.545 E0.03338
G1 X61.355 Y78.783 E0.02796
G1 X61.469 Y78.06 E0.02682
G1 X61.5 Y77.472 E0.02157
G1 X61.619 Y76.718 E0.02797
G1 X61.817 Y75.98 E0.028
G1 X62.091 Y75.268 E0.02795
G1 X62.438 Y74.587 E0.028
G1 X62.854 Y73.947 E0.02797
G1 X63.334 Y73.354 E0.02795
G1 X63.874 Y72.815 E0.02795
G0 F7200 X64.403 Y73.07
G1 F1800 X64.99 Y72.628 E0.02692
G1 X65.621 Y72.253 E0.02689
G1 X66.289 Y71.948 E0.02691
G1 X66.987 Y71.718 E0.02693
G1 X67.706 Y71.565 E0.02693
G1 X68.752 Y71.484 E0.03844
G1 X75.165 Y71.486 E0.23497
G1 X75.899 Y71.526 E0.02693
G1 X76.623 Y71.646 E0.02689
G1 X77.331 Y71.844 E0.02694
G1 X78.013 Y72.117 E0.02692
G1 X78.661 Y72.463 E0.02691
G1 X79.267 Y72.877 E0.02689
G1 X79.825 Y73.355 E0.02692
G1 X79.869 Y73.402 E0.00236
G1 X80.173 Y73.129 E0.01497
G1 X80.528 Y72.862 E0.01628
G1 X80.828 Y72.652 E0.01342
G1 X81.452 Y72.264 E0.02692
G1 X81.844 Y72.066 E0.01609
G1 X82.176 Y71.911 E0.01342
G1 X82.857 Y71.637 E0.0269
G1 X83.286 Y71.506 E0.01643
G1 X83.641 Y71.411 E0.01346
G1 X84.36 Y71.26 E0.02692
G1 X84.817 Y71.206 E0.01686
G1 X85.195 Y71.174 E0.0139
G1 X85.929 Y71.152 E0.02691
G1 X86.375 Y71.178 E0.01637
G1 X86.738 Y71.211 E0.01335
G1 X87.465 Y71.317 E0.02692
G1 X87.933 Y71.429 E0.01763
G1 X88.286 Y71.527 E0.01342
G1 X88.982 Y71.762 E0.02692
G1 X89.372 Y71.932 E0.01559
G1 X89.701 Y72.088 E0.01334
G1 X90.347 Y72.438 E0.02692
G1 X90.717 Y72.683 E0.01626
G1 X91.017 Y72.896 E0.01348
G1 X91.592 Y73.353 E0.02691
G1 X91.882 Y73.627 E0.01462
G1 X92.131 Y73.876 E0.0129
G1 X92.621 Y74.423 E0.02691
G1 X92.888 Y74.778 E0.01628
G1 X93.098 Y75.078 E0.01342
G1 X93.486 Y75.702 E0.02692
G1 X93.684 Y76.094 E0.01609
G1 X93.839 Y76.426 E0.01342
G1 X94.113 Y77.107 E0.0269
G1 X94.242 Y77.531 E0.01624
G1 X94.337 Y77.885 E0.01343
G1 X94.489 Y78.604 E0.02693
G1 X94.544 Y79.066 E0.01705
G1 X94.576 Y79.444 E0.0139
G1 X94.598 Y80.178 E0.02691
G1 X94.572 Y80.622 E0.0163
G1 X94.539 Y80.986 E0.01339
G1 X94.433 Y81.713 E0.02692
G1 X94.323 Y82.175 E0.0174
G1 X94.226 Y82.526 E0.01334
G1 X93.992 Y83.222 E0.0269
G1 X93.819 Y83.621 E0.01593
G1 X93.662 Y83.952 E0.01342
G1 X93.311 Y84.597 E0.02691
G1 X93.067 Y84.967 E0.01624
G1 X92.854 Y85.267 E0.01348
G1 X92.397 Y85.842 E0.02691
G1 X92.123 Y86.132 E0.01462
G1 X91.874 Y86.381 E0.0129
G1 X91.327 Y86.871 E0.02691
G1 X90.972 Y87.138 E0.01628
G1 X90.672 Y87.348 E0.01342
G1 X90.048 Y87.736 E0.02692
G1 X89.656 Y87.934 E0.01609
G1 X89.324 Y88.089 E0.01342
G1 X88.643 Y88.363 E0.0269
G1 X88.214 Y88.494 E0.01643
G1 X87.859 Y88.589 E0.01346
G1 X87.14 Y88.74 E0.02692
G1 X86.683 Y88.794 E0.01686
G1 X86.305 Y88.826 E0.0139
G1 X85.571 Y88.848 E0.02691
G1 X85.125 Y88.822 E0.01637
G1 X84.762 Y88.789 E0.01335
G1 X84.035 Y88.683 E0.02692
G1 X83.567 Y88.571 E0.01763
G1 X83.214 Y88.473 E0.01342
G1 X82.518 Y88.238 E0.02692
G1 X82.127 Y88.068 E0.01562
G1 X81.796 Y87.911 E0.01342
G1 X81.151 Y87.56 E0.02691
G1 X80.776 Y87.312 E0.01647
G1 X80.478 Y87.1 E0.0134
G1 X79.863 Y86.603 E0.02897
G1 X79.756 Y86.714 E0.00565
G1 X79.191 Y87.184 E0.02693
G1 X78.579 Y87.59 E0.02691
G1 X77.926 Y87.926 E0.02691
G1 X77.24 Y88.19 E0.02693
G1 X76.53 Y88.377 E0.0269
G1 X75.803 Y88.487 E0.02694
G1 X75.164 Y88.517 E0.02344
G1 X68.75 Y88.517 E0.235
G1 X68.017 Y88.477 E0.0269
G1 X67.292 Y88.358 E0.02692
G1 X66.584 Y88.16 E0.02694
G1 X65.902 Y87.887 E0.02692
G1 X65.254 Y87.541 E0.02691
G1 X64.647 Y87.127 E0.02692
G1 X64.089 Y86.65 E0.0269
G1 X63.586 Y86.114 E0.02693
G1 X63.144 Y85.527 E0.02692
G1 X62.769 Y84.896 E0.02689
G1 X62.464 Y84.228 E0.02691
G1 X62.234 Y83.53 E0.02693
G1 X62.081 Y82.811 E0.02693
G1 X62.008 Y81.866 E0.03473
G1 X61.897 Y81.204 E0.02459
G1 X61.855 Y80.456 E0.02745
G1 X61.855 Y79.545 E0.03338
G1 X61.895 Y78.812 E0.0269
G1 X62.005 Y78.142 E0.02488
G1 X62.04 Y77.501 E0.02352
G1 X62.159 Y76.776 E0.02692
G1 X62.357 Y76.068 E0.02694
G1 X62.63 Y75.386 E0.02692
G1 X62.976 Y74.738 E0.02691
G1 X63.39 Y74.131 E0.02692
G1 X63.867 Y73.573 E0.0269
G1 X64.403 Y73.07 E0.02693
G0 F7200 X64.929 Y73.338
G1 F1800 X65.509 Y72.937 E0.02584
G1 X66.129 Y72.604 E0.02579
G1 X66.784 Y72.343 E0.02583
G1 X67.464 Y72.159 E0.02581
G1 X68.16 Y72.052 E0.0258
G1 X68.752 Y72.024 E0.02171
G1 X75.165 Y72.026 E0.23497
G1 X75.868 Y72.066 E0.0258
G1 X76.563 Y72.186 E0.02584
G1 X77.239 Y72.383 E0.0258
G1 X77.889 Y72.656 E0.02583
G1 X78.503 Y73.001 E0.0258
G1 X79.075 Y73.413 E0.02583
G1 X79.596 Y73.887 E0.02581
G1 X79.842 Y74.167 E0.01366
G1 X80.008 Y74.001 E0.0086
G1 X80.534 Y73.532 E0.02582
G1 X80.838 Y73.305 E0.0139
G1 X81.138 Y73.095 E0.01342
G1 X81.737 Y72.724 E0.02582
G1 X82.072 Y72.555 E0.01375
G1 X82.404 Y72.4 E0.01342
G1 X83.058 Y72.139 E0.0258
G1 X83.426 Y72.028 E0.01408
G1 X83.781 Y71.933 E0.01346
G1 X84.471 Y71.79 E0.02582
G1 X84.862 Y71.744 E0.01442
G1 X85.24 Y71.712 E0.0139
G1 X85.944 Y71.693 E0.0258
G1 X86.326 Y71.716 E0.01402
G1 X86.689 Y71.749 E0.01335
G1 X87.386 Y71.852 E0.02581
G1 X87.788 Y71.949 E0.01515
G1 X88.141 Y72.047 E0.01342
G1 X88.808 Y72.274 E0.02581
G1 X89.141 Y72.42 E0.01332
G1 X89.47 Y72.576 E0.01334
G1 X90.088 Y72.913 E0.02579
G1 X90.404 Y73.123 E0.0139
G1 X90.704 Y73.336 E0.01348
G1 X91.5 Y74.009 E0.03819
G1 X91.749 Y74.258 E0.0129
G1 X92.218 Y74.784 E0.02582
G1 X92.445 Y75.088 E0.0139
G1 X92.655 Y75.388 E0.01342
G1 X93.026 Y75.987 E0.02582
G1 X93.195 Y76.322 E0.01375
G1 X93.35 Y76.654 E0.01342
G1 X93.611 Y77.308 E0.0258
G1 X93.721 Y77.671 E0.0139
G1 X93.816 Y78.025 E0.01343
G1 X93.959 Y78.715 E0.02582
G1 X94.006 Y79.111 E0.01461
G1 X94.038 Y79.489 E0.0139
G1 X94.057 Y80.193 E0.0258
G1 X94.035 Y80.574 E0.01398
G1 X94.002 Y80.938 E0.01339
G1 X93.898 Y81.635 E0.02582
G1 X93.803 Y82.031 E0.01492
G1 X93.706 Y82.382 E0.01334
G1 X93.48 Y83.05 E0.02584
G1 X93.331 Y83.389 E0.01357
G1 X93.174 Y83.72 E0.01342
G1 X92.836 Y84.339 E0.02584
G1 X92.627 Y84.654 E0.01385
G1 X92.414 Y84.954 E0.01348
G1 X91.741 Y85.75 E0.03819
G1 X91.492 Y85.999 E0.0129
G1 X90.966 Y86.468 E0.02582
G1 X90.662 Y86.695 E0.0139
G1 X90.362 Y86.905 E0.01342
G1 X89.763 Y87.276 E0.02582
G1 X89.428 Y87.445 E0.01375
G1 X89.096 Y87.6 E0.01342
G1 X88.442 Y87.861 E0.0258
G1 X88.074 Y87.972 E0.01408
G1 X87.719 Y88.067 E0.01346
G1 X87.029 Y88.21 E0.02582
G1 X86.638 Y88.256 E0.01442
G1 X86.26 Y88.288 E0.0139
G1 X85.556 Y88.307 E0.0258
G1 X85.174 Y88.284 E0.01402
G1 X84.811 Y88.251 E0.01335
G1 X84.114 Y88.148 E0.02581
G1 X83.712 Y88.051 E0.01515
G1 X83.359 Y87.953 E0.01342
G1 X82.692 Y87.726 E0.02581
G1 X82.359 Y87.58 E0.01332
G1 X82.028 Y87.423 E0.01342
G1 X81.409 Y87.085 E0.02584
G1 X81.089 Y86.872 E0.01408
G1 X80.791 Y86.66 E0.0134
G1 X80 Y85.991 E0.03796
G1 X79.844 Y85.835 E0.00808
G1 X79.704 Y86.004 E0.00804
G1 X79.195 Y86.491 E0.02581
G1 X78.634 Y86.917 E0.02581
G1 X78.028 Y87.277 E0.02583
G1 X77.386 Y87.566 E0.0258
G1 X76.715 Y87.78 E0.02581
G1 X76.023 Y87.917 E0.02585
G1 X75.164 Y87.977 E0.03155
G1 X68.75 Y87.977 E0.235
G1 X68.047 Y87.937 E0.0258
G1 X67.352 Y87.818 E0.02583
G1 X66.676 Y87.62 E0.02581
G1 X66.026 Y87.348 E0.02582
G1 X65.412 Y87.003 E0.0258
G1 X64.84 Y86.591 E0.02583
G1 X64.319 Y86.117 E0.02581
G1 X63.854 Y85.588 E0.02581
G1 X63.453 Y85.008 E0.02584
G1 X63.12 Y84.388 E0.02579
G1 X62.859 Y83.733 E0.02583
G1 X62.675 Y83.053 E0.02581
G1 X62.568 Y82.357 E0.0258
G1 X62.541 Y81.795 E0.02062
G1 X62.427 Y81.087 E0.02627
G1 X62.395 Y80.456 E0.02315
G1 X62.395 Y79.545 E0.03338
G1 X62.435 Y78.842 E0.0258
G1 X62.54 Y78.226 E0.0229
G1 X62.58 Y77.531 E0.02551
G1 X62.699 Y76.836 E0.02583
G1 X62.897 Y76.16 E0.02581
G1 X63.169 Y75.51 E0.02582
G1 X63.514 Y74.896 E0.0258
G1 X63.926 Y74.324 E0.02583
G1 X64.4 Y73.803 E0.02581
G1 X64.929 Y73.338 E0.02581
G0 F7200 X65.454 Y73.621
G1 F1800 X66.024 Y73.262 E0.02468
G1 X66.632 Y72.974 E0.02465
G1 X67.27 Y72.76 E0.02466
G1 X67.93 Y72.624 E0.02469
G1 X68.752 Y72.564 E0.0302
G1 X75.165 Y72.566 E0.23497
G1 X75.837 Y72.606 E0.02467
G1 X76.499 Y72.726 E0.02465
G1 X77.143 Y72.923 E0.02468
G1 X77.759 Y73.195 E0.02467
G1 X78.338 Y73.538 E0.02466
G1 X78.872 Y73.948 E0.02467
G1 X79.354 Y74.417 E0.02464
G1 X79.777 Y74.941 E0.02467
G1 X79.821 Y75.011 E0.00303
G1 X80.141 Y74.632 E0.01817
G1 X80.39 Y74.383 E0.0129
G1 X81.147 Y73.747 E0.03623
G1 X81.447 Y73.537 E0.01342
G1 X82.3 Y73.044 E0.0361
G1 X82.632 Y72.889 E0.01342
G1 X83.565 Y72.55 E0.03637
G1 X83.92 Y72.455 E0.01346
G1 X84.908 Y72.282 E0.03675
G1 X85.286 Y72.25 E0.0139
G1 X86.277 Y72.253 E0.03631
G1 X86.64 Y72.286 E0.01335
G1 X87.306 Y72.387 E0.02468
G1 X87.644 Y72.47 E0.01275
G1 X87.997 Y72.568 E0.01342
G1 X88.909 Y72.908 E0.03566
G1 X89.238 Y73.064 E0.01334
G1 X90.091 Y73.564 E0.03623
