;FLAVOR:RepRap
;TIME:3031
;Filament used: 2.89923m
;Layer height: 0.2
;MINX:43.61
;MINY:53.63
;MINZ:0.2
;MAXX:94.89
;MAXY:106.39
;MAXZ:27.2
;Generated with Cura_SteamEngine 5.2.1
T0


; Pre-Processed for Cancel-Object support by preprocess_cancellation v0.2.0
; 2 known objects
EXCLUDE_OBJECT_DEFINE NAME=Oculus_Rift_CV_1_Monitor_Mount_9mm_hole_stl_1 CENTER=58.719,68.807 POLYGON=[[48.7,58.701],[48.7,101.3],[68.3,101.3],[68.3,58.701]]
EXCLUDE_OBJECT_DEFINE NAME=Oculus_Rift_CV_1_Monitor_Mount_9mm_hole_stl CENTER=80.228,68.829 POLYGON=[[70.2,58.701],[70.2,101.3],[89.8,101.3],[89.8,58.701]]
M82 ;absolute extrusion mode
PRINT_START BED=60 EXTRUDER=220 STANDBY=175 CHAMBER=28
M83 ;relative extrusion mode
G1 F2100 E-0.4
;LAYER_COUNT:135
;LAYER:0
M107
G1 F600 Z0.4
G0 F7200 X50.985 Y56.635 Z0.4
;TYPE:SKIRT
G1 F600 Z0.2
G1 F840 E0.4
G1 F1800 X51.313 Y56.338 E0.01987
G1 X51.61 Y56.09 E0.01737
G1 X52.072 Y55.734 E0.02619
G1 X52.462 Y55.462 E0.02135
G1 X53.104 Y55.06 E0.03401
G1 X53.61 Y54.784 E0.02588
G1 X53.974 Y54.612 E0.01808
G1 X54.323 Y54.463 E0.01704
G1 X54.906 Y54.241 E0.02801
G1 X55.369 Y54.091 E0.02185
G1 X56.064 Y53.903 E0.03233
G1 X56.617 Y53.787 E0.02537
G1 X57.031 Y53.725 E0.0188
G1 X57.414 Y53.683 E0.0173
G1 X58.029 Y53.64 E0.02768
G1 X58.509 Y53.63 E0.02156
G1 X59.21 Y53.65 E0.03149
G1 X59.519 Y53.669 E0.0139
G1 X60.48 Y53.757 E0.04333
G1 X63.204 Y53.97 E0.12268
G1 X65.895 Y54.103 E0.12098
G1 X68.588 Y54.161 E0.12095
G1 X71.279 Y54.142 E0.12083
G1 X73.975 Y54.047 E0.12113
G1 X76.637 Y53.878 E0.11977
G1 X78.326 Y53.724 E0.07615
G1 X79.533 Y53.64 E0.05433
G1 X80.008 Y53.63 E0.02133
G1 X80.609 Y53.647 E0.027
G1 X81.079 Y53.683 E0.02117
G1 X81.638 Y53.753 E0.0253
G1 X82.129 Y53.84 E0.02239
G1 X82.84 Y54.004 E0.03276
G1 X83.36 Y54.155 E0.02431
G1 X83.776 Y54.301 E0.0198
G1 X84.167 Y54.457 E0.0189
G1 X84.828 Y54.755 E0.03256
G1 X85.313 Y55.008 E0.02456
G1 X85.672 Y55.221 E0.01874
G1 X86.009 Y55.439 E0.01802
G1 X86.537 Y55.814 E0.02908
G1 X86.904 Y56.102 E0.02095
G1 X87.407 Y56.537 E0.02986
G1 X87.727 Y56.84 E0.01979
G1 X87.893 Y57.012 E0.01073
G1 X88.223 Y57.381 E0.02223
G1 X88.413 Y57.613 E0.01346
G1 X88.765 Y58.07 E0.0259
G1 X89.034 Y58.456 E0.02113
G1 X89.436 Y59.097 E0.03397
G1 X89.714 Y59.606 E0.02604
G1 X89.894 Y59.987 E0.01892
G1 X90.041 Y60.33 E0.01676
G1 X90.495 Y61.518 E0.05711
G1 X91.49 Y64.018 E0.12082
G1 X92.546 Y66.469 E0.11983
G1 X93.882 Y69.326 E0.14162
G1 X94.385 Y70.357 E0.05151
G1 X94.622 Y70.935 E0.02805
G1 X94.784 Y71.539 E0.02808
G1 X94.878 Y72.352 E0.03675
G1 X94.89 Y72.83 E0.02147
G1 X94.89 Y100.825 E1.25701
G1 X94.881 Y101.552 E0.03265
G1 X94.833 Y102.175 E0.02806
G1 X94.706 Y102.787 E0.02806
G1 X94.502 Y103.378 E0.02807
G1 X94.225 Y103.938 E0.02805
G1 X93.878 Y104.458 E0.02807
G1 X93.468 Y104.93 E0.02807
G1 X93 Y105.345 E0.02809
G1 X92.484 Y105.698 E0.02807
G1 X91.927 Y105.981 E0.02805
G1 X91.338 Y106.192 E0.02809
G1 X90.728 Y106.325 E0.02803
G1 X90.128 Y106.379 E0.02705
G1 X89.67 Y106.39 E0.02057
G1 X49.144 Y106.39 E1.81967
G1 X48.446 Y106.381 E0.03134
G1 X47.823 Y106.333 E0.02806
G1 X47.211 Y106.205 E0.02807
G1 X46.62 Y106.001 E0.02807
G1 X46.06 Y105.723 E0.02807
G1 X45.54 Y105.376 E0.02807
G1 X45.068 Y104.966 E0.02807
G1 X44.653 Y104.498 E0.02809
G1 X44.301 Y103.982 E0.02805
G1 X44.018 Y103.425 E0.02805
G1 X43.808 Y102.836 E0.02808
G1 X43.674 Y102.225 E0.02809
G1 X43.621 Y101.623 E0.02714
G1 X43.61 Y101.158 E0.02088
G1 X43.61 Y73.138 E1.25813
G1 X43.62 Y72.434 E0.03161
G1 X43.669 Y71.81 E0.0281
G1 X43.797 Y71.198 E0.02807
G1 X44.11 Y70.37 E0.03975
G1 X45.209 Y68.102 E0.11316
G1 X46.32 Y65.643 E0.12116
G1 X47.368 Y63.135 E0.12205
G1 X48.356 Y60.578 E0.12308
G1 X48.458 Y60.333 E0.01192
G1 X48.757 Y59.669 E0.0327
G1 X49.01 Y59.182 E0.02464
G1 X49.217 Y58.833 E0.01822
G1 X49.439 Y58.492 E0.01827
G1 X49.832 Y57.94 E0.03043
G1 X50.134 Y57.558 E0.02186
G1 X50.585 Y57.042 E0.03077
G1 X50.985 Y56.635 E0.02562
G0 F7200 X51.347 Y57.035
G1 F1800 X51.675 Y56.738 E0.01987
G1 X51.94 Y56.517 E0.01549
G1 X52.402 Y56.161 E0.02619
G1 X52.748 Y55.92 E0.01893
G1 X53.39 Y55.518 E0.03401
G1 X53.841 Y55.272 E0.02307
G1 X54.205 Y55.1 E0.01808
G1 X54.515 Y54.968 E0.01513
G1 X55.098 Y54.746 E0.02801
G1 X55.51 Y54.612 E0.01945
G1 X56.205 Y54.424 E0.03233
G1 X56.697 Y54.321 E0.02257
G1 X57.111 Y54.259 E0.0188
G1 X57.452 Y54.222 E0.0154
G1 X58.067 Y54.179 E0.02768
G1 X58.494 Y54.17 E0.01918
G1 X59.195 Y54.19 E0.03149
G1 X59.47 Y54.206 E0.01237
G1 X60.463 Y54.297 E0.04477
G1 X63.171 Y54.509 E0.12196
G1 X65.892 Y54.644 E0.12233
G1 X68.58 Y54.701 E0.12072
G1 X71.301 Y54.682 E0.12218
G1 X73.994 Y54.587 E0.12099
G1 X76.681 Y54.417 E0.12089
G1 X78.471 Y54.254 E0.08071
G1 X79.57 Y54.178 E0.04946
G1 X79.993 Y54.17 E0.019
G1 X80.594 Y54.187 E0.027
G1 X81.012 Y54.219 E0.01882
G1 X81.571 Y54.289 E0.0253
G1 X82.008 Y54.366 E0.01992
G1 X82.719 Y54.53 E0.03276
G1 X83.182 Y54.664 E0.02164
G1 X83.598 Y54.81 E0.0198
G1 X83.945 Y54.949 E0.01678
G1 X84.606 Y55.247 E0.03256
G1 X85.038 Y55.472 E0.02187
G1 X85.397 Y55.685 E0.01874
G1 X85.696 Y55.879 E0.016
G1 X86.224 Y56.254 E0.02908
G1 X86.55 Y56.511 E0.01864
G1 X87.053 Y56.946 E0.02986
G1 X87.338 Y57.215 E0.0176
G1 X87.651 Y57.547 E0.02049
G1 X87.985 Y57.943 E0.02326
G1 X88.337 Y58.4 E0.0259
G1 X88.576 Y58.743 E0.01877
G1 X88.978 Y59.384 E0.03397
G1 X89.226 Y59.837 E0.02319
G1 X89.406 Y60.218 E0.01892
G1 X89.536 Y60.523 E0.01489
G1 X89.969 Y61.655 E0.05442
G1 X90.994 Y64.231 E0.12449
G1 X92.063 Y66.71 E0.12122
G1 X93.391 Y69.55 E0.14077
G1 X93.9 Y70.594 E0.05215
G1 X94.122 Y71.14 E0.02647
G1 X94.268 Y71.711 E0.02646
G1 X94.338 Y72.369 E0.02971
G1 X94.35 Y72.83 E0.02071
G1 X94.35 Y100.818 E1.25669
G1 X94.341 Y101.545 E0.03265
G1 X94.293 Y102.133 E0.02649
G1 X94.167 Y102.708 E0.02643
G1 X93.964 Y103.262 E0.02649
G1 X93.688 Y103.783 E0.02647
G1 X93.344 Y104.262 E0.02648
G1 X92.939 Y104.69 E0.02646
G1 X92.479 Y105.059 E0.02648
G1 X91.974 Y105.363 E0.02647
G1 X91.432 Y105.595 E0.02647
G1 X90.864 Y105.753 E0.02647
G1 X90.113 Y105.839 E0.03394
G1 X89.67 Y105.85 E0.0199
G1 X49.151 Y105.85 E1.81935
G1 X48.453 Y105.841 E0.03134
G1 X47.865 Y105.793 E0.02649
G1 X47.289 Y105.667 E0.02647
G1 X46.736 Y105.463 E0.02647
G1 X46.215 Y105.187 E0.02647
G1 X45.736 Y104.843 E0.02648
G1 X45.309 Y104.437 E0.02646
G1 X44.94 Y103.977 E0.02648
G1 X44.636 Y103.472 E0.02647
G1 X44.404 Y102.93 E0.02647
G1 X44.247 Y102.362 E0.02646
G1 X44.161 Y101.609 E0.03403
G1 X44.15 Y101.158 E0.02026
G1 X44.15 Y73.145 E1.25782
G1 X44.16 Y72.441 E0.03161
G1 X44.209 Y71.854 E0.02645
G1 X44.336 Y71.278 E0.02648
G1 X44.595 Y70.606 E0.03234
G1 X45.704 Y68.317 E0.11421
G1 X46.827 Y65.83 E0.12253
G1 X47.853 Y63.376 E0.11943
G1 X48.859 Y60.773 E0.1253
G1 X49.25 Y59.891 E0.04332
G1 X49.475 Y59.458 E0.02191
G1 X49.682 Y59.109 E0.01822
G1 X49.879 Y58.805 E0.01627
G1 X50.272 Y58.253 E0.03043
G1 X50.541 Y57.913 E0.01947
G1 X50.992 Y57.397 E0.03077
G1 X51.347 Y57.035 E0.02277
G0 F7200 X51.71 Y57.436
G1 F1800 X52.038 Y57.139 E0.01987
G1 X52.269 Y56.945 E0.01354
G1 X52.731 Y56.589 E0.02619
G1 X53.035 Y56.378 E0.01662
G1 X53.677 Y55.976 E0.03401
G1 X54.071 Y55.76 E0.02018
G1 X54.435 Y55.588 E0.01808
G1 X54.707 Y55.472 E0.01328
G1 X55.29 Y55.25 E0.02801
G1 X55.651 Y55.133 E0.01704
G1 X56.346 Y54.945 E0.03233
G1 X56.777 Y54.855 E0.01977
G1 X57.191 Y54.793 E0.0188
G1 X57.489 Y54.76 E0.01346
G1 X58.104 Y54.717 E0.02768
G1 X58.479 Y54.71 E0.01684
G1 X59.18 Y54.73 E0.03149
G1 X59.42 Y54.744 E0.01079
G1 X60.43 Y54.837 E0.04554
G1 X63.136 Y55.048 E0.12187
G1 X65.855 Y55.183 E0.12224
G1 X68.572 Y55.241 E0.12202
G1 X71.289 Y55.222 E0.122
G1 X74.047 Y55.125 E0.12391
G1 X76.729 Y54.955 E0.12067
G1 X78.508 Y54.793 E0.08021
G1 X79.607 Y54.717 E0.04946
G1 X79.978 Y54.71 E0.01666
G1 X80.579 Y54.727 E0.027
G1 X80.944 Y54.755 E0.01644
G1 X81.503 Y54.825 E0.0253
G1 X81.886 Y54.892 E0.01746
G1 X82.597 Y55.056 E0.03276
G1 X83.003 Y55.174 E0.01898
G1 X83.419 Y55.32 E0.0198
G1 X83.723 Y55.442 E0.01471
G1 X84.384 Y55.74 E0.03256
G1 X84.762 Y55.936 E0.01912
G1 X85.121 Y56.149 E0.01874
G1 X85.383 Y56.32 E0.01405
G1 X85.911 Y56.695 E0.02908
G1 X86.197 Y56.919 E0.01631
G1 X86.7 Y57.354 E0.02986
G1 X86.949 Y57.59 E0.0154
G1 X87.244 Y57.902 E0.01928
G1 X87.557 Y58.272 E0.02176
G1 X87.909 Y58.729 E0.0259
G1 X88.119 Y59.03 E0.01648
G1 X88.521 Y59.671 E0.03397
G1 X88.738 Y60.067 E0.02028
G1 X88.918 Y60.448 E0.01892
G1 X89.032 Y60.716 E0.01308
G1 X89.467 Y61.855 E0.05475
G1 X90.493 Y64.432 E0.12454
G1 X91.574 Y66.939 E0.12259
G1 X92.89 Y69.756 E0.13961
G1 X93.414 Y70.83 E0.05366
G1 X93.62 Y71.342 E0.02478
G1 X93.749 Y71.879 E0.0248
G1 X93.798 Y72.385 E0.02283
G1 X93.81 Y72.83 E0.01999
G1 X93.81 Y100.811 E1.25638
G1 X93.801 Y101.538 E0.03265
G1 X93.754 Y102.088 E0.02479
G1 X93.628 Y102.625 E0.02477
G1 X93.426 Y103.139 E0.0248
G1 X93.152 Y103.617 E0.02474
G1 X92.812 Y104.052 E0.02479
G1 X92.413 Y104.432 E0.02474
G1 X91.962 Y104.751 E0.0248
G1 X91.471 Y105.002 E0.02476
G1 X90.948 Y105.179 E0.02479
G1 X90.406 Y105.278 E0.02474
G1 X90.098 Y105.3 E0.01386
G1 X89.777 Y105.309 E0.01442
G1 X49.158 Y105.31 E1.82384
G1 X48.46 Y105.301 E0.03134
G1 X47.91 Y105.254 E0.02479
G1 X47.373 Y105.128 E0.02477
G1 X46.86 Y104.926 E0.02476
G1 X46.381 Y104.651 E0.0248
G1 X45.947 Y104.311 E0.02476
G1 X45.566 Y103.911 E0.0248
G1 X45.248 Y103.461 E0.02474
G1 X44.997 Y102.969 E0.0248
G1 X44.821 Y102.446 E0.02478
G1 X44.721 Y101.904 E0.02475
G1 X44.7 Y101.594 E0.01395
G1 X44.691 Y101.261 E0.01496
G1 X44.69 Y73.153 E1.26208
G1 X44.7 Y72.449 E0.03161
G1 X44.748 Y71.899 E0.02479
G1 X44.875 Y71.362 E0.02478
G1 X45.081 Y70.841 E0.02516
G1 X46.207 Y68.518 E0.11591
G1 X47.314 Y66.065 E0.12084
G1 X48.359 Y63.566 E0.12162
G1 X49.363 Y60.968 E0.12506
G1 X49.742 Y60.113 E0.04199
G1 X49.939 Y59.733 E0.01922
G1 X50.146 Y59.384 E0.01822
G1 X50.319 Y59.118 E0.01425
G1 X50.712 Y58.566 E0.03043
G1 X50.947 Y58.269 E0.01701
G1 X51.398 Y57.753 E0.03077
G1 X51.71 Y57.436 E0.01997
G0 F7200 X52.072 Y57.836
G1 F1800 X52.4 Y57.539 E0.01987
G1 X52.599 Y57.373 E0.01164
G1 X53.061 Y57.017 E0.02619
G1 X53.322 Y56.836 E0.01426
G1 X53.964 Y56.434 E0.03401
G1 X54.302 Y56.248 E0.01732
G1 X54.666 Y56.076 E0.01808
G1 X54.899 Y55.977 E0.01137
G1 X55.482 Y55.755 E0.02801
G1 X55.792 Y55.654 E0.01464
G1 X56.487 Y55.466 E0.03233
G1 X56.857 Y55.389 E0.01697
G1 X57.271 Y55.327 E0.0188
G1 X57.527 Y55.299 E0.01156
G1 X58.142 Y55.256 E0.02768
G1 X58.463 Y55.249 E0.01442
G1 X59.164 Y55.269 E0.03149
G1 X60.352 Y55.372 E0.05354
G1 X63.103 Y55.587 E0.1239
G1 X65.852 Y55.723 E0.12358
G1 X68.564 Y55.781 E0.1218
G1 X71.312 Y55.762 E0.12339
G1 X74.064 Y55.665 E0.12364
G1 X76.779 Y55.493 E0.12215
G1 X78.545 Y55.332 E0.07962
G1 X79.644 Y55.256 E0.04946
G1 X79.962 Y55.249 E0.01428
G1 X80.563 Y55.266 E0.027
G1 X80.877 Y55.29 E0.01414
G1 X81.436 Y55.36 E0.0253
G1 X81.765 Y55.419 E0.01501
G1 X82.476 Y55.583 E0.03276
G1 X82.824 Y55.684 E0.01627
G1 X83.24 Y55.83 E0.0198
G1 X83.501 Y55.934 E0.01262
G1 X84.162 Y56.232 E0.03256
G1 X84.487 Y56.401 E0.01645
G1 X84.846 Y56.614 E0.01874
G1 X85.07 Y56.76 E0.01201
G1 X85.598 Y57.135 E0.02908
G1 X85.844 Y57.328 E0.01404
G1 X86.347 Y57.763 E0.02986
G1 X86.561 Y57.965 E0.01321
G1 X86.727 Y58.137 E0.01073
G1 X87.002 Y58.446 E0.01857
G1 X87.482 Y59.059 E0.03496
G1 X87.661 Y59.317 E0.0141
G1 X88.063 Y59.958 E0.03397
G1 X88.25 Y60.298 E0.01742
G1 X88.43 Y60.679 E0.01892
G1 X88.528 Y60.909 E0.01123
G1 X88.982 Y62.097 E0.05711
G1 X89.986 Y64.62 E0.12193
G1 X91.083 Y67.165 E0.12444
G1 X92.405 Y69.993 E0.14017
G1 X92.929 Y71.067 E0.05366
G1 X93.116 Y71.543 E0.02296
G1 X93.228 Y72.041 E0.02292
G1 X93.258 Y72.402 E0.01627
G1 X93.27 Y72.83 E0.01923
G1 X93.27 Y100.804 E1.25607
G1 X93.261 Y101.531 E0.03265
G1 X93.215 Y102.04 E0.02295
G1 X93.09 Y102.536 E0.02297
G1 X92.889 Y103.006 E0.02295
G1 X92.617 Y103.439 E0.02296
G1 X92.282 Y103.825 E0.02295
G1 X91.89 Y104.153 E0.02295
G1 X91.452 Y104.416 E0.02294
G1 X90.979 Y104.608 E0.02292
G1 X90.481 Y104.724 E0.02296
G1 X90.083 Y104.76 E0.01794
G1 X89.762 Y104.769 E0.01442
G1 X49.165 Y104.77 E1.82285
G1 X48.467 Y104.761 E0.03134
G1 X47.958 Y104.714 E0.02295
G1 X47.462 Y104.589 E0.02297
G1 X46.992 Y104.388 E0.02295
G1 X46.56 Y104.116 E0.02292
G1 X46.174 Y103.781 E0.02295
G1 X45.846 Y103.389 E0.02295
G1 X45.583 Y102.951 E0.02294
G1 X45.391 Y102.477 E0.02296
G1 X45.276 Y101.979 E0.02295
G1 X45.24 Y101.579 E0.01803
G1 X45.231 Y101.246 E0.01496
G1 X45.23 Y73.161 E1.26105
G1 X45.24 Y72.457 E0.03161
G1 X45.288 Y71.948 E0.02296
G1 X45.413 Y71.452 E0.02297
G1 X45.567 Y71.077 E0.0182
G1 X46.688 Y68.764 E0.11541
G1 X47.808 Y66.283 E0.12222
G1 X48.865 Y63.756 E0.12299
G1 X49.935 Y60.998 E0.13283
G1 X50.234 Y60.334 E0.0327
G1 X50.404 Y60.009 E0.01647
G1 X50.611 Y59.66 E0.01822
G1 X50.759 Y59.431 E0.01224
G1 X51.152 Y58.879 E0.03043
G1 X51.354 Y58.624 E0.01461
G1 X51.805 Y58.108 E0.03077
G1 X52.072 Y57.836 E0.01711
G1 F2100 E-0.4
G1 F600 Z0.4
;MESH:Oculus_Rift_CV_1_Monitor_Mount_9mm_hole.stl(1)
EXCLUDE_OBJECT_START NAME=Oculus_Rift_CV_1_Monitor_Mount_9mm_hole_stl_1
G0 F7200 X53.02 Y72.999 Z0.4
;TYPE:WALL-INNER
G1 F600 Z0.2
G1 F840 E0.4
G1 F1800 X52.96 Y73.055 E0.00328
G1 X52.881 Y73.112 E0.00389
G1 X52.734 Y73.182 E0.0065
G1 X52.63 Y73.209 E0.00429
G1 X52.5 Y73.22 E0.00521
G1 X49.22 Y73.22 E0.13091
G1 X49.22 Y100.78 E1.09998
G1 X67.78 Y100.78 E0.74077
G1 X67.78 Y76.498 E0.96915
G1 X67.78 Y73.22 E0.13083
G1 X64.502 Y73.22 E0.13083
G1 X64.372 Y73.209 E0.00521
G1 X64.268 Y73.182 E0.00429
G1 X64.121 Y73.112 E0.0065
G1 X64.042 Y73.055 E0.00389
G1 X63.982 Y72.999 E0.00328
G1 X63.914 Y72.917 E0.00425
G1 X63.83 Y72.762 E0.00704
G1 X63.801 Y72.667 E0.00396
G1 X63.783 Y72.551 E0.00469
G1 X63.781 Y67.763 E0.1911
G1 F1605.9 X63.723 Y66.352 E0.06317
G1 F1266.9 X63.637 Y66.088 E0.01575
G1 X63.476 Y66.293 E0.01478
G1 F1605.9 X62.785 Y67.524 E0.06315
G1 F1800 X62.653 Y67.707 E0.00901
G1 X61.656 Y68.702 E0.05622
G1 X61.474 Y68.835 E0.009
G1 X60.217 Y69.475 E0.0563
G1 X60.052 Y69.535 E0.00701
G1 X58.551 Y69.772 E0.06065
G1 X58.45 Y69.772 E0.00403
G1 X56.947 Y69.535 E0.06073
G1 X56.783 Y69.475 E0.00697
G1 X55.526 Y68.835 E0.0563
G1 X55.343 Y68.703 E0.00901
G1 X54.347 Y67.707 E0.05622
G1 X54.215 Y67.524 E0.00901
G1 F1621 X53.527 Y66.292 E0.06254
G1 F1278.1 X53.364 Y66.074 E0.0153
G1 X53.274 Y66.352 E0.01642
G1 F1621 X53.22 Y67.762 E0.06254
G1 F1800 X53.219 Y72.551 E0.19114
G1 X53.201 Y72.666 E0.00465
G1 X53.172 Y72.761 E0.00396
G1 X53.088 Y72.917 E0.00707
G1 X53.02 Y72.999 E0.00425
G0 F7200 X52.654 Y72.685
;TYPE:WALL-OUTER
G1 F1800 X52.606 Y72.716 E0.00228
G1 X52.544 Y72.737 E0.00261
G1 X48.74 Y72.74 E0.15183
G1 X48.74 Y101.26 E1.13829
G1 X68.26 Y101.26 E0.77909
G1 X68.26 Y76.498 E0.9883
G1 X68.26 Y72.74 E0.14999
G1 X64.458 Y72.737 E0.15175
G1 X64.396 Y72.716 E0.00261
G1 X64.328 Y72.667 E0.00335
G1 X64.286 Y72.607 E0.00292
G1 X64.262 Y72.517 E0.00372
G1 X64.26 Y64.495 E0.32018
G1 X64.231 Y63.941 E0.02214
G1 X64.149 Y63.376 E0.02279
G1 X64.014 Y62.842 E0.02198
G1 X63.82 Y62.296 E0.02313
G1 X63.581 Y61.79 E0.02234
G1 X63.288 Y61.302 E0.02272
G1 X62.959 Y60.854 E0.02218
G1 X62.575 Y60.428 E0.02289
G1 X62.15 Y60.044 E0.02286
G1 X61.697 Y59.712 E0.02242
G1 X61.218 Y59.423 E0.02233
G1 X60.702 Y59.18 E0.02276
G1 X60.162 Y58.987 E0.02289
G1 X59.622 Y58.852 E0.02222
G1 X59.062 Y58.769 E0.02259
G1 X58.505 Y58.741 E0.02226
G1 X57.938 Y58.769 E0.02266
G1 X57.378 Y58.851 E0.02259
G1 X56.847 Y58.985 E0.02186
G1 X56.298 Y59.18 E0.02325
G1 X55.79 Y59.419 E0.02241
G1 X55.303 Y59.712 E0.02268
G1 X54.854 Y60.041 E0.02222
G1 X54.425 Y60.427 E0.02303
G1 X54.047 Y60.847 E0.02255
G1 X53.711 Y61.303 E0.02261
G1 X53.424 Y61.782 E0.02229
G1 X53.18 Y62.298 E0.02278
G1 X52.987 Y62.838 E0.02289
G1 X52.852 Y63.379 E0.02225
G1 X52.769 Y63.938 E0.02256
G1 X52.74 Y64.506 E0.0227
G1 X52.74 Y72.517 E0.31974
G1 X52.716 Y72.607 E0.00372
G1 X52.654 Y72.685 E0.00398
G0 F7200 X52.606 Y72.716
G0 X52.544 Y72.737
G0 X52.466 Y72.737
G0 X52.466 Y73.36
G0 X52.928 Y72.928
G0 X53.307 Y65.356
G0 X53.76 Y64.588
G1 F1800 X53.76 Y64.512 E0.00303
G1 X53.99 Y63.079 E0.05793
G1 X54.663 Y61.76 E0.0591
G1 X55.71 Y60.713 E0.0591
G1 X57.029 Y60.04 E0.0591
