;FLAVOR:RepRap
;TIME:10358
;Filament used: 14.9991m
;Layer height: 0.2
;MINX:40.7
;MINY:26.619
;MINZ:0.2
;MAXX:119.3
;MAXY:133.38
;MAXZ:30.2
;Generated with Cura_SteamEngine 5.2.1
T0


; Pre-Processed for Cancel-Object support by preprocess_cancellation v0.2.0
; 1 known objects
EXCLUDE_OBJECT_DEFINE NAME=Powerful_Kup_Allis_stl CENTER=79.050,79.386 POLYGON=[[40.7,26.619],[40.7,133.38],[119.3,133.38],[119.3,26.619]]
M82 ;absolute extrusion mode
PRINT_START BED=60 EXTRUDER=220 STANDBY=175 CHAMBER=28
M83 ;relative extrusion mode
G1 F2100 E-0.4
;LAYER_COUNT:150
;LAYER:0
M107
G1 F600 Z0.4
G0 F7200 X48.284 Y43.921 Z0.4
;TYPE:SKIRT
G1 F600 Z0.2
G1 F840 E0.4
G1 F1800 X48.692 Y43.55 E0.02476
G1 X49.142 Y43.246 E0.02438
G1 X49.849 Y42.838 E0.03665
G1 X50.345 Y42.598 E0.02474
G1 X51.007 Y42.402 E0.031
G1 X52.44 Y42.116 E0.06561
G1 X106.225 Y32.585 E2.45263
G1 X106.864 Y32.483 E0.02906
G1 X107.377 Y32.417 E0.02322
G1 X108.06 Y32.391 E0.03069
G1 X108.524 Y32.415 E0.02086
G1 X109.071 Y32.483 E0.02475
G1 X109.603 Y32.63 E0.02478
G1 X109.942 Y32.769 E0.01645
G1 X110.643 Y33.097 E0.03475
G1 X111.124 Y33.366 E0.02475
G1 X111.562 Y33.703 E0.02481
G1 X111.855 Y33.994 E0.01854
G1 X112.107 Y34.273 E0.01688
G1 X112.447 Y34.708 E0.02479
G1 X112.634 Y35.02 E0.01633
G1 X112.815 Y35.356 E0.01714
G1 X113.041 Y35.859 E0.02476
G1 X113.22 Y36.539 E0.03157
G1 X113.309 Y37.075 E0.0244
G1 X113.359 Y37.631 E0.02507
G1 X113.377 Y38.648 E0.04567
G1 X113.376 Y52.516 E0.62269
G1 X113.366 Y53.22 E0.03161
G1 X113.295 Y53.897 E0.03056
G1 X113.116 Y54.789 E0.04085
G1 X112.88 Y55.726 E0.04339
G1 X112.649 Y56.595 E0.04037
G1 X112.02 Y59.269 E0.12334
G1 X111.471 Y61.941 E0.12248
G1 X110.998 Y64.613 E0.12184
G1 X110.602 Y67.302 E0.12204
G1 X110.286 Y69.965 E0.12041
G1 X110.038 Y72.711 E0.1238
G1 X109.871 Y75.422 E0.12196
G1 X109.781 Y78.141 E0.12215
G1 X109.767 Y80.859 E0.12204
G1 X109.831 Y83.577 E0.12208
G1 X109.971 Y86.294 E0.12216
G1 X110.188 Y89.005 E0.12212
G1 X110.481 Y91.703 E0.12186
G1 X110.853 Y94.411 E0.12273
G1 X111.302 Y97.115 E0.12308
G1 X111.818 Y99.752 E0.12065
G1 X112.415 Y102.404 E0.12206
G1 X113.019 Y104.792 E0.1106
G1 X113.176 Y105.382 E0.02741
G1 X113.269 Y105.844 E0.02116
G1 X113.33 Y106.287 E0.02008
G1 X113.366 Y106.745 E0.02063
G1 X113.376 Y107.428 E0.03067
G1 X113.365 Y121.738 E0.64254
G1 X113.355 Y122.424 E0.03081
G1 X113.283 Y123.105 E0.03075
G1 X113.185 Y123.602 E0.02275
G1 X113.039 Y124.134 E0.02477
G1 X112.821 Y124.635 E0.02453
G1 X112.671 Y124.921 E0.0145
G1 X112.38 Y125.389 E0.02474
G1 X112.209 Y125.608 E0.01248
G1 X111.988 Y125.87 E0.01539
G1 X111.603 Y126.264 E0.02473
G1 X111.165 Y126.599 E0.02476
G1 X110.878 Y126.77 E0.015
G1 X110.254 Y127.105 E0.0318
G1 X109.75 Y127.33 E0.02478
G1 X109.219 Y127.48 E0.02478
G1 X108.78 Y127.544 E0.01992
G1 X108.144 Y127.599 E0.02866
G1 X107.593 Y127.606 E0.02474
G1 X107.227 Y127.567 E0.01653
G1 X105.956 Y127.368 E0.05776
G1 X52.118 Y117.826 E2.45506
G1 X51.388 Y117.686 E0.03338
G1 X50.918 Y117.565 E0.02179
G1 X50.371 Y117.386 E0.02584
G1 X49.669 Y117.075 E0.03448
G1 X49.248 Y116.835 E0.02176
G1 X48.79 Y116.528 E0.02476
G1 X48.328 Y116.101 E0.02825
G1 X47.939 Y115.677 E0.02584
G1 X47.596 Y115.244 E0.0248
G1 X47.385 Y114.895 E0.01831
G1 X47.251 Y114.644 E0.01278
G1 X47.027 Y114.14 E0.02476
G1 X46.888 Y113.657 E0.02257
G1 X46.721 Y112.886 E0.03542
G1 X46.636 Y112.145 E0.03349
G1 X46.624 Y111.445 E0.03144
G1 X46.624 Y87.45 E1.0774
G1 X46.634 Y86.752 E0.03134
G1 X46.778 Y84.089 E0.11975
G1 X46.855 Y81.322 E0.12429
G1 X46.855 Y78.603 E0.12209
G1 X46.778 Y75.903 E0.12128
G1 X46.64 Y73.401 E0.11251
G1 X46.624 Y72.642 E0.03409
G1 X46.624 Y48.579 E1.08046
G1 X46.635 Y47.869 E0.03188
G1 X46.69 Y47.282 E0.02647
G1 X46.738 Y47.003 E0.01271
G1 X46.861 Y46.408 E0.02728
G1 X47.013 Y45.878 E0.02476
G1 X47.241 Y45.375 E0.0248
G1 X47.477 Y44.995 E0.02009
G1 X47.934 Y44.348 E0.03557
G1 X48.284 Y43.921 E0.02479
G0 F7200 X48.702 Y44.266
G1 F1800 X49.086 Y43.929 E0.02294
G1 X49.412 Y43.714 E0.01753
G1 X50.119 Y43.306 E0.03665
G1 X50.58 Y43.086 E0.02294
G1 X51.113 Y42.931 E0.02492
G1 X52.534 Y42.648 E0.06506
G1 X106.364 Y33.11 E2.45468
G1 X106.933 Y33.019 E0.02587
G1 X107.446 Y32.953 E0.02322
G1 X108.032 Y32.93 E0.02633
G1 X108.496 Y32.954 E0.02086
G1 X109.003 Y33.021 E0.02296
G1 X109.713 Y33.258 E0.03361
G1 X110.414 Y33.586 E0.03475
G1 X110.858 Y33.838 E0.02292
G1 X111.258 Y34.157 E0.02297
G1 X111.455 Y34.356 E0.01257
G1 X111.707 Y34.635 E0.01688
G1 X112.019 Y35.04 E0.02296
G1 X112.159 Y35.276 E0.01232
G1 X112.34 Y35.612 E0.01714
G1 X112.546 Y36.08 E0.02296
G1 X112.687 Y36.627 E0.02536
G1 X112.776 Y37.163 E0.0244
G1 X112.819 Y37.64 E0.0215
G1 X112.837 Y38.648 E0.04527
G1 X112.836 Y52.508 E0.62233
G1 X112.826 Y53.212 E0.03161
G1 X112.765 Y53.793 E0.02623
G1 X112.592 Y54.658 E0.03961
G1 X112.358 Y55.587 E0.04302
G1 X112.123 Y56.472 E0.04111
G1 X111.494 Y59.143 E0.12321
G1 X110.939 Y61.844 E0.12381
G1 X110.468 Y64.512 E0.12165
G1 X110.067 Y67.23 E0.12336
G1 X109.747 Y69.921 E0.12168
G1 X109.5 Y72.666 E0.12375
G1 X109.331 Y75.407 E0.12331
G1 X109.241 Y78.121 E0.12193
G1 X109.227 Y80.869 E0.12339
G1 X109.291 Y83.582 E0.12185
G1 X109.433 Y86.329 E0.12351
G1 X109.652 Y89.07 E0.12347
G1 X109.945 Y91.768 E0.12186
G1 X110.32 Y94.502 E0.12391
G1 X110.767 Y97.195 E0.12257
G1 X111.292 Y99.875 E0.12262
G1 X111.892 Y102.542 E0.12274
G1 X112.495 Y104.925 E0.11037
G1 X112.654 Y105.521 E0.0277
G1 X112.734 Y105.918 E0.01818
G1 X112.795 Y106.361 E0.02008
G1 X112.826 Y106.754 E0.0177
G1 X112.836 Y107.428 E0.03027
G1 X112.825 Y121.73 E0.64218
G1 X112.815 Y122.416 E0.03081
G1 X112.753 Y123.001 E0.02641
G1 X112.655 Y123.498 E0.02275
G1 X112.517 Y123.99 E0.02294
G1 X112.343 Y124.384 E0.01934
G1 X112.193 Y124.67 E0.0145
G1 X111.797 Y125.259 E0.03187
G1 X111.576 Y125.521 E0.01539
G1 X111.216 Y125.885 E0.02299
G1 X110.623 Y126.294 E0.03235
G1 X109.999 Y126.629 E0.0318
G1 X109.531 Y126.835 E0.02296
G1 X109.037 Y126.965 E0.02294
G1 X108.734 Y127.006 E0.01373
G1 X108.098 Y127.061 E0.02866
G1 X107.587 Y127.065 E0.02295
G1 X107.31 Y127.034 E0.01252
G1 X106.05 Y126.836 E0.05727
G1 X52.169 Y117.286 E2.45703
G1 X51.489 Y117.156 E0.03109
G1 X51.086 Y117.052 E0.01869
G1 X50.539 Y116.873 E0.02584
G1 X49.937 Y116.606 E0.02957
G1 X49.516 Y116.366 E0.02176
G1 X49.093 Y116.079 E0.02295
G1 X48.725 Y115.736 E0.02259
G1 X48.336 Y115.312 E0.02584
G1 X48.021 Y114.909 E0.02297
G1 X47.861 Y114.641 E0.01401
G1 X47.727 Y114.39 E0.01278
G1 X47.523 Y113.922 E0.02292
G1 X47.416 Y113.542 E0.01773
G1 X47.249 Y112.771 E0.03542
G1 X47.175 Y112.136 E0.02871
G1 X47.164 Y111.502 E0.02847
G1 X47.164 Y87.458 E1.0796
G1 X47.174 Y86.76 E0.03134
G1 X47.318 Y84.097 E0.11975
G1 X47.395 Y81.337 E0.12398
G1 X47.395 Y78.623 E0.12186
G1 X47.316 Y75.859 E0.12416
G1 X47.179 Y73.372 E0.11184
G1 X47.164 Y72.642 E0.03278
G1 X47.164 Y48.587 E1.0801
G1 X47.175 Y47.877 E0.03188
G1 X47.222 Y47.374 E0.02268
G1 X47.293 Y46.975 E0.0182
G1 X47.389 Y46.519 E0.02092
G1 X47.533 Y46.029 E0.02293
G1 X47.752 Y45.567 E0.02296
G1 X47.918 Y45.306 E0.01389
G1 X48.375 Y44.659 E0.03557
G1 X48.702 Y44.266 E0.02296
G1 F2100 E-0.4
G1 F600 Z0.4
;MESH:Powerful Kup-Allis.stl
EXCLUDE_OBJECT_START NAME=Powerful_Kup_Allis_stl
G0 F7200 X104.818 Y56.722 Z0.4
;TYPE:WALL-INNER
G1 F600 Z0.2
G1 F840 E0.4
G1 F1800 X104.883 Y56.633 E0.0044
G1 X105.513 Y55.903 E0.03849
G1 X105.577 Y55.838 E0.00364
G1 X106.417 Y55.186 E0.04244
G1 X106.516 Y55.122 E0.00471
G1 X107.02 Y54.85 E0.02286
G1 X107.851 Y54.497 E0.03604
G1 X108.31 Y54.192 E0.022
G1 X108.649 Y53.802 E0.02062
G1 X108.739 Y53.633 E0.00764
G1 X108.846 Y53.116 E0.02107
G1 X108.846 Y37.896 E0.60746
G1 X108.846 Y37.809 E0.00347
G1 X108.767 Y37.369 E0.01784
G1 X108.697 Y37.235 E0.00603
G1 X108.613 Y37.137 E0.00515
G1 X108.165 Y36.921 E0.01985
G1 X107.906 Y36.903 E0.01036
G1 X107.704 Y36.925 E0.00811
G1 X52.247 Y46.752 E2.24789
G1 X52.011 Y46.812 E0.00972
G1 X51.528 Y47.096 E0.02236
G1 X51.258 Y47.476 E0.01861
G1 X51.154 Y48.004 E0.02148
G1 X51.156 Y73.092 E1.00132
G1 X51.493 Y73.975 E0.03772
G1 X51.785 Y74.267 E0.01648
G1 X52.125 Y74.483 E0.01608
G1 X52.537 Y74.658 E0.01787
G1 X53.491 Y75.127 E0.04243
G1 X53.621 Y75.209 E0.00613
G1 X54.448 Y75.864 E0.04211
G1 X54.528 Y75.938 E0.00435
G1 X55.265 Y76.834 E0.0463
G1 X55.302 Y76.894 E0.00281
G1 X55.817 Y77.892 E0.04482
G1 X55.842 Y77.955 E0.00271
G1 X56.139 Y79.038 E0.04482
G1 X56.155 Y79.131 E0.00377
G1 X56.214 Y79.985 E0.03417
G1 X56.089 Y81.189 E0.04831
G1 X55.843 Y82.039 E0.03532
G1 X55.816 Y82.108 E0.00296
G1 X55.264 Y83.164 E0.04756
G1 X54.527 Y84.06 E0.0463
G1 X54.447 Y84.135 E0.00438
G1 X53.62 Y84.79 E0.04211
G1 X53.491 Y84.871 E0.00608
G1 X52.537 Y85.341 E0.04245
G1 X52.137 Y85.509 E0.01732
G1 X51.705 Y85.797 E0.02072
G1 X51.307 Y86.284 E0.0251
G1 X51.197 Y86.551 E0.01153
G1 X51.155 Y86.858 E0.01237
G1 X51.154 Y112.005 E1.00367
G1 X51.265 Y112.564 E0.02275
G1 X51.334 Y112.693 E0.00584
G1 X51.582 Y112.963 E0.01463
G1 X51.834 Y113.109 E0.01162
G1 X52.268 Y113.251 E0.01823
G1 X107.812 Y123.091 E2.2514
G1 X108.244 Y123.056 E0.0173
G1 X108.611 Y122.864 E0.01653
G1 X108.697 Y122.764 E0.00526
G1 X108.771 Y122.621 E0.00643
G1 X108.835 Y122.313 E0.01256
G1 X108.845 Y106.857 E0.61688
G1 X108.803 Y106.55 E0.01237
G1 X108.69 Y106.276 E0.01183
G1 X108.39 Y105.885 E0.01967
G1 X108.095 Y105.642 E0.01525
G1 X107.602 Y105.394 E0.02203
G1 X107.018 Y105.149 E0.02528
G1 X106.513 Y104.876 E0.02291
G1 X106.415 Y104.812 E0.00467
G1 X105.574 Y104.16 E0.04247
G1 X104.881 Y103.364 E0.04212
G1 X104.817 Y103.277 E0.00431
G1 X104.504 Y102.778 E0.02351
G1 X104.452 Y102.68 E0.00443
G1 X104.054 Y101.753 E0.04026
G1 X103.863 Y100.931 E0.03368
G1 X103.848 Y100.834 E0.00392
G1 X103.78 Y100.03 E0.0322
G1 X103.782 Y59.968 E1.59896
G1 X103.85 Y59.164 E0.0322
G1 X103.865 Y59.065 E0.004
G1 X104.057 Y58.246 E0.03357
G1 X104.478 Y57.269 E0.04246
G1 X104.818 Y56.722 E0.02571
G0 F7200 X104.667 Y56.626
G0 X103.905 Y58.148
G0 X104.509 Y58.408
;TYPE:WALL-OUTER
G1 F1800 X104.904 Y57.491 E0.03985
G1 X105.235 Y56.961 E0.02494
G1 X105.887 Y56.206 E0.03981
G1 X106.744 Y55.544 E0.04322
G1 X107.269 Y55.262 E0.02379
G1 X108.079 Y54.922 E0.03506
G1 X108.63 Y54.556 E0.0264
G1 X109.047 Y54.076 E0.02538
G1 X109.196 Y53.798 E0.01259
G1 X109.326 Y53.164 E0.02583
G1 X109.326 Y37.896 E0.60938
G1 X109.326 Y37.766 E0.00519
G1 X109.227 Y37.211 E0.0225
G1 X109.097 Y36.963 E0.01118
G1 X108.912 Y36.748 E0.01132
G1 X108.291 Y36.449 E0.02751
G1 X107.896 Y36.421 E0.0158
G1 X107.636 Y36.449 E0.01044
G1 X52.147 Y46.282 E2.24919
G1 X51.827 Y46.363 E0.01317
G1 X51.196 Y46.734 E0.02922
G1 X50.807 Y47.282 E0.02682
G1 X50.674 Y47.957 E0.02746
G1 X50.674 Y73.155 E1.00571
G1 X50.699 Y73.243 E0.00365
G1 X51.083 Y74.245 E0.04283
G1 X51.483 Y74.644 E0.02255
G1 X51.898 Y74.908 E0.01963
G1 X52.251 Y75.063 E0.01539
G1 X52.305 Y75.08 E0.00226
G1 X53.323 Y75.585 E0.04536
G1 X54.165 Y76.253 E0.0429
G1 X54.87 Y77.107 E0.0442
G1 X55.388 Y78.111 E0.04509
G1 X55.675 Y79.165 E0.0436
G1 X55.734 Y79.985 E0.03281
G1 X55.615 Y81.111 E0.04519
G1 X55.373 Y81.922 E0.03378
G1 X54.869 Y82.891 E0.04359
G1 X54.164 Y83.746 E0.04423
G1 X53.322 Y84.414 E0.0429
G1 X52.325 Y84.911 E0.04446
G1 X51.907 Y85.085 E0.01807
G1 X51.379 Y85.437 E0.02533
G1 X50.891 Y86.035 E0.03081
G1 X50.73 Y86.424 E0.0168
G1 X50.675 Y86.825 E0.01615
G1 X50.674 Y112.052 E1.00686
G1 X50.808 Y112.728 E0.02751
G1 X50.939 Y112.973 E0.01109
G1 X51.278 Y113.342 E0.02
G1 X51.637 Y113.55 E0.01656
G1 X52.151 Y113.718 E0.02158
G1 X107.65 Y123.553 E2.2496
G1 X107.798 Y123.573 E0.00596
G1 X108.38 Y123.526 E0.0233
G1 X108.915 Y123.247 E0.02408
G1 X109.097 Y123.035 E0.01115
G1 X109.228 Y122.784 E0.0113
G1 X109.315 Y122.362 E0.0172
G1 X109.325 Y106.824 E0.62016
G1 X109.27 Y106.424 E0.01612
G1 X109.11 Y106.035 E0.01679
G1 X108.724 Y105.537 E0.02515
G1 X108.358 Y105.237 E0.01889
G1 X107.786 Y104.949 E0.02556
G1 X107.712 Y104.924 E0.00312
G1 X107.246 Y104.727 E0.02019
G1 X106.741 Y104.454 E0.02291
G1 X105.895 Y103.803 E0.04261
G1 X105.233 Y103.037 E0.04041
G1 X104.901 Y102.507 E0.02496
G1 X104.506 Y101.591 E0.03981
G1 X104.329 Y100.814 E0.03181
G1 X104.26 Y100.02 E0.03181
G1 X104.262 Y59.978 E1.59816
G1 X104.333 Y59.172 E0.03229
G1 X104.509 Y58.408 E0.03129
G0 F7200 X104.588 Y58.225
G1 F2100 E-0.4
G0 F7200 X103.984 Y57.965
G0 X104.732 Y56.501
G0 X106.422 Y54.945
G0 X108.02 Y54.144
G0 X108.483 Y53.686
G0 X108.645 Y53.095
G0 X108.621 Y37.687
G0 X108.488 Y37.3
G0 X107.977 Y37.109
G0 X52.088 Y47
G0 X51.667 Y47.248
G0 X51.448 Y47.558
G0 X51.354 Y48.142
G0 X51.356 Y73.052
G0 X51.666 Y73.863
G0 X52.125 Y74.245
G0 X53.746 Y75.052
G0 X55.382 Y76.658
G0 X55.76 Y77.388
G0 X56.295 Y79.115
G1 F840 E0.4
G0 F7200 X56.643 Y79.087
;TYPE:SKIN
G1 F1800 X56.704 Y79.982 E0.04028
G1 X56.572 Y81.265 E0.05791
G1 X56.551 Y81.37 E0.00481
G1 X56.313 Y82.171 E0.03752
G1 X56.248 Y82.344 E0.0083
G1 X55.735 Y83.33 E0.04991
G1 X55.65 Y83.466 E0.0072
G1 X54.887 Y84.394 E0.05394
G1 X54.764 Y84.508 E0.00753
G1 X53.848 Y85.228 E0.05231
G1 X53.708 Y85.311 E0.00731
G1 X52.737 Y85.788 E0.04858
G1 X52.372 Y85.94 E0.01775
G1 X52.041 Y86.16 E0.01785
G1 X51.732 Y86.541 E0.02203
G1 X51.675 Y86.678 E0.00666
G1 X51.645 Y86.893 E0.00975
G1 X51.643 Y111.956 E1.12536
G1 X51.731 Y112.395 E0.0201
G1 X51.891 Y112.576 E0.01085
G1 X52.029 Y112.658 E0.00721
G1 X52.399 Y112.777 E0.01745
G1 X107.83 Y122.598 E2.52768
G1 X108.105 Y122.575 E0.01239
G1 X108.292 Y122.477 E0.00948
G1 X108.305 Y122.453 E0.00123
G1 X108.346 Y122.261 E0.00882
G1 X108.355 Y106.891 E0.69013
G1 X108.325 Y106.677 E0.0097
G1 X108.262 Y106.524 E0.00743
G1 X108.033 Y106.226 E0.01688
G1 X107.828 Y106.056 E0.01196
G1 X107.406 Y105.843 E0.02123
G1 X106.869 Y105.621 E0.02609
G1 X106.28 Y105.307 E0.02997
G1 X106.133 Y105.212 E0.00786
G1 X105.259 Y104.535 E0.04964
G1 X105.137 Y104.413 E0.00775
G1 X104.509 Y103.685 E0.04317
G1 X104.399 Y103.534 E0.00839
G1 X104.041 Y102.956 E0.03053
G1 X103.59 Y101.915 E0.05094
G1 X103.373 Y100.97 E0.04354
G1 X103.291 Y100.052 E0.04138
G1 X103.294 Y59.936 E1.80126
G1 X103.375 Y59.024 E0.04111
G1 X103.56 Y58.204 E0.03774
G1 X103.592 Y58.096 E0.00506
G1 X104.033 Y57.063 E0.05043
G1 X104.465 Y56.371 E0.03663
G1 X105.206 Y55.514 E0.05087
G1 X105.302 Y55.428 E0.00579
G1 X106.134 Y54.787 E0.04716
G1 X106.266 Y54.7 E0.0071
G1 X106.808 Y54.409 E0.02762
G1 X107.62 Y54.063 E0.03963
G1 X107.986 Y53.82 E0.01973
G1 X108.241 Y53.523 E0.01758
G1 X108.275 Y53.461 E0.00317
G1 X108.357 Y53.063 E0.01825
G1 X108.357 Y37.894 E0.68111
G1 X108.357 Y37.851 E0.00193
G1 X108.299 Y37.531 E0.0146
G1 X108.036 Y37.403 E0.01313
G1 X107.914 Y37.395 E0.00549
G1 X107.818 Y37.405 E0.00433
G1 X52.322 Y47.238 E2.53065
G1 X52.197 Y47.27 E0.00579
G1 X51.867 Y47.464 E0.01719
G1 X51.719 Y47.673 E0.0115
G1 X51.644 Y48.054 E0.01744
G1 X51.645 Y73.001 E1.12015
G1 X51.911 Y73.699 E0.03354
G1 X52.096 Y73.884 E0.01175
G1 X52.353 Y74.049 E0.01371
G1 X52.754 Y74.219 E0.01956
G1 X53.722 Y74.696 E0.04845
G1 X53.849 Y74.772 E0.00665
G1 X54.824 Y75.543 E0.05581
G1 X54.935 Y75.659 E0.00721
G1 X55.615 Y76.486 E0.04807
G1 X55.693 Y76.593 E0.00595
G1 X56.243 Y77.65 E0.0535
G1 X56.315 Y77.819 E0.00825
G1 X56.627 Y78.975 E0.05376
G1 X56.643 Y79.087 E0.00508
G1 F2100 E-0.4
G0 F7200 X56.295 Y79.115
G0 X56.335 Y80
G0 X56.206 Y81.226
G0 X55.73 Y82.767
G0 X54.571 Y84.293
G0 X53.579 Y85.052
G0 X52.031 Y85.82
G0 X51.696 Y86.123
G0 X51.434 Y86.503
G0 X51.39 Y86.909
G0 X51.294 Y111.479
G1 F840 E0.4
G0 F7200 X51.912 Y111.479
G1 F1800 X53.049 Y112.616 E0.0722
G0 F7200 X53.978 Y112.781
G1 F1800 X51.912 Y110.715 E0.13119
G0 F7200 X51.912 Y109.952
G1 F1800 X54.906 Y112.946 E0.19012
G0 F7200 X55.834 Y113.11
G1 F1800 X51.912 Y109.188 E0.24905
G0 F7200 X51.912 Y108.424
G1 F1800 X56.762 Y113.274 E0.30797
G0 F7200 X57.69 Y113.439
G1 F1800 X51.912 Y107.661 E0.3669
G0 F7200 X51.912 Y106.897
G1 F1800 X58.619 Y113.603 E0.42586
G0 F7200 X59.546 Y113.767
G1 F1800 X51.912 Y106.133 E0.48476
G0 F7200 X51.912 Y105.37
G1 F1800 X60.475 Y113.932 E0.54372
G0 F7200 X61.403 Y114.097
G1 F1800 X51.912 Y104.606 E0.60268
G0 F7200 X51.912 Y103.842
G1 F1800 X62.331 Y114.261 E0.66161
G0 F7200 X63.259 Y114.426
