;FLAVOR:Marlin
;TIME:1555
;Filament used: 2.3508m
;Layer height: 0.2
;MINX:50.559
;MINY:62.09
;MINZ:0.2
;MAXX:94.082
;MAXY:97.892
;MAXZ:11.4
;Generated with Cura_SteamEngine 5.2.1
M82 ;absolute extrusion mode


; Pre-Processed for Cancel-Object support by preprocess_cancellation v0.2.0
; 2 known objects
EXCLUDE_OBJECT_DEFINE NAME=Print_1_Chassis_0_0_15mm_PLA_20x20_3mf_34 CENTER=62.921,79.015 POLYGON=[[52.79,67.725],[52.79,92.215],[69.648,92.215],[69.648,67.725]]
EXCLUDE_OBJECT_DEFINE NAME=Print_1_Chassis_0_0_15mm_PLA_20x20_3mf_35 CENTER=81.725,80.988 POLYGON=[[71.58,67.768],[71.58,92.258],[88.439,92.258],[88.439,67.768]]
PRINT_START BED=110 EXTRUDER=255 STANDBY=200 CHAMBER=36
G92 E0
G92 E0
G1 F7200 E-0.4
;LAYER_COUNT:55
;LAYER:0
M107
G1 F600 Z0.6
G0 F7200 X52.857 Y63.538 Z0.6
;TYPE:SKIRT
G1 F600 Z0.2
G1 F2880 E0
G1 F1800 X53.396 Y63.159 E0.02559
G1 X53.976 Y62.848 E0.05115
G1 X54.59 Y62.609 E0.07673
G1 X55.229 Y62.446 E0.10234
G1 X55.954 Y62.358 E0.13071
G1 X56.41 Y62.336 E0.14844
G1 X65.96 Y62.101 E0.51942
G1 X66.981 Y62.09 E0.55908
G1 X67.647 Y62.104 E0.58495
G1 X70.454 Y62.268 E0.69414
G1 X73.073 Y62.349 E0.7959
G1 X77.053 Y62.332 E0.95046
G1 X84.752 Y62.143 E1.24954
G1 X85.759 Y62.135 E1.28865
G1 X86.317 Y62.148 E1.31033
G1 X86.668 Y62.168 E1.32398
G1 X86.997 Y62.197 E1.33681
G1 X87.497 Y62.265 E1.3564
G1 X87.743 Y62.31 E1.36612
G1 X88.436 Y62.484 E1.39386
G1 X88.702 Y62.57 E1.40472
G1 X89.377 Y62.84 E1.43295
G1 X89.638 Y62.965 E1.44419
G1 X90.286 Y63.331 E1.47309
G1 X90.507 Y63.477 E1.48338
G1 X91.002 Y63.847 E1.50738
G1 X91.311 Y64.106 E1.52304
G1 X91.789 Y64.559 E1.54861
G1 X92.19 Y65.041 E1.57296
G1 X92.535 Y65.508 E1.59551
G1 X92.894 Y66.06 E1.62108
G1 X93.211 Y66.72 E1.64952
G1 X93.352 Y67.073 E1.66428
G1 X93.525 Y67.578 E1.68501
G1 X93.619 Y67.903 E1.69815
G1 X93.771 Y68.595 E1.72566
G1 X93.808 Y68.838 E1.73521
G1 X93.863 Y69.374 E1.75613
G1 X93.916 Y70.395 E1.79584
G1 X93.954 Y71.53 E1.83994
G1 X94.028 Y74.486 E1.95477
G1 X94.072 Y77.557 E2.07405
G1 X94.082 Y79.407 E2.14589
G1 X94.077 Y81.704 E2.2351
G1 X94.056 Y83.682 E2.31192
G1 X94.016 Y86.054 E2.40405
G1 X93.923 Y89.441 E2.53563
G1 X93.874 Y90.544 E2.57851
G1 X93.806 Y91.189 E2.6037
G1 X93.737 Y91.606 E2.62011
G1 X93.539 Y92.415 E2.65245
G1 X93.447 Y92.695 E2.6639
G1 X93.182 Y93.351 E2.69138
G1 X92.998 Y93.734 E2.70788
G1 X92.678 Y94.31 E2.73347
G1 X92.479 Y94.599 E2.74709
G1 X92.296 Y94.848 E2.75909
G1 X91.839 Y95.392 E2.78669
G1 X91.601 Y95.64 E2.80003
G1 X91.067 Y96.127 E2.8281
G1 X90.821 Y96.323 E2.84032
G1 X90.281 Y96.701 E2.86591
G1 X89.92 Y96.905 E2.88202
G1 X89.605 Y97.067 E2.89577
G1 X88.968 Y97.345 E2.92276
G1 X88.553 Y97.495 E2.9399
G1 X87.921 Y97.681 E2.96549
G1 X87.559 Y97.751 E2.9798
G1 X87.175 Y97.812 E2.9949
G1 X86.489 Y97.876 E3.02166
G1 X85.848 Y97.892 E3.04656
G1 X84.778 Y97.882 E3.08812
G1 X76.161 Y97.669 E3.42286
G1 X73.393 Y97.641 E3.53036
G1 X70.763 Y97.687 E3.63251
G1 X68.9 Y97.783 E3.70496
G1 X67.414 Y97.845 E3.76272
G1 X67.144 Y97.85 E3.77321
G1 X66.03 Y97.841 E3.81647
G1 X56.698 Y97.61 E4.17899
G1 X56.047 Y97.586 E4.20429
G1 X55.391 Y97.522 E4.22988
G1 X54.748 Y97.379 E4.25547
G1 X54.127 Y97.159 E4.28105
G1 X53.537 Y96.866 E4.30663
G1 X52.988 Y96.503 E4.33219
G1 X52.486 Y96.076 E4.35779
G1 X52.039 Y95.592 E4.38337
G1 X51.654 Y95.057 E4.40897
G1 X51.337 Y94.48 E4.43454
G1 X51.093 Y93.868 E4.46012
G1 X50.924 Y93.231 E4.48572
G1 X50.827 Y92.495 E4.51455
G1 X50.798 Y91.979 E4.53462
G1 X50.681 Y88.356 E4.67539
G1 X50.641 Y86.886 E4.7325
G1 X50.586 Y84.002 E4.84452
G1 X50.559 Y81.041 E4.95951
G1 X50.56 Y79.209 E5.03066
G1 X50.573 Y77.189 E5.10911
G1 X50.601 Y75.152 E5.18822
G1 X50.649 Y72.903 E5.27558
G1 X50.7 Y71.042 E5.34788
G1 X50.791 Y68.21 E5.45792
G1 X50.823 Y67.526 E5.48451
G1 X50.894 Y66.871 E5.5101
G1 X51.043 Y66.23 E5.53565
G1 X51.269 Y65.611 E5.56124
G1 X51.568 Y65.024 E5.58683
G1 X51.937 Y64.478 E5.61242
G1 X52.368 Y63.98 E5.638
G1 X52.857 Y63.538 E5.6636
G0 F7200 X53.372 Y63.825
G1 F1800 X53.9 Y63.49 E5.68788
G1 X54.466 Y63.226 E5.71213
G1 X55.062 Y63.036 E5.73643
G1 X55.983 Y62.897 E5.7726
G1 X56.423 Y62.875 E5.78971
G1 X65.965 Y62.641 E6.16038
G1 X66.986 Y62.63 E6.20004
G1 X67.615 Y62.643 E6.22447
G1 X70.405 Y62.806 E6.333
G1 X73.087 Y62.889 E6.43721
G1 X77.019 Y62.872 E6.58991
G1 X84.758 Y62.683 E6.89054
G1 X85.747 Y62.675 E6.92895
G1 X86.305 Y62.688 E6.95063
G1 X86.949 Y62.735 E6.9757
G1 X87.4 Y62.796 E6.99338
G1 X87.646 Y62.841 E7.00309
G1 X88.27 Y62.998 E7.02808
G1 X88.536 Y63.084 E7.03894
G1 X89.144 Y63.327 E7.06436
G1 X89.405 Y63.452 E7.0756
G1 X89.988 Y63.782 E7.10162
G1 X90.209 Y63.928 E7.1119
G1 X90.655 Y64.26 E7.1335
G1 X90.964 Y64.519 E7.14915
G1 X91.417 Y64.951 E7.17346
G1 X91.756 Y65.361 E7.19412
G1 X92.101 Y65.828 E7.21667
G1 X92.44 Y66.354 E7.24097
G1 X92.709 Y66.92 E7.26531
G1 X92.85 Y67.273 E7.28007
G1 X93.006 Y67.728 E7.29875
G1 X93.1 Y68.053 E7.31189
G1 X93.237 Y68.676 E7.33666
G1 X93.274 Y68.919 E7.34621
G1 X93.323 Y69.402 E7.36506
G1 X93.38 Y70.513 E7.40827
G1 X93.414 Y71.544 E7.44833
G1 X93.489 Y74.493 E7.56289
G1 X93.532 Y77.56 E7.68201
G1 X93.542 Y79.406 E7.7537
G1 X93.537 Y81.698 E7.84271
G1 X93.516 Y83.673 E7.91941
G1 X93.476 Y86.04 E8.01135
G1 X93.383 Y89.417 E8.14254
G1 X93.334 Y90.52 E8.18542
G1 X93.273 Y91.101 E8.20811
G1 X93.204 Y91.518 E8.22452
G1 X93.026 Y92.246 E8.25363
G1 X92.934 Y92.526 E8.26507
G1 X92.696 Y93.118 E8.28985
G1 X92.512 Y93.501 E8.30635
G1 X92.044 Y94.279 E8.34161
G1 X91.861 Y94.528 E8.35361
G1 X91.449 Y95.018 E8.37847
G1 X91.211 Y95.266 E8.39182
G1 X90.73 Y95.705 E8.41711
G1 X90.484 Y95.901 E8.42933
G1 X89.971 Y96.258 E8.4536
G1 X89.673 Y96.425 E8.46686
G1 X89.358 Y96.587 E8.48062
G1 X88.784 Y96.837 E8.50493
G1 X88.369 Y96.987 E8.52207
G1 X87.474 Y97.217 E8.55796
G1 X87.09 Y97.278 E8.57306
G1 X86.473 Y97.337 E8.59713
G1 X85.853 Y97.352 E8.62121
G1 X84.708 Y97.341 E8.66568
G1 X76.115 Y97.128 E8.99949
G1 X73.389 Y97.101 E9.10536
G1 X70.726 Y97.148 E9.2088
G1 X68.878 Y97.244 E9.28066
G1 X67.392 Y97.306 E9.33842
G1 X67.148 Y97.31 E9.3479
G1 X65.953 Y97.3 E9.3943
G1 X56.718 Y97.071 E9.75306
G1 X56.067 Y97.047 E9.77836
G1 X55.445 Y96.984 E9.80263
G1 X54.836 Y96.842 E9.82692
G1 X54.25 Y96.624 E9.8512
G1 X53.697 Y96.333 E9.87547
G1 X53.186 Y95.973 E9.89974
G1 X52.724 Y95.551 E9.92404
G1 X52.32 Y95.074 E9.94832
G1 X51.981 Y94.549 E9.97259
G1 X51.711 Y93.986 E9.99684
G1 X51.515 Y93.392 E10.02113
G1 X51.396 Y92.778 E10.04542
G1 X51.366 Y92.462 E10.05774
G1 X51.344 Y92.106 E10.07159
G1 X51.221 Y88.342 E10.21785
G1 X51.181 Y86.875 E10.27484
G1 X51.126 Y83.997 E10.38663
G1 X51.099 Y81.041 E10.50143
G1 X51.1 Y79.213 E10.57242
G1 X51.113 Y77.196 E10.65075
G1 X51.141 Y75.163 E10.72971
G1 X51.189 Y72.918 E10.81691
G1 X51.239 Y71.06 E10.8891
G1 X51.33 Y68.235 E10.99886
G1 X51.362 Y67.551 E11.02545
G1 X51.431 Y66.93 E11.04972
G1 X51.579 Y66.323 E11.07398
G1 X51.803 Y65.739 E11.09827
G1 X52.1 Y65.189 E11.12255
G1 X52.464 Y64.681 E11.14682
G1 X52.891 Y64.224 E11.17111
G1 X53.372 Y63.825 E11.19538
G0 F7200 X53.883 Y64.129
G1 F1800 X54.398 Y63.842 E11.21827
G1 X54.948 Y63.629 E11.24118
G1 X55.521 Y63.491 E11.26407
G1 X56.012 Y63.436 E11.28325
G1 X56.436 Y63.415 E11.29974
G1 X65.971 Y63.181 E11.67014
G1 X66.992 Y63.17 E11.7098
G1 X67.584 Y63.182 E11.73279
G1 X70.394 Y63.346 E11.8421
G1 X73.073 Y63.429 E11.94619
G1 X77.034 Y63.412 E12.10002
G1 X84.764 Y63.223 E12.4003
G1 X85.585 Y63.214 E12.43219
G1 X86.292 Y63.228 E12.45965
G1 X86.902 Y63.273 E12.48341
G1 X87.303 Y63.327 E12.49912
G1 X87.549 Y63.372 E12.50883
G1 X88.104 Y63.512 E12.53106
G1 X88.37 Y63.598 E12.54192
G1 X88.911 Y63.814 E12.56454
G1 X89.172 Y63.939 E12.57578
G1 X89.691 Y64.233 E12.59894
G1 X89.912 Y64.379 E12.60923
G1 X90.308 Y64.674 E12.6284
G1 X90.617 Y64.933 E12.64406
G1 X91.042 Y65.342 E12.66697
G1 X91.322 Y65.682 E12.68407
G1 X91.667 Y66.149 E12.70662
G1 X91.984 Y66.646 E12.72951
G1 X92.208 Y67.12 E12.74987
G1 X92.349 Y67.473 E12.76464
G1 X92.488 Y67.878 E12.78127
G1 X92.582 Y68.203 E12.7944
G1 X92.703 Y68.757 E12.81643
G1 X92.74 Y69 E12.82597
G1 X92.784 Y69.429 E12.84272
G1 X92.841 Y70.531 E12.88557
G1 X92.875 Y71.557 E12.92544
G1 X92.949 Y74.501 E13.03981
G1 X92.992 Y77.563 E13.15873
G1 X93.002 Y79.405 E13.23027
G1 X92.997 Y81.693 E13.31912
G1 X92.976 Y83.664 E13.39567
G1 X92.936 Y86.025 E13.48737
G1 X92.844 Y89.393 E13.61822
G1 X92.795 Y90.496 E13.66109
G1 X92.741 Y91.013 E13.68128
G1 X92.672 Y91.43 E13.69769
G1 X92.513 Y92.078 E13.72361
G1 X92.421 Y92.358 E13.73505
G1 X92.209 Y92.884 E13.75708
G1 X92.025 Y93.267 E13.77358
G1 X91.609 Y93.959 E13.80493
G1 X91.426 Y94.208 E13.81693
G1 X91.06 Y94.644 E13.83904
G1 X90.822 Y94.892 E13.85239
G1 X90.394 Y95.282 E13.87488
G1 X90.148 Y95.478 E13.88709
G1 X89.426 Y95.944 E13.92046
G1 X89.111 Y96.106 E13.93422
G1 X88.601 Y96.329 E13.95584
G1 X88.186 Y96.479 E13.97297
G1 X87.389 Y96.684 E14.00493
G1 X87.005 Y96.745 E14.02003
G1 X86.456 Y96.797 E14.04145
G1 X85.858 Y96.812 E14.06468
G1 X84.721 Y96.801 E14.10884
G1 X76.133 Y96.589 E14.44245
G1 X73.385 Y96.56 E14.54918
G1 X70.717 Y96.608 E14.65281
G1 X68.855 Y96.704 E14.72521
G1 X67.153 Y96.77 E14.79136
G1 X65.966 Y96.76 E14.83746
G1 X56.738 Y96.531 E15.19594
G1 X56.087 Y96.507 E15.22124
G1 X55.5 Y96.445 E15.24416
G1 X54.928 Y96.305 E15.26703
G1 X54.379 Y96.089 E15.28994
G1 X53.865 Y95.8 E15.31284
G1 X53.395 Y95.445 E15.33571
G1 X52.977 Y95.029 E15.35862
G1 X52.619 Y94.56 E15.38153
G1 X52.328 Y94.048 E15.4044
G1 X52.109 Y93.5 E15.42732
G1 X51.965 Y92.928 E15.45023
G1 X51.905 Y92.428 E15.46978
G1 X51.877 Y91.944 E15.48861
G1 X51.721 Y86.865 E15.68595
G1 X51.666 Y83.992 E15.79754
G1 X51.639 Y81.042 E15.91211
G1 X51.64 Y79.216 E15.98302
G1 X51.653 Y77.203 E16.0612
G1 X51.681 Y75.175 E16.13996
G1 X51.729 Y72.933 E16.22705
G1 X51.779 Y71.077 E16.29915
G1 X51.87 Y68.261 E16.40857
G1 X51.902 Y67.577 E16.43516
G1 X51.969 Y66.991 E16.45807
G1 X52.115 Y66.42 E16.48096
G1 X52.337 Y65.874 E16.50385
G1 X52.631 Y65.362 E16.52677
G1 X52.991 Y64.896 E16.54964
G1 X53.411 Y64.482 E16.57255
G1 X53.883 Y64.129 E16.59544
G0 F7200 X54.389 Y64.454
G1 F1800 X54.889 Y64.22 E16.61687
G1 X55.417 Y64.062 E16.63828
G1 X56.041 Y63.976 E16.66274
G1 X56.449 Y63.955 E16.67861
G1 X65.977 Y63.721 E17.04874
G1 X66.998 Y63.71 E17.08839
G1 X67.552 Y63.721 E17.10991
G1 X70.381 Y63.886 E17.21996
G1 X73.058 Y63.969 E17.32397
G1 X77.05 Y63.952 E17.479
G1 X84.77 Y63.763 E17.7789
G1 X85.591 Y63.754 E17.81078
G1 X86.28 Y63.768 E17.83755
G1 X86.855 Y63.811 E17.85994
G1 X87.206 Y63.858 E17.87369
G1 X87.452 Y63.903 E17.8834
G1 X87.938 Y64.026 E17.90287
G1 X88.204 Y64.112 E17.91373
G1 X88.678 Y64.301 E17.93355
G1 X88.939 Y64.426 E17.94478
G1 X89.393 Y64.683 E17.96504
G1 X89.614 Y64.829 E17.97533
G1 X89.961 Y65.088 E17.99215
G1 X90.27 Y65.347 E18.0078
G1 X90.667 Y65.731 E18.02925
G1 X90.887 Y66.003 E18.04284
G1 X91.232 Y66.47 E18.06539
G1 X91.527 Y66.936 E18.08681
G1 X91.706 Y67.321 E18.1033
G1 X91.847 Y67.674 E18.11806
G1 X91.969 Y68.028 E18.1326
G1 X92.063 Y68.353 E18.14574
G1 X92.17 Y68.838 E18.16502
G1 X92.207 Y69.081 E18.17457
G1 X92.245 Y69.457 E18.18925
G1 X92.301 Y70.549 E18.23171
G1 X92.335 Y71.571 E18.27142
G1 X92.409 Y74.509 E18.38556
G1 X92.452 Y77.566 E18.50429
G1 X92.462 Y79.403 E18.57563
G1 X92.457 Y81.687 E18.66433
G1 X92.436 Y83.655 E18.74076
G1 X92.397 Y86.01 E18.83223
G1 X92.307 Y89.304 E18.9602
G1 X92.255 Y90.472 E19.0056
G1 X92.208 Y90.925 E19.02329
G1 X92.139 Y91.342 E19.0397
G1 X92 Y91.909 E19.06237
G1 X91.908 Y92.189 E19.07382
G1 X91.722 Y92.65 E19.09313
G1 X91.538 Y93.033 E19.10963
G1 X91.174 Y93.639 E19.13708
G1 X90.991 Y93.888 E19.14908
G1 X90.67 Y94.27 E19.16846
G1 X90.432 Y94.518 E19.18181
G1 X90.057 Y94.86 E19.20152
G1 X89.811 Y95.056 E19.21373
G1 X89.179 Y95.464 E19.24294
G1 X88.864 Y95.626 E19.2567
G1 X88.417 Y95.821 E19.27564
G1 X88.002 Y95.971 E19.29278
G1 X87.305 Y96.151 E19.32073
G1 X86.921 Y96.212 E19.33583
G1 X86.44 Y96.257 E19.35459
G1 X85.863 Y96.272 E19.37701
G1 X84.735 Y96.261 E19.42082
G1 X76.153 Y96.049 E19.7542
G1 X73.381 Y96.02 E19.86186
G1 X70.709 Y96.068 E19.96564
G1 X68.833 Y96.165 E20.03859
G1 X67.347 Y96.227 E20.09635
G1 X65.98 Y96.22 E20.14944
G1 X56.758 Y95.991 E20.50769
G1 X56.107 Y95.967 E20.53299
G1 X55.558 Y95.907 E20.55443
G1 X55.024 Y95.768 E20.57586
G1 X54.516 Y95.554 E20.59727
G1 X54.044 Y95.268 E20.6187
G1 X53.618 Y94.918 E20.64011
G1 X53.247 Y94.509 E20.66156
G1 X52.939 Y94.051 E20.68299
G1 X52.701 Y93.554 E20.70439
G1 X52.537 Y93.027 E20.72583
G1 X52.444 Y92.395 E20.75064
G1 X52.422 Y92.039 E20.76449
G1 X52.3 Y88.312 E20.9093
G1 X52.261 Y86.855 E20.96591
G1 X52.206 Y83.987 E21.0773
G1 X52.179 Y81.042 E21.19168
G1 X52.18 Y79.22 E21.26244
G1 X52.193 Y77.21 E21.3405
G1 X52.221 Y75.186 E21.41911
G1 X52.268 Y72.947 E21.50608
G1 X52.319 Y71.094 E21.57807
G1 X52.409 Y68.286 E21.68717
G1 X52.441 Y67.602 E21.71376
G1 X52.507 Y67.054 E21.7352
G1 X52.651 Y66.522 E21.7566
G1 X52.87 Y66.015 E21.77805
G1 X53.161 Y65.546 E21.79948
G1 X53.516 Y65.124 E21.8209
G1 X53.928 Y64.757 E21.84233
G1 X54.389 Y64.454 E21.86375
G0 F7200 X54.44 Y65.054
G1 F1800 X54.887 Y64.806 E21.8836
G1 X55.367 Y64.631 E21.90344
G1 X56.071 Y64.515 E21.93115
G1 X56.463 Y64.495 E21.9464
G1 X65.983 Y64.261 E22.31622
G1 X67.095 Y64.25 E22.3594
G1 X67.386 Y64.255 E22.37071
G1 X70.334 Y64.425 E22.48538
G1 X73.044 Y64.509 E22.59068
G1 X77.066 Y64.492 E22.74687
G1 X84.776 Y64.303 E23.04638
G1 X85.597 Y64.294 E23.07826
G1 X86.267 Y64.308 E23.10429
G1 X86.807 Y64.349 E23.12532
G1 X87.108 Y64.389 E23.13711
G1 X87.354 Y64.434 E23.14683
G1 X87.772 Y64.54 E23.16357
G1 X88.038 Y64.626 E23.17443
G1 X88.444 Y64.788 E23.1914
G1 X88.705 Y64.913 E23.20264
G1 X89.095 Y65.134 E23.22005
G1 X89.316 Y65.28 E23.23034
G1 X89.615 Y65.502 E23.2448
G1 X89.924 Y65.761 E23.26046
G1 X90.288 Y66.119 E23.28029
G1 X90.453 Y66.324 E23.2905
G1 X90.798 Y66.791 E23.31305
G1 X91.069 Y67.225 E23.33292
G1 X91.205 Y67.521 E23.34557
G1 X91.346 Y67.874 E23.36034
G1 X91.45 Y68.178 E23.37281
G1 X91.544 Y68.503 E23.38595
G1 X91.636 Y68.92 E23.40254
G1 X91.673 Y69.163 E23.41208
G1 X91.706 Y69.485 E23.42465
G1 X91.759 Y70.506 E23.46436
G1 X91.795 Y71.585 E23.50628
G1 X91.869 Y74.517 E23.62018
G1 X91.912 Y77.569 E23.73872
G1 X91.922 Y79.402 E23.8099
G1 X91.917 Y81.682 E23.89845
G1 X91.897 Y83.646 E23.97472
G1 X91.857 Y85.995 E24.06596
G1 X91.765 Y89.345 E24.19611
G1 X91.716 Y90.448 E24.23898
G1 X91.675 Y90.837 E24.25418
G1 X91.606 Y91.254 E24.27059
G1 X91.487 Y91.741 E24.29006
G1 X91.395 Y92.021 E24.3015
G1 X91.235 Y92.416 E24.31806
G1 X91.051 Y92.799 E24.33456
G1 X90.739 Y93.32 E24.35814
G1 X90.556 Y93.569 E24.37014
G1 X90.28 Y93.896 E24.38676
G1 X90.042 Y94.144 E24.40011
G1 X89.721 Y94.437 E24.41699
G1 X89.475 Y94.633 E24.4292
G1 X88.933 Y94.984 E24.45428
G1 X88.618 Y95.146 E24.46803
G1 X88.234 Y95.313 E24.4843
G1 X87.819 Y95.463 E24.50143
G1 X87.22 Y95.618 E24.52546
G1 X86.836 Y95.679 E24.54056
G1 X86.423 Y95.717 E24.55667
G1 X85.868 Y95.732 E24.57823
G1 X84.748 Y95.721 E24.62173
G1 X76.172 Y95.509 E24.95488
G1 X73.377 Y95.48 E25.06343
G1 X70.702 Y95.528 E25.16733
G1 X68.81 Y95.625 E25.2409
G1 X67.162 Y95.69 E25.30495
G1 X65.993 Y95.68 E25.35035
G1 X56.778 Y95.452 E25.70832
G1 X56.127 Y95.428 E25.73362
G1 X55.619 Y95.369 E25.75348
G1 X55.126 Y95.232 E25.77335
G1 X54.661 Y95.02 E25.7932
G1 X54.235 Y94.738 E25.81304
G1 X53.858 Y94.393 E25.83289
G1 X53.539 Y93.993 E25.85276
G1 X53.287 Y93.549 E25.87258
G1 X53.106 Y93.071 E25.89243
G1 X52.983 Y92.362 E25.92038
G1 X52.961 Y92.006 E25.93423
G1 X52.84 Y88.297 E26.07834
G1 X52.801 Y86.844 E26.13479
G1 X52.746 Y83.982 E26.24596
G1 X52.719 Y81.042 E26.36014
G1 X52.72 Y79.224 E26.43074
G1 X52.733 Y77.218 E26.50864
G1 X52.761 Y75.198 E26.5871
G1 X52.808 Y72.962 E26.67395
G1 X52.859 Y71.111 E26.74586
G1 X52.949 Y68.311 E26.85466
G1 X52.981 Y67.627 E26.88125
G1 X53.044 Y67.12 E26.90109
G1 X53.186 Y66.629 E26.92094
G1 X53.403 Y66.166 E26.9408
G1 X53.689 Y65.743 E26.96063
G1 X54.038 Y65.369 E26.98049
G1 X54.44 Y65.054 E27.00033
G1 F7200 E26.60033
G1 F600 Z0.6
;MESH:Print 1 - Chassis 0 - 0.15mm_PLA_20x20.3mf(34)
