;FLAVOR:Marlin
;TIME:2339
;Filament used: 1.65412m
;Layer height: 0.15
;MINX:60.754
;MINY:55.87
;MINZ:0.2
;MAXX:98.582
;MAXY:100.833
;MAXZ:13.7
;Generated with Cura_SteamEngine 5.2.1
M82 ;absolute extrusion mode


; Pre-Processed for Cancel-Object support by preprocess_cancellation v0.2.0
; 3 known objects
EXCLUDE_OBJECT_DEFINE NAME=Print_6A_Belt_Drive_Gearbox_1_0_15mm_PLA_20x20_3mf_10 CENTER=80.050,66.087 POLYGON=[[66.279,60.131],[66.279,71.495],[93.125,71.495],[93.125,60.131]]
EXCLUDE_OBJECT_DEFINE NAME=Print_6A_Belt_Drive_Gearbox_1_0_15mm_PLA_20x20_3mf_9 CENTER=75.711,79.968 POLYGON=[[69.289,73.354],[69.289,86.629],[90.496,86.629],[90.496,73.354]]
EXCLUDE_OBJECT_DEFINE NAME=Print_6A_Belt_Drive_Gearbox_1_0_15mm_PLA_20x20_3mf_8 CENTER=79.990,90.999 POLYGON=[[73.404,88.643],[73.404,95.322],[86.475,95.322],[86.475,88.643]]
PRINT_START BED=70 EXTRUDER=220 STANDBY=175 CHAMBER=28
G92 E0
G92 E0
G1 F2100 E-0.4
;LAYER_COUNT:91
;LAYER:0
M107
G1 F600 Z0.6
G0 F7200 X62.147 Y61.695 Z0.6
;TYPE:SKIRT
G1 F600 Z0.2
G1 F840 E0
G1 F1200 X62.616 Y61.233 E0.03015
G1 X63.014 Y60.918 E0.0534
G1 X63.444 Y60.611 E0.0776
G1 X63.86 Y60.331 E0.10056
G1 X64.471 Y59.941 E0.13376
G1 X64.967 Y59.643 E0.16026
G1 X66.056 Y59.033 E0.21743
G1 X66.742 Y58.684 E0.25268
G1 X67.591 Y58.281 E0.29572
G1 X68.466 Y57.905 E0.33934
G1 X69.158 Y57.631 E0.37342
G1 X69.725 Y57.424 E0.40107
G1 X70.375 Y57.204 E0.4325
G1 X71.275 Y56.928 E0.47561
G1 X72.279 Y56.661 E0.52319
G1 X73.253 Y56.438 E0.56895
G1 X74.299 Y56.242 E0.61769
G1 X74.89 Y56.15 E0.64509
G1 X76.118 Y55.999 E0.70175
G1 X76.804 Y55.941 E0.73328
G1 X77.553 Y55.896 E0.76765
G1 X78.3 Y55.873 E0.80188
G1 X78.962 Y55.87 E0.8322
G1 X79.864 Y55.891 E0.87352
G1 X80.962 Y55.952 E0.92388
G1 X81.39 Y55.988 E0.94355
G1 X82.191 Y56.076 E0.98046
G1 X82.868 Y56.168 E1.01175
G1 X83.305 Y56.238 E1.03202
G1 X84.02 Y56.368 E1.0653
G1 X84.732 Y56.515 E1.0986
G1 X85.471 Y56.691 E1.13339
G1 X85.851 Y56.79 E1.15138
G1 X86.734 Y57.045 E1.19347
G1 X87.606 Y57.324 E1.2354
G1 X88.061 Y57.481 E1.25745
G1 X88.658 Y57.705 E1.28665
G1 X89.267 Y57.95 E1.31671
G1 X89.933 Y58.237 E1.34993
G1 X90.624 Y58.556 E1.38479
G1 X91.153 Y58.817 E1.4118
G1 X91.722 Y59.114 E1.4412
G1 X92.212 Y59.384 E1.46682
G1 X92.967 Y59.826 E1.50689
G1 X93.508 Y60.163 E1.53608
G1 X93.939 Y60.444 E1.55964
G1 X94.727 Y60.992 E1.6036
G1 X94.943 Y61.151 E1.61589
G1 X95.849 Y61.853 E1.66838
G1 X96.322 Y62.265 E1.69711
G1 X96.466 Y62.406 E1.70634
G1 X96.826 Y62.795 E1.73061
G1 X97.009 Y63.013 E1.74365
G1 X97.401 Y63.542 E1.7738
G1 X97.669 Y64.002 E1.79819
G1 X97.845 Y64.341 E1.81568
G1 X98.113 Y64.943 E1.84586
G1 X98.24 Y65.325 E1.8643
G1 X98.325 Y65.617 E1.87822
G1 X98.486 Y66.364 E1.91322
G1 X98.524 Y66.629 E1.92548
G1 X98.578 Y67.314 E1.95695
G1 X98.582 Y67.568 E1.96859
G1 X98.516 Y68.506 E2.01165
G1 X98.435 Y68.986 E2.03395
G1 X98.319 Y69.561 E2.06081
G1 X98.115 Y70.483 E2.10406
G1 X97.604 Y73.134 E2.22771
G1 X97.181 Y75.733 E2.34831
G1 X96.819 Y78.424 E2.47266
G1 X96.538 Y81.08 E2.59498
G1 X96.334 Y83.731 E2.71676
G1 X96.228 Y85.738 E2.8088
G1 X96.18 Y86.837 E2.85919
G1 X96.111 Y87.492 E2.88935
G1 X95.964 Y88.135 E2.91956
G1 X95.74 Y88.754 E2.94971
G1 X95.422 Y89.377 E2.98174
G1 X94.046 Y91.69 E3.105
G1 X92.755 Y94.002 E3.22628
G1 X91.384 Y96.634 E3.3622
G1 X91.044 Y97.199 E3.3924
G1 X90.639 Y97.718 E3.42255
G1 X90.174 Y98.185 E3.45273
G1 X89.656 Y98.592 E3.4829
G1 X89.092 Y98.933 E3.51309
G1 X88.513 Y99.195 E3.54219
G1 X87.667 Y99.513 E3.58359
G1 X86.739 Y99.816 E3.6283
G1 X85.764 Y100.096 E3.67476
G1 X85.46 Y100.174 E3.68913
G1 X84.575 Y100.368 E3.73063
G1 X83.545 Y100.55 E3.77853
G1 X82.45 Y100.701 E3.82915
G1 X81.943 Y100.754 E3.8525
G1 X81.06 Y100.814 E3.89303
G1 X80.334 Y100.833 E3.9263
G1 X79.366 Y100.824 E3.97063
G1 X78.003 Y100.757 E4.03313
G1 X77.562 Y100.717 E4.05341
G1 X76.792 Y100.625 E4.08893
G1 X76.274 Y100.548 E4.11291
G1 X75.581 Y100.424 E4.14516
G1 X74.715 Y100.238 E4.18572
G1 X73.608 Y99.953 E4.23808
G1 X72.709 Y99.683 E4.28107
G1 X72.117 Y99.485 E4.30966
G1 X71.358 Y99.196 E4.34685
G1 X70.759 Y98.922 E4.37702
G1 X70.198 Y98.577 E4.40718
G1 X69.683 Y98.167 E4.43733
G1 X69.22 Y97.697 E4.46755
G1 X68.819 Y97.175 E4.49769
G1 X68.432 Y96.506 E4.53309
G1 X67.893 Y95.397 E4.58956
G1 X66.653 Y92.932 E4.71594
G1 X65.226 Y90.293 E4.85334
G1 X64.591 Y89.164 E4.91267
G1 X64.304 Y88.571 E4.94284
G1 X64.09 Y87.948 E4.97301
G1 X63.953 Y87.304 E5.00316
G1 X63.904 Y86.826 E5.02517
G1 X63.847 Y85.874 E5.06885
G1 X63.806 Y84.97 E5.11029
G1 X63.609 Y82.272 E5.23419
G1 X63.345 Y79.664 E5.35424
G1 X62.997 Y76.991 E5.4777
G1 X62.573 Y74.319 E5.6016
G1 X62.086 Y71.73 E5.72226
G1 X61.512 Y69.091 E5.84595
G1 X60.908 Y66.61 E5.96289
G1 X60.791 Y65.961 E5.9931
G1 X60.754 Y65.304 E6.02323
G1 X60.797 Y64.646 E6.05343
G1 X60.919 Y63.999 E6.08359
G1 X61.118 Y63.371 E6.11376
G1 X61.392 Y62.772 E6.14393
G1 X61.737 Y62.21 E6.17413
G1 X62.147 Y61.695 E6.20428
G0 F7200 X62.724 Y61.871
G1 F1200 X63.329 Y61.356 E6.24067
G1 X63.746 Y61.059 E6.26411
G1 X64.259 Y60.715 E6.2924
G1 X64.655 Y60.462 E6.31392
G1 X65.233 Y60.113 E6.34485
G1 X66.302 Y59.513 E6.40099
G1 X66.976 Y59.17 E6.43563
G1 X67.804 Y58.777 E6.4776
G1 X68.679 Y58.401 E6.52122
G1 X69.223 Y58.184 E6.54804
G1 X70.017 Y57.894 E6.58676
G1 X70.421 Y57.757 E6.6063
G1 X71.414 Y57.45 E6.6539
G1 X72.418 Y57.183 E6.70148
G1 X73.372 Y56.965 E6.7463
G1 X74.51 Y56.754 E6.79931
G1 X74.957 Y56.686 E6.82001
G1 X76.163 Y56.537 E6.87567
G1 X76.849 Y56.479 E6.9072
G1 X77.441 Y56.442 E6.93436
G1 X78.303 Y56.413 E6.97387
G1 X78.965 Y56.41 E7.00419
G1 X79.998 Y56.437 E7.05151
G1 X80.917 Y56.49 E7.09367
G1 X81.47 Y56.538 E7.11909
G1 X82.12 Y56.611 E7.14905
G1 X82.658 Y56.683 E7.17391
G1 X83.329 Y56.79 E7.20503
G1 X83.923 Y56.899 E7.23269
G1 X84.608 Y57.041 E7.26473
G1 X85.335 Y57.214 E7.29895
G1 X85.836 Y57.346 E7.32268
G1 X86.433 Y57.518 E7.35114
G1 X87.562 Y57.879 E7.40542
G1 X87.999 Y58.033 E7.42664
G1 X88.578 Y58.253 E7.45501
G1 X89.171 Y58.495 E7.48434
G1 X89.823 Y58.779 E7.51691
G1 X90.386 Y59.04 E7.54534
G1 X90.797 Y59.242 E7.56631
G1 X91.472 Y59.593 E7.60115
G1 X91.95 Y59.856 E7.62614
G1 X92.682 Y60.285 E7.665
G1 X93.119 Y60.556 E7.68855
G1 X93.644 Y60.897 E7.71722
G1 X94.418 Y61.435 E7.76039
G1 X95.518 Y62.28 E7.82392
G1 X95.944 Y62.651 E7.84979
G1 X96.088 Y62.792 E7.85902
G1 X96.412 Y63.142 E7.88087
G1 X96.595 Y63.36 E7.8939
G1 X96.966 Y63.864 E7.92256
G1 X97.19 Y64.251 E7.94304
G1 X97.366 Y64.59 E7.96054
G1 X97.618 Y65.162 E7.98916
G1 X97.721 Y65.476 E8.0043
G1 X97.806 Y65.768 E8.01823
G1 X97.951 Y66.441 E8.04976
G1 X97.989 Y66.706 E8.06202
G1 X98.038 Y67.323 E8.09037
G1 X98.042 Y67.577 E8.102
G1 X97.982 Y68.421 E8.14075
G1 X97.905 Y68.879 E8.16202
G1 X97.77 Y69.545 E8.19314
G1 X97.587 Y70.37 E8.23185
G1 X97.071 Y73.05 E8.35684
G1 X96.642 Y75.681 E8.47893
G1 X96.286 Y78.331 E8.60139
G1 X96.001 Y81.017 E8.7251
G1 X95.792 Y83.74 E8.85018
G1 X95.688 Y85.71 E8.94053
G1 X95.64 Y86.814 E8.99114
G1 X95.573 Y87.435 E9.01974
G1 X95.427 Y88.043 E9.04838
G1 X95.205 Y88.628 E9.07704
G1 X94.958 Y89.101 E9.10148
G1 X93.586 Y91.407 E9.22437
G1 X92.274 Y93.758 E9.34767
G1 X90.905 Y96.385 E9.48335
G1 X90.581 Y96.919 E9.51195
G1 X90.192 Y97.408 E9.54057
G1 X89.743 Y97.844 E9.56923
G1 X89.243 Y98.219 E9.59786
G1 X88.699 Y98.526 E9.62647
G1 X88.319 Y98.691 E9.64544
G1 X87.497 Y99.001 E9.68568
G1 X86.779 Y99.239 E9.72032
G1 X85.615 Y99.577 E9.77583
G1 X85.341 Y99.647 E9.78878
G1 X84.479 Y99.837 E9.82921
G1 X83.47 Y100.016 E9.87614
G1 X82.565 Y100.143 E9.918
G1 X81.688 Y100.233 E9.95837
G1 X80.834 Y100.284 E9.99756
G1 X80.339 Y100.293 E10.02023
G1 X79.171 Y100.278 E10.07373
G1 X78.048 Y100.219 E10.12523
G1 X77.624 Y100.181 E10.14473
G1 X77.028 Y100.112 E10.17221
G1 X76.353 Y100.014 E10.20345
G1 X75.694 Y99.896 E10.23411
G1 X74.828 Y99.71 E10.27467
G1 X73.763 Y99.435 E10.32505
G1 X72.694 Y99.111 E10.37621
G1 X72.107 Y98.907 E10.40467
G1 X71.553 Y98.693 E10.43187
G1 X70.985 Y98.43 E10.46054
G1 X70.456 Y98.098 E10.48914
G1 X69.973 Y97.701 E10.51778
G1 X69.545 Y97.245 E10.54642
G1 X69.179 Y96.739 E10.57502
G1 X68.918 Y96.27 E10.5996
G1 X68.375 Y95.154 E10.65644
G1 X67.128 Y92.674 E10.78357
G1 X65.681 Y90 E10.92282
G1 X65.062 Y88.899 E10.98067
G1 X64.791 Y88.336 E11.00929
G1 X64.594 Y87.743 E11.03791
G1 X64.474 Y87.129 E11.06656
G1 X64.443 Y86.793 E11.08201
G1 X64.387 Y85.85 E11.12528
G1 X64.346 Y84.94 E11.167
G1 X64.15 Y82.252 E11.29043
G1 X63.879 Y79.577 E11.41357
G1 X63.531 Y76.903 E11.53707
G1 X63.113 Y74.275 E11.65894
G1 X62.608 Y71.587 E11.78421
G1 X62.038 Y68.97 E11.90687
G1 X61.433 Y66.482 E12.02414
G1 X61.324 Y65.867 E12.05275
G1 X61.295 Y65.242 E12.0814
G1 X61.345 Y64.619 E12.11003
G1 X61.475 Y64.007 E12.13868
G1 X61.682 Y63.417 E12.16732
G1 X61.962 Y62.859 E12.19591
G1 X62.311 Y62.34 E12.22456
G1 X62.724 Y61.871 E12.25318
G0 F7200 X63.301 Y62.068
G1 F1200 X63.644 Y61.794 E12.27328
G1 X64.047 Y61.507 E12.29594
G1 X64.463 Y61.227 E12.31891
G1 X64.946 Y60.917 E12.34519
G1 X65.382 Y60.651 E12.36858
G1 X66.548 Y59.994 E12.42988
G1 X67.21 Y59.657 E12.4639
G1 X68.018 Y59.273 E12.50487
G1 X69.011 Y58.848 E12.55434
G1 X69.421 Y58.686 E12.57453
G1 X70.19 Y58.405 E12.61203
G1 X70.594 Y58.268 E12.63157
G1 X71.553 Y57.972 E12.67753
G1 X72.719 Y57.665 E12.73276
G1 X73.491 Y57.491 E12.769
G1 X74.594 Y57.287 E12.82037
G1 X75.025 Y57.221 E12.84034
G1 X76.029 Y57.094 E12.88669
G1 X76.895 Y57.017 E12.92651
G1 X77.474 Y56.981 E12.95308
G1 X78.305 Y56.953 E12.99116
G1 X79.099 Y56.951 E13.02753
G1 X79.836 Y56.97 E13.06129
G1 X80.872 Y57.028 E13.10881
G1 X81.411 Y57.075 E13.13359
G1 X82.048 Y57.146 E13.16295
G1 X82.586 Y57.218 E13.18781
G1 X83.231 Y57.321 E13.21772
G1 X83.825 Y57.43 E13.24538
G1 X84.484 Y57.567 E13.27621
G1 X85.199 Y57.737 E13.30987
G1 X85.686 Y57.865 E13.33293
G1 X86.405 Y58.074 E13.36722
G1 X87.277 Y58.353 E13.40915
G1 X87.808 Y58.538 E13.43491
G1 X88.277 Y58.715 E13.45786
G1 X88.861 Y58.951 E13.48671
G1 X89.597 Y59.269 E13.52343
G1 X90.052 Y59.479 E13.54638
G1 X90.559 Y59.727 E13.57223
G1 X91.222 Y60.072 E13.60646
G1 X91.78 Y60.381 E13.63568
G1 X92.398 Y60.744 E13.6685
G1 X92.835 Y61.015 E13.69205
G1 X93.465 Y61.427 E13.72653
G1 X94.109 Y61.877 E13.76251
G1 X95.187 Y62.706 E13.82479
G1 X95.566 Y63.037 E13.84784
G1 X95.71 Y63.178 E13.85707
G1 X95.999 Y63.489 E13.87651
G1 X96.182 Y63.707 E13.88955
G1 X96.529 Y64.183 E13.91652
G1 X96.711 Y64.5 E13.93327
G1 X96.887 Y64.839 E13.95076
G1 X97.203 Y65.627 E13.98964
G1 X97.288 Y65.919 E14.00357
G1 X97.417 Y66.518 E14.03163
G1 X97.455 Y66.783 E14.04389
G1 X97.498 Y67.332 E14.06912
G1 X97.502 Y67.586 E14.08075
G1 X97.449 Y68.337 E14.11523
G1 X97.376 Y68.772 E14.13543
G1 X97.243 Y69.428 E14.16609
G1 X97.052 Y70.291 E14.20657
G1 X96.543 Y72.934 E14.32984
G1 X96.109 Y75.593 E14.45323
G1 X95.749 Y78.273 E14.57708
G1 X95.461 Y80.987 E14.70207
G1 X95.255 Y83.673 E14.82545
G1 X95.149 Y85.681 E14.91754
G1 X95.101 Y86.79 E14.96838
G1 X95.035 Y87.376 E14.99539
G1 X94.891 Y87.948 E15.02241
G1 X94.671 Y88.495 E15.04941
G1 X94.494 Y88.825 E15.06656
G1 X93.11 Y91.151 E15.19052
G1 X91.798 Y93.501 E15.31378
G1 X90.426 Y96.135 E15.4498
G1 X90.119 Y96.638 E15.47679
G1 X89.746 Y97.095 E15.50381
G1 X89.315 Y97.498 E15.53083
G1 X88.834 Y97.838 E15.55781
G1 X88.126 Y98.186 E15.59394
G1 X87.327 Y98.488 E15.63306
G1 X86.441 Y98.778 E15.67576
G1 X85.466 Y99.058 E15.72222
G1 X85.222 Y99.12 E15.73375
G1 X84.383 Y99.306 E15.77311
G1 X83.564 Y99.454 E15.81122
G1 X82.49 Y99.608 E15.86092
G1 X81.653 Y99.694 E15.89945
G1 X80.821 Y99.744 E15.93762
G1 X80.344 Y99.753 E15.95947
G1 X79.198 Y99.739 E16.01196
G1 X78.241 Y99.691 E16.05585
G1 X77.821 Y99.658 E16.07514
G1 X76.95 Y99.557 E16.1153
G1 X76.315 Y99.461 E16.14472
G1 X75.964 Y99.399 E16.16104
G1 X74.767 Y99.141 E16.21712
G1 X74.082 Y98.964 E16.24952
G1 X73.02 Y98.648 E16.30027
G1 X72.302 Y98.403 E16.33502
G1 X71.748 Y98.189 E16.36222
G1 X71.213 Y97.94 E16.38924
G1 X70.718 Y97.62 E16.41624
G1 X70.27 Y97.237 E16.44323
G1 X69.878 Y96.797 E16.47022
G1 X69.549 Y96.307 E16.49725
G1 X69.403 Y96.034 E16.51143
G1 X68.832 Y94.86 E16.57122
G1 X67.616 Y92.443 E16.69514
G1 X66.133 Y89.701 E16.83791
G1 X65.533 Y88.634 E16.89397
G1 X65.279 Y88.102 E16.92097
G1 X65.1 Y87.541 E16.94794
G1 X64.982 Y86.761 E16.98407
G1 X64.926 Y85.826 E17.02697
G1 X64.883 Y84.877 E17.07048
G1 X64.69 Y82.227 E17.19217
G1 X64.416 Y79.523 E17.31664
G1 X64.064 Y76.819 E17.44153
G1 X63.642 Y74.161 E17.56479
G1 X63.145 Y71.52 E17.68787
G1 X62.562 Y68.84 E17.81348
G1 X61.957 Y66.354 E17.93066
G1 X61.857 Y65.773 E17.95766
G1 X61.836 Y65.184 E17.98465
G1 X61.895 Y64.598 E18.01163
G1 X62.033 Y64.024 E18.03867
G1 X62.247 Y63.475 E18.06565
G1 X62.534 Y62.96 E18.09265
G1 X62.887 Y62.488 E18.11965
G1 X63.301 Y62.068 E18.14666
G0 F7200 X63.464 Y62.658
G1 F1200 X63.959 Y62.233 E18.17654
G1 X64.349 Y61.955 E18.19847
G1 X64.841 Y61.625 E18.22561
G1 X65.311 Y61.326 E18.25112
G1 X65.764 Y61.053 E18.27534
G1 X66.654 Y60.55 E18.32216
G1 X67.359 Y60.186 E18.3585
G1 X68.085 Y59.836 E18.39541
G1 X69.21 Y59.351 E18.45152
G1 X69.713 Y59.153 E18.47628
G1 X70.28 Y58.946 E18.50392
G1 X70.767 Y58.78 E18.52749
G1 X71.692 Y58.494 E18.57183
G1 X72.837 Y58.192 E18.62606
G1 X73.609 Y58.018 E18.66231
G1 X74.678 Y57.821 E18.71209
G1 X75.093 Y57.757 E18.73132
G1 X76.097 Y57.63 E18.77767
G1 X77.03 Y57.549 E18.82056
G1 X77.608 Y57.515 E18.84708
G1 X78.195 Y57.495 E18.87398
G1 X78.97 Y57.49 E18.90948
G1 X79.822 Y57.51 E18.94851
G1 X80.826 Y57.566 E18.99456
G1 X81.254 Y57.602 E19.01423
G1 X81.888 Y57.671 E19.04344
G1 X82.612 Y57.768 E19.0769
G1 X83.049 Y57.838 E19.09717
G1 X83.805 Y57.977 E19.13237
G1 X84.36 Y58.092 E19.15833
G1 X85.063 Y58.259 E19.19142
G1 X85.443 Y58.358 E19.20941
G1 X86.24 Y58.588 E19.2474
G1 X87.112 Y58.867 E19.28933
G1 X87.617 Y59.043 E19.31382
G1 X88.086 Y59.22 E19.33678
G1 X88.742 Y59.486 E19.3692
G1 X89.289 Y59.723 E19.3965
G1 X89.826 Y59.97 E19.42357
G1 X90.403 Y60.253 E19.45301
G1 X90.972 Y60.55 E19.4824
G1 X91.427 Y60.801 E19.5062
G1 X92.113 Y61.203 E19.54262
G1 X92.623 Y61.52 E19.57012
G1 X93.054 Y61.801 E19.59368
G1 X93.951 Y62.431 E19.64389
G1 X94.857 Y63.133 E19.69638
G1 X95.189 Y63.423 E19.71657
G1 X95.333 Y63.564 E19.7258
G1 X95.585 Y63.836 E19.74278
G1 X95.768 Y64.054 E19.75582
G1 X96.091 Y64.502 E19.78111
G1 X96.231 Y64.748 E19.79407
G1 X96.407 Y65.087 E19.81157
G1 X96.684 Y65.778 E19.84566
G1 X96.769 Y66.07 E19.85959
G1 X96.882 Y66.594 E19.88414
G1 X96.92 Y66.859 E19.8964
G1 X96.959 Y67.34 E19.91851
G1 X96.963 Y67.594 E19.93014
G1 X96.916 Y68.252 E19.96035
G1 X96.847 Y68.665 E19.97953
G1 X96.716 Y69.311 E20.00972
G1 X96.524 Y70.178 E20.05039
G1 X96.01 Y72.845 E20.17478
G1 X95.576 Y75.511 E20.29849
G1 X95.212 Y78.216 E20.42349
G1 X94.925 Y80.924 E20.54821
G1 X94.716 Y83.642 E20.67306
G1 X94.61 Y85.653 E20.76529
G1 X94.561 Y86.767 E20.81636
G1 X94.498 Y87.315 E20.84163
G1 X94.355 Y87.848 E20.8669
G1 X94.029 Y88.549 E20.90231
G1 X92.657 Y90.856 E21.02524
G1 X91.317 Y93.256 E21.15113
G1 X89.947 Y95.885 E21.2869
G1 X89.657 Y96.355 E21.3122
G1 X89.303 Y96.778 E21.33746
G1 X88.891 Y97.145 E21.36273
G1 X88.43 Y97.449 E21.38802
G1 X87.933 Y97.682 E21.41316
G1 X87.157 Y97.975 E21.45115
G1 X86.292 Y98.259 E21.49284
G1 X85.317 Y98.539 E21.5393
G1 X84.447 Y98.742 E21.58022
G1 X83.319 Y98.946 E21.63272
G1 X82.414 Y99.073 E21.67457
G1 X81.619 Y99.155 E21.71118
G1 X80.808 Y99.204 E21.74839
G1 X80.349 Y99.213 E21.76941
G1 X79.381 Y99.204 E21.81375
G1 X78.139 Y99.143 E21.8707
G1 X77.866 Y99.12 E21.88325
G1 X77.152 Y99.039 E21.91616
G1 X76.512 Y98.946 E21.94578
G1 X76.058 Y98.867 E21.96688
G1 X74.902 Y98.618 E22.02104
G1 X74.074 Y98.401 E22.06024
G1 X73.175 Y98.131 E22.10323
G1 X72.496 Y97.899 E22.1361
G1 X71.942 Y97.685 E22.1633
G1 X71.443 Y97.45 E22.18856
G1 X70.984 Y97.144 E22.21382
G1 X70.573 Y96.776 E22.23909
G1 X70.22 Y96.352 E22.26436
G1 X69.889 Y95.797 E22.29395
G1 X69.34 Y94.669 E22.35141
G1 X68.091 Y92.185 E22.47875
G1 X66.638 Y89.499 E22.61861
G1 X66.003 Y88.37 E22.67793
G1 X65.768 Y87.871 E22.70319
G1 X65.608 Y87.343 E22.72846
G1 X65.521 Y86.729 E22.75686
G1 X65.466 Y85.802 E22.79939
G1 X65.425 Y84.885 E22.84143
