;FLAVOR:Marlin
;TIME:1223
;Filament used: 1.31413m
;Layer height: 0.15
;MINX:45.135
;MINY:24.553
;MINZ:0.2
;MAXX:114.769
;MAXY:135.453
;MAXZ:2.7
;Generated with Cura_SteamEngine 5.2.1
M82 ;absolute extrusion mode


; Pre-Processed for Cancel-Object support by preprocess_cancellation v0.2.0
; 1 known objects
EXCLUDE_OBJECT_DEFINE NAME=Print_22_Door_inner_frame_0_15mm_PLA_20x20_3mf_3 CENTER=80.406,80.893 POLYGON=[[49.189,28.579],[49.189,131.42],[110.924,131.42],[110.924,28.579]]
PRINT_START BED=70 EXTRUDER=220 STANDBY=175 CHAMBER=28
G92 E0
G92 E0
G1 F2100 E-0.4
;LAYER_COUNT:16
;LAYER:0
M107
G1 F600 Z0.6
G0 F7200 X50.102 Y52.34 Z0.6
;TYPE:SKIRT
G1 F600 Z0.2
G1 F840 E0
G1 F1800 X50.432 Y52.064 E0.0197
G1 X50.87 Y51.748 E0.04444
G1 X51.362 Y51.447 E0.07085
G1 X52.075 Y51.043 E0.10839
G1 X82.008 Y34.718 E1.66993
G1 X97.922 Y26.027 E2.50038
G1 X98.788 Y25.572 E2.54518
G1 X99.008 Y25.466 E2.55637
G1 X99.528 Y25.234 E2.58245
G1 X99.973 Y25.067 E2.60422
G1 X100.401 Y24.937 E2.6247
G1 X100.911 Y24.808 E2.6488
G1 X101.151 Y24.758 E2.66002
G1 X101.777 Y24.656 E2.68907
G1 X102.181 Y24.616 E2.70766
G1 X102.531 Y24.598 E2.72372
G1 X103.672 Y24.575 E2.77598
G1 X109.983 Y24.553 E3.06502
G1 X110.681 Y24.56 E3.09699
G1 X111.231 Y24.606 E3.12227
G1 X111.769 Y24.73 E3.14756
G1 X112.282 Y24.931 E3.17279
G1 X112.762 Y25.204 E3.19808
G1 X113.197 Y25.543 E3.22334
G1 X113.579 Y25.941 E3.2486
G1 X113.899 Y26.391 E3.27389
G1 X114.15 Y26.882 E3.29915
G1 X114.329 Y27.404 E3.32442
G1 X114.429 Y27.946 E3.34967
G1 X114.451 Y28.242 E3.36326
G1 X114.464 Y28.685 E3.38356
G1 X114.769 Y130.745 E8.05784
G1 X114.761 Y131.464 E8.09078
G1 X114.715 Y132.014 E8.11605
G1 X114.59 Y132.552 E8.14135
G1 X114.388 Y133.065 E8.1666
G1 X114.115 Y133.544 E8.19185
G1 X113.775 Y133.979 E8.21714
G1 X113.376 Y134.36 E8.2424
G1 X112.927 Y134.68 E8.26766
G1 X112.435 Y134.931 E8.29295
G1 X111.913 Y135.109 E8.31821
G1 X111.37 Y135.209 E8.3435
G1 X111.059 Y135.23 E8.35778
G1 X110.54 Y135.244 E8.38155
G1 X51.393 Y135.453 E11.09046
G1 X50.636 Y135.445 E11.12513
G1 X50.11 Y135.412 E11.14927
G1 X49.302 Y135.258 E11.18694
G1 X48.915 Y135.14 E11.20547
G1 X48.189 Y134.834 E11.24155
G1 X47.871 Y134.659 E11.25817
G1 X47.313 Y134.284 E11.28897
G1 X47.125 Y134.132 E11.30004
G1 X46.778 Y133.814 E11.32159
G1 X46.587 Y133.616 E11.33419
G1 X46.094 Y132.984 E11.3709
G1 X45.893 Y132.661 E11.38833
G1 X45.565 Y131.997 E11.42225
G1 X45.445 Y131.68 E11.43777
G1 X45.249 Y130.952 E11.4723
G1 X45.211 Y130.722 E11.48298
G1 X45.168 Y130.355 E11.4999
G1 X45.143 Y129.981 E11.51707
G1 X45.135 Y129.719 E11.52907
G1 X45.15 Y122.778 E11.84696
G1 X45.181 Y117.933 E12.06887
G1 X45.231 Y112.911 E12.29888
G1 X45.293 Y108.287 E12.51068
G1 X45.381 Y103.2 E12.74369
G1 X45.479 Y98.69 E12.95029
G1 X45.642 Y92.708 E13.22437
G1 X45.833 Y87.105 E13.48113
G1 X45.997 Y83.072 E13.66599
G1 X46.238 Y78.033 E13.89704
G1 X46.449 Y74.234 E14.07129
G1 X46.688 Y70.5 E14.24266
G1 X46.917 Y67.344 E14.38758
G1 X47.192 Y63.978 E14.54225
G1 X47.396 Y61.729 E14.64568
G1 X47.556 Y60.113 E14.72005
G1 X47.761 Y58.206 E14.8079
G1 X47.949 Y56.633 E14.88045
G1 X48.055 Y55.968 E14.91129
G1 X48.154 Y55.528 E14.93195
G1 X48.258 Y55.169 E14.94907
G1 X48.421 Y54.717 E14.97107
G1 X48.52 Y54.488 E14.9825
G1 X48.711 Y54.107 E15.00202
G1 X48.936 Y53.714 E15.02276
G1 X49.387 Y53.084 E15.05824
G1 X49.691 Y52.74 E15.07927
G1 X50.102 Y52.34 E15.10553
G0 F7200 X50.448 Y52.755
G1 F1800 X50.778 Y52.479 E15.12524
G1 X51.155 Y52.207 E15.14653
G1 X51.628 Y51.916 E15.17196
G1 X52.333 Y51.517 E15.20906
G1 X82.266 Y35.192 E16.7706
G1 X98.127 Y26.53 E17.59829
G1 X99.039 Y26.05 E17.64549
G1 X99.748 Y25.727 E17.68117
G1 X100.13 Y25.584 E17.69985
G1 X100.558 Y25.454 E17.72034
G1 X101.038 Y25.333 E17.74301
G1 X101.243 Y25.29 E17.75261
G1 X101.838 Y25.193 E17.78022
G1 X102.213 Y25.155 E17.79748
G1 X102.542 Y25.138 E17.81257
G1 X103.674 Y25.115 E17.86442
G1 X109.978 Y25.093 E18.15314
G1 X110.676 Y25.1 E18.18511
G1 X111.185 Y25.145 E18.20851
G1 X111.681 Y25.269 E18.23193
G1 X112.151 Y25.469 E18.25532
G1 X112.585 Y25.739 E18.27873
G1 X112.971 Y26.074 E18.30214
G1 X113.3 Y26.465 E18.32554
G1 X113.565 Y26.902 E18.34895
G1 X113.758 Y27.375 E18.37235
G1 X113.875 Y27.873 E18.39578
G1 X113.911 Y28.26 E18.41358
G1 X113.924 Y28.686 E18.4331
G1 X114.229 Y130.739 E23.10706
G1 X114.221 Y131.458 E23.14
G1 X114.175 Y131.967 E23.1634
G1 X114.051 Y132.463 E23.18682
G1 X113.851 Y132.933 E23.21021
G1 X113.58 Y133.367 E23.23365
G1 X113.245 Y133.753 E23.25705
G1 X112.854 Y134.082 E23.28046
G1 X112.416 Y134.346 E23.30388
G1 X111.942 Y134.538 E23.3273
G1 X111.445 Y134.654 E23.35067
G1 X111.044 Y134.691 E23.36912
G1 X110.62 Y134.703 E23.38854
G1 X51.398 Y134.913 E26.10088
G1 X50.641 Y134.905 E26.13555
G1 X50.153 Y134.874 E26.15795
G1 X49.459 Y134.742 E26.1903
G1 X49.072 Y134.624 E26.20883
G1 X48.449 Y134.361 E26.23981
G1 X48.131 Y134.186 E26.25643
G1 X47.652 Y133.864 E26.28286
G1 X47.464 Y133.712 E26.29394
G1 X47.167 Y133.439 E26.31241
G1 X46.976 Y133.241 E26.32501
G1 X46.553 Y132.699 E26.3565
G1 X46.352 Y132.376 E26.37392
G1 X46.07 Y131.806 E26.40305
G1 X45.95 Y131.489 E26.41857
G1 X45.782 Y130.864 E26.44821
G1 X45.744 Y130.634 E26.45889
G1 X45.707 Y130.319 E26.47342
G1 X45.682 Y129.945 E26.49058
G1 X45.675 Y129.72 E26.50089
G1 X45.69 Y122.781 E26.81869
G1 X45.721 Y117.938 E27.0405
G1 X45.771 Y112.918 E27.27043
G1 X45.832 Y108.296 E27.48213
G1 X45.921 Y103.212 E27.71501
G1 X46.019 Y98.705 E27.92147
G1 X46.182 Y92.727 E28.19536
G1 X46.373 Y87.127 E28.45199
G1 X46.537 Y83.098 E28.63667
G1 X46.777 Y78.063 E28.86753
G1 X46.988 Y74.268 E29.0416
G1 X47.227 Y70.539 E29.21274
G1 X47.455 Y67.388 E29.35743
G1 X47.729 Y64.027 E29.51187
G1 X47.933 Y61.783 E29.61507
G1 X48.093 Y60.171 E29.68926
G1 X48.297 Y58.27 E29.77682
G1 X48.485 Y56.697 E29.84938
G1 X48.588 Y56.056 E29.87911
G1 X48.673 Y55.678 E29.89686
G1 X48.777 Y55.319 E29.91397
G1 X48.916 Y54.931 E29.93285
G1 X49.015 Y54.702 E29.94428
G1 X49.179 Y54.375 E29.96103
G1 X49.404 Y53.982 E29.98177
G1 X49.792 Y53.442 E30.01223
G1 X50.096 Y53.098 E30.03325
G1 X50.448 Y52.755 E30.05576
G1 F2100 E29.65576
G1 F600 Z0.6
;MESH:Print 22 - Door inner frame - 0.15mm_PLA_20x20.3mf(3)
EXCLUDE_OBJECT_START NAME=Print_22_Door_inner_frame_0_15mm_PLA_20x20_3mf_3
G0 F7200 X53.809 Y54.853 Z0.6
;TYPE:WALL-OUTER
G1 F600 Z0.2
G1 F840 E30.05576
G1 F1357.5 X53.427 Y55.043 E30.08167
G1 F1370.9 X53.189 Y55.19 E30.09849
G1 F1355.6 X53.051 Y55.287 E30.10875
G1 F1342.5 X52.774 Y55.531 E30.13141
G1 F1329.7 X52.535 Y55.822 E30.15476
G1 X52.362 Y56.104 E30.17527
G1 F1337 X52.248 Y56.353 E30.19216
G1 F1357.5 X52.179 Y56.543 E30.20443
G1 F1390.6 X52.097 Y56.898 E30.22603
G1 F1402.6 X52.048 Y57.336 E30.25194
G1 F1333.3 X52.034 Y57.737 E30.27675
G1 F2100 E29.87675
G0 F7200 X52.046 Y58.127
G0 X52.152 Y58.501
G0 X52.59 Y59.214
G0 X52.98 Y60.101
G0 X53.832 Y60.495
G0 X54.761 Y60.627
G0 X55.671 Y60.491
G0 X56.298 Y59.749
G0 X60.174 Y56.416
G0 X85.231 Y43.238
G0 X104.931 Y43.578
G0 X105.404 Y43.83
G1 F840 E30.27675
G0 F7200 X105.264 Y43.83
;TYPE:WALL-INNER
G1 F1800 X105.289 Y44.029 E30.28593
G1 X105.52 Y121.974 E33.85577
G1 X105.512 Y122.315 E33.87139
G1 X105.489 Y122.687 E33.88846
G1 X105.444 Y123.057 E33.90553
G1 X105.376 Y123.41 E33.92199
G1 X105.3 Y123.683 E33.93497
G1 X105.181 Y124.014 E33.95108
G1 X105 Y124.405 E33.97081
G1 X104.773 Y124.783 E33.99101
G1 X104.498 Y125.156 E34.01223
G1 X104.186 Y125.499 E34.03347
G1 X103.839 Y125.815 E34.05496
G1 X103.476 Y126.089 E34.07579
G1 X103.108 Y126.311 E34.09548
G1 X102.792 Y126.464 E34.11156
G1 X102.317 Y126.64 E34.13476
G1 X102.039 Y126.713 E34.14792
G1 X101.78 Y126.766 E34.16003
G1 X101.291 Y126.827 E34.1826
G1 X100.722 Y126.856 E34.20869
G1 X59.086 Y126.781 E36.11559
G1 X58.675 Y126.775 E36.13441
G1 X58.091 Y126.737 E36.16122
G1 X57.69 Y126.675 E36.1798
G1 X57.318 Y126.593 E36.19725
G1 X56.986 Y126.487 E36.21321
G1 X56.613 Y126.333 E36.23169
G1 X56.266 Y126.148 E36.2497
G1 X55.932 Y125.931 E36.26794
G1 F1971.6 X55.46 Y125.485 E36.2951
G1 F2099.4 X54.91 Y124.905 E36.32648
G1 F1909.6 X54.697 Y124.652 E36.34076
G1 F1803.3 X54.482 Y124.293 E36.35989
G1 F1800 X54.33 Y123.974 E36.37607
G1 X54.198 Y123.623 E36.39325
G1 X54.104 Y123.294 E36.40892
G1 X54.03 Y122.903 E36.42715
G1 X53.979 Y122.431 E36.44889
G1 X53.958 Y121.859 E36.4751
G1 X53.988 Y118.019 E36.65098
G1 X54.138 Y106.589 E37.17451
G1 X54.329 Y97.368 E37.59691
G1 X54.583 Y89.039 E37.97855
G1 X54.719 Y85.447 E38.14318
G1 X54.983 Y79.619 E38.41037
G1 X55.181 Y75.912 E38.58039
G1 X55.407 Y72.205 E38.75048
G1 X55.513 Y70.636 E38.82251
G1 X55.785 Y66.979 E38.99046
G1 X55.957 Y64.905 E39.08577
G1 X56.117 Y63.131 E39.16735
G1 X56.335 Y60.95 E39.26773
G1 X56.388 Y60.574 E39.28513
G1 X56.464 Y60.205 E39.30238
G1 X56.518 Y60.014 E39.31147
G1 X56.44 Y60.067 E39.31579
G1 X56.066 Y60.273 E39.33534
G1 X55.691 Y60.419 E39.35377
G1 X55.27 Y60.517 E39.37357
G1 X55.157 Y60.533 E39.3788
G1 X54.82 Y60.56 E39.39428
G1 X54.701 Y60.56 E39.39973
G1 X54.31 Y60.532 E39.41769
G1 X53.902 Y60.447 E39.43677
G1 X53.783 Y60.412 E39.44245
G1 X53.46 Y60.288 E39.4583
G1 X53.354 Y60.238 E39.46367
G1 X53.063 Y60.075 E39.47894
G1 X52.971 Y60.014 E39.484
G1 X52.699 Y59.808 E39.49963
G1 X52.608 Y59.728 E39.50518
G1 X52.367 Y59.482 E39.52095
G1 X52.282 Y59.377 E39.52713
G1 X52.157 Y60.547 E39.58102
G1 X51.994 Y62.188 E39.65655
G1 X51.815 Y64.147 E39.74665
G1 X51.542 Y67.445 E39.89821
G1 X51.284 Y71.017 E40.06223
G1 X51.06 Y74.534 E40.22363
G1 X50.868 Y77.961 E40.38083
G1 X50.601 Y83.564 E40.63774
G1 X50.442 Y87.509 E40.81856
G1 X50.265 Y92.695 E41.05621
G1 X50.099 Y98.819 E41.33679
G1 X49.912 Y108.372 E41.77439
G1 X49.802 Y117.983 E42.2146
G1 X49.768 Y125.636 E42.5651
G1 X49.858 Y125.542 E42.57106
G1 X50.132 Y125.3 E42.58781
G1 X50.216 Y125.235 E42.59267
G1 X50.54 Y125.017 E42.61056
G1 X50.636 Y124.962 E42.61562
G1 X50.963 Y124.801 E42.63232
G1 X51.392 Y124.646 E42.65321
G1 X51.498 Y124.616 E42.65825
G1 X51.888 Y124.538 E42.67647
G1 X51.997 Y124.523 E42.68151
G1 X52.357 Y124.5 E42.69803
G1 X52.819 Y124.522 E42.71921
G1 X52.924 Y124.535 E42.72406
G1 X53.362 Y124.621 E42.7445
G1 X53.759 Y124.754 E42.76368
G1 X54.174 Y124.947 E42.78464
G1 X54.268 Y125.001 E42.7896
G1 F1928.6 X54.634 Y125.288 E42.80948
G1 F2150.4 X54.972 Y125.606 E42.82727
G1 F2131.6 X55.333 Y125.998 E42.84788
G1 F1917.2 X55.57 Y126.294 E42.86419
G1 F1800 X55.778 Y126.706 E42.88533
G1 X55.941 Y127.167 E42.90772
G1 X55.97 Y127.272 E42.91271
G1 X56.048 Y127.673 E42.93142
G1 X56.078 Y128.127 E42.95226
G1 X56.053 Y128.585 E42.97327
G1 X55.967 Y129.051 E42.99497
G1 X55.939 Y129.158 E43.00003
G1 X55.823 Y129.5 E43.01657
G1 X55.628 Y129.915 E43.03757
G1 X55.38 Y130.31 E43.05894
G1 X55.313 Y130.399 E43.06404
G1 X55.056 Y130.697 E43.08206
G1 X54.927 Y130.82 E43.09022
G1 X110.148 Y130.624 E45.61932
G1 X109.865 Y35.636 E49.96971
G1 X109.845 Y29.172 E50.26576
G1 X102.84 Y29.198 E50.58658
G1 X102.593 Y29.208 E50.59791
G1 X102.321 Y29.234 E50.61042
G1 X102.057 Y29.276 E50.62266
G1 X101.794 Y29.335 E50.63501
G1 X101.545 Y29.406 E50.64687
G1 X101.277 Y29.499 E50.65986
G1 X101.034 Y29.602 E50.67195
G1 X100.788 Y29.726 E50.68456
G1 X55.619 Y54.371 E53.04116
G1 X55.802 Y54.424 E53.04989
G1 X55.915 Y54.467 E53.05542
G1 X56.222 Y54.609 E53.07092
G1 X56.324 Y54.666 E53.07627
G1 X56.626 Y54.863 E53.09278
G1 X56.724 Y54.938 E53.09843
G1 X56.975 Y55.163 E53.11387
G1 X57.058 Y55.249 E53.11934
G1 X57.273 Y55.508 E53.13476
G1 X57.339 Y55.601 E53.13998
G1 X57.525 Y55.903 E53.15623
G1 X57.58 Y56.009 E53.1617
G1 X57.71 Y56.313 E53.17684
G1 X57.748 Y56.422 E53.18213
G1 X57.839 Y56.761 E53.1982
G1 X57.862 Y56.884 E53.20393
G1 X57.898 Y57.21 E53.21895
G1 X57.902 Y57.335 E53.22468
G1 X57.89 Y57.684 E53.24068
G1 X57.878 Y57.799 E53.24597
G1 X57.837 Y58.024 E53.25645
G1 X58.137 Y57.802 E53.27354
G1 X58.565 Y57.538 E53.29657
G1 X85.063 Y43.384 E54.67244
G1 X85.249 Y43.312 E54.68157
G1 X85.442 Y43.289 E54.69047
G1 X104.476 Y43.222 E55.56222
G1 X104.584 Y43.228 E55.56718
G1 X104.704 Y43.253 E55.57279
G1 X104.832 Y43.302 E55.57907
G1 X104.963 Y43.382 E55.5861
G1 X105.088 Y43.497 E55.59388
G1 X105.193 Y43.648 E55.6023
G1 X105.264 Y43.83 E55.61125
G0 F7200 X104.682 Y43.853
;TYPE:WALL-OUTER
G1 F1800 X104.717 Y43.904 E55.61408
G1 X104.741 Y43.964 E55.61704
G1 X104.749 Y44.031 E55.62013
G1 X104.98 Y121.954 E59.18896
G1 X104.973 Y122.283 E59.20403
G1 X104.953 Y122.625 E59.21972
G1 X104.913 Y122.959 E59.23512
G1 X104.856 Y123.265 E59.24938
G1 X104.78 Y123.538 E59.26236
G1 X104.666 Y123.848 E59.27749
G1 X104.535 Y124.131 E59.29177
G1 X104.349 Y124.446 E59.30852
G1 X104.096 Y124.796 E59.3283
G1 X103.837 Y125.085 E59.34607
G1 X103.528 Y125.372 E59.36539
G1 X103.194 Y125.629 E59.38469
G1 X102.872 Y125.825 E59.40195
G1 X102.556 Y125.978 E59.41803
G1 X102.2 Y126.111 E59.43544
G1 X101.93 Y126.184 E59.44825
G1 X101.67 Y126.237 E59.4604
G1 X101.226 Y126.291 E59.48089
G1 X100.682 Y126.316 E59.50583
G1 X59.095 Y126.241 E61.41048
G1 X58.671 Y126.234 E61.4299
G1 X58.127 Y126.198 E61.45487
G1 X57.802 Y126.147 E61.46994
G1 X57.499 Y126.083 E61.48412
G1 X57.187 Y125.985 E61.4991
G1 X56.865 Y125.855 E61.51501
G1 X56.555 Y125.691 E61.53107
G1 X56.275 Y125.513 E61.54626
G1 F1803.3 X56.011 Y125.309 E61.56152
G1 X55.765 Y125.095 E61.57642
G1 F1800 X55.548 Y124.869 E61.59077
G1 X55.339 Y124.625 E61.60548
G1 F1803.3 X55.159 Y124.371 E61.61972
G1 X54.968 Y124.057 E61.63652
G1 F1800 X54.835 Y123.782 E61.65051
G1 X54.712 Y123.455 E61.66651
G1 X54.625 Y123.151 E61.68099
G1 X54.57 Y122.867 E61.69424
G1 X54.516 Y122.373 E61.717
G1 X54.498 Y121.829 E61.74193
G1 X54.528 Y118.026 E61.91611
G1 X54.678 Y106.6 E62.43945
G1 X54.869 Y97.384 E62.86163
G1 X55.123 Y89.059 E63.24309
G1 X55.259 Y85.471 E63.40753
G1 X55.522 Y79.648 E63.67449
G1 X55.72 Y75.945 E63.84433
G1 X55.946 Y72.241 E64.01428
G1 X56.051 Y70.676 E64.08612
G1 X56.323 Y67.023 E64.25389
G1 X56.495 Y64.954 E64.34897
G1 X56.655 Y63.185 E64.43032
G1 X56.87 Y61.026 E64.52969
G1 X56.924 Y60.648 E64.54718
G1 X56.993 Y60.315 E64.56276
G1 X57.099 Y59.954 E64.57999
G1 F1693.4 X57.286 Y59.443 E64.60648
G1 F1609.3 X57.366 Y59.31 E64.61443
G1 F1614.6 X57.546 Y59.042 E64.63091
G1 F1661.5 X57.717 Y58.861 E64.64327
G1 F1757.7 X58.084 Y58.517 E64.66686
G1 F1800 X58.256 Y58.38 E64.67693
G1 X58.464 Y58.233 E64.68859
G1 X58.861 Y57.99 E64.70991
G1 X85.317 Y43.86 E66.08357
G1 X85.379 Y43.836 E66.08661
G1 X85.444 Y43.829 E66.0896
G1 X104.514 Y43.764 E66.963
G1 X104.597 Y43.788 E66.96696
G1 X104.641 Y43.815 E66.96932
G1 X104.682 Y43.853 E66.97188
G0 F7200 X104.717 Y43.904
G0 X104.741 Y43.964
G0 X104.749 Y44.031
G0 X104.749 Y44.039
G1 F2100 E66.57188
G0 F7200 X105.405 Y44.038
G0 X105.545 Y122.669
G0 X105.344 Y123.729
G0 X104.84 Y124.783
G0 X104.251 Y125.511
G0 X103.55 Y126.103
G0 X102.777 Y126.531
G0 X101.779 Y126.822
G0 X100.703 Y126.91
G0 X58.655 Y126.828
G0 X57.699 Y126.732
G0 X56.635 Y126.403
G0 X55.669 Y125.8
G0 X54.865 Y124.985
G0 X54.294 Y124.031
G0 X53.981 Y122.945
G0 X53.904 Y121.843
G0 X54.166 Y102.149
G0 X54.53 Y89.041
G0 X55.127 Y75.914
G0 X55.732 Y66.979
G0 X56.337 Y60.555
G0 X55.67 Y60.482
G0 X54.933 Y60.591
G0 X53.747 Y60.517
G1 F840 E66.97188
G0 F7200 X53.977 Y59.908
G1 F1800 X53.618 Y59.767 E66.98955
G1 X53.297 Y59.584 E67.00647
G1 X53.025 Y59.378 E67.0221
G1 X52.729 Y59.075 E67.0415
G1 X52.529 Y58.801 E67.05703
G1 X52.34 Y58.442 E67.07561
G1 F1754.5 X52.198 Y58.079 E67.09393
G1 F1667.2 X52.173 Y58.042 E67.09614
G1 F1429.4 X52.034 Y57.737 E67.11547
G1 F1461.7 X51.894 Y58.111 E67.13799
G1 F1754.5 X51.839 Y58.456 E67.15441
G1 F1800 X51.637 Y60.314 E67.24
G1 X51.456 Y62.138 E67.32395
G1 X51.277 Y64.102 E67.41427
G1 X51.003 Y67.406 E67.56611
G1 X50.745 Y70.983 E67.73036
G1 X50.521 Y74.504 E67.89195
G1 X50.329 Y77.935 E68.04933
G1 X50.061 Y83.542 E68.30642
G1 X49.902 Y87.49 E68.48738
G1 X49.725 Y92.68 E68.72522
G1 X49.559 Y98.808 E69.00598
G1 X49.372 Y108.366 E69.44381
G1 X49.262 Y117.981 E69.8842
G1 X49.222 Y127.301 E70.31105
G1 F1639.1 X49.273 Y127.748 E70.33368
G1 F1622.7 X49.393 Y127.368 E70.35392
G1 F1780.2 X49.525 Y126.991 E70.37242
G1 F1800 X49.71 Y126.609 E70.39186
