;FLAVOR:Marlin
;TIME:836
;Filament used: 0.997756m
;Layer height: 0.15
;MINX:36.552
;MINY:46.836
;MINZ:0.2
;MAXX:123.452
;MAXY:113.215
;MAXZ:0.6
;Generated with Cura_SteamEngine 5.2.1
M82 ;absolute extrusion mode


; Pre-Processed for Cancel-Object support by preprocess_cancellation v0.2.0
; 1 known objects
EXCLUDE_OBJECT_DEFINE NAME=Print_25_Glass_0_15mm_PLA_20x20_3mf CENTER=80.960,79.890 POLYGON=[[40.588,50.871],[40.588,109.182],[119.416,109.182],[119.416,50.871]]
PRINT_START BED=70 EXTRUDER=220 STANDBY=175 CHAMBER=28
G92 E0
G92 E0
G1 F2100 E-0.4
;LAYER_COUNT:3
;LAYER:0
M107
G1 F600 Z0.6
G0 F7200 X37.96 Y47.706 Z0.6
;TYPE:SKIRT
G1 F600 Z0.2
G1 F840 E0
G1 F1800 X38.411 Y47.389 E0.02525
G1 X38.903 Y47.139 E0.05052
G1 X39.426 Y46.964 E0.07578
G1 X39.969 Y46.866 E0.10105
G1 X40.268 Y46.845 E0.11478
G1 X40.592 Y46.836 E0.12962
G1 X118.992 Y46.837 E3.72028
G1 X119.688 Y46.847 E3.75216
G1 X120.237 Y46.895 E3.7774
G1 X120.774 Y47.022 E3.80267
G1 X121.287 Y47.225 E3.82794
G1 X121.766 Y47.5 E3.85324
G1 X122.199 Y47.841 E3.87848
G1 X122.579 Y48.241 E3.90375
G1 X122.897 Y48.692 E3.92902
G1 X123.147 Y49.184 E3.9543
G1 X123.323 Y49.707 E3.97957
G1 X123.421 Y50.25 E4.00484
G1 X123.441 Y50.549 E4.01857
G1 X123.452 Y50.975 E4.03808
G1 X123.45 Y103.393 E6.43879
G1 X123.44 Y104.093 E6.47085
G1 X123.392 Y104.643 E6.49613
G1 X123.265 Y105.18 E6.52141
G1 X123.062 Y105.693 E6.54667
G1 X122.787 Y106.171 E6.57193
G1 X122.376 Y106.68 E6.60189
G1 X121.947 Y107.125 E6.6302
G1 X117.466 Y111.606 E6.92044
G1 X116.918 Y112.138 E6.95542
G1 X116.495 Y112.492 E6.98068
G1 X116.026 Y112.782 E7.00593
G1 X115.519 Y113.001 E7.03123
G1 X114.987 Y113.145 E7.05647
G1 X114.264 Y113.214 E7.08973
G1 X46.376 Y113.215 E10.19895
G1 X45.677 Y113.205 E10.23096
G1 X45.128 Y113.157 E10.2562
G1 X44.591 Y113.03 E10.28148
G1 X44.078 Y112.827 E10.30674
G1 X43.599 Y112.552 E10.33204
G1 X43.149 Y112.195 E10.35835
G1 X42.884 Y111.947 E10.37497
G1 X38.107 Y107.174 E10.68425
G1 X37.636 Y106.688 E10.71524
G1 X37.282 Y106.265 E10.74051
G1 X36.992 Y105.795 E10.7658
G1 X36.774 Y105.288 E10.79107
G1 X36.631 Y104.755 E10.81635
G1 X36.563 Y104.105 E10.84628
G1 X36.552 Y103.48 E10.87491
G1 X36.554 Y51.265 E13.26632
G1 X36.564 Y50.597 E13.29691
G1 X36.613 Y50.047 E13.3222
G1 X36.74 Y49.51 E13.34747
G1 X36.943 Y48.998 E13.3727
G1 X37.218 Y48.519 E13.398
G1 X37.56 Y48.086 E13.42327
G1 X37.96 Y47.706 E13.44853
G0 F7200 X38.482 Y47.987
G1 F1800 X38.92 Y47.725 E13.47191
G1 X39.395 Y47.534 E13.49536
G1 X39.893 Y47.42 E13.51876
G1 X40.283 Y47.385 E13.53669
G1 X40.698 Y47.375 E13.5557
G1 X118.984 Y47.377 E17.14114
G1 X119.68 Y47.387 E17.17302
G1 X120.189 Y47.435 E17.19643
G1 X120.684 Y47.561 E17.21983
G1 X121.154 Y47.762 E17.24324
G1 X121.586 Y48.034 E17.26662
G1 X121.971 Y48.371 E17.29005
G1 X122.299 Y48.763 E17.31346
G1 X122.561 Y49.202 E17.33687
G1 X122.752 Y49.676 E17.36028
G1 X122.867 Y50.174 E17.38369
G1 X122.902 Y50.564 E17.40162
G1 X122.912 Y50.975 E17.42045
G1 X122.91 Y103.386 E19.82083
G1 X122.9 Y104.086 E19.8529
G1 X122.852 Y104.595 E19.87631
G1 X122.727 Y105.09 E19.89969
G1 X122.525 Y105.56 E19.92312
G1 X122.253 Y105.992 E19.9465
G1 X121.987 Y106.306 E19.96535
G1 X121.61 Y106.698 E19.99026
G1 X117.09 Y111.218 E20.28302
G1 X116.542 Y111.75 E20.318
G1 X116.148 Y112.076 E20.34142
G1 X115.709 Y112.337 E20.36481
G1 X115.234 Y112.527 E20.38824
G1 X114.736 Y112.64 E20.41163
G1 X114.264 Y112.674 E20.4333
G1 X46.384 Y112.675 E23.54215
G1 X45.685 Y112.665 E23.57417
G1 X45.176 Y112.617 E23.59758
G1 X44.681 Y112.492 E23.62097
G1 X44.211 Y112.29 E23.6444
G1 X43.779 Y112.018 E23.66778
G1 X43.515 Y111.798 E23.68351
G1 X43.266 Y111.565 E23.69913
G1 X38.495 Y106.798 E24.00802
G1 X38.024 Y106.312 E24.03902
G1 X37.698 Y105.918 E24.06244
G1 X37.437 Y105.478 E24.08587
G1 X37.248 Y105.004 E24.10924
G1 X37.136 Y104.505 E24.13266
G1 X37.103 Y104.095 E24.1515
G1 X37.092 Y103.48 E24.17967
G1 X37.094 Y51.273 E26.57071
G1 X37.104 Y50.605 E26.60131
G1 X37.152 Y50.096 E26.62472
G1 X37.278 Y49.601 E26.64812
G1 X37.48 Y49.131 E26.67155
G1 X37.753 Y48.699 E26.69495
G1 X38.089 Y48.315 E26.71832
G1 X38.482 Y47.987 E26.74176
G1 F2100 E26.34176
G1 F600 Z0.6
;MESH:Print 25 - Glass - 0.15mm_PLA_20x20.3mf
EXCLUDE_OBJECT_START NAME=Print_25_Glass_0_15mm_PLA_20x20_3mf
G0 F7200 X41.173 Y103.704 Z0.6
;TYPE:WALL-INNER
G1 F600 Z0.2
G1 F840 E26.74176
G1 F1800 X46.063 Y108.595 E27.05852
G1 X113.939 Y108.597 E30.16719
G1 X118.83 Y103.707 E30.48394
G1 X118.83 Y80.027 E31.56847
G1 X118.831 Y51.457 E32.87695
G1 X41.174 Y51.456 E36.43358
G1 X41.173 Y103.704 E38.8265
G0 F7200 X40.633 Y103.928
;TYPE:WALL-OUTER
G1 F1800 X45.839 Y109.135 E39.16372
G1 X114.163 Y109.137 E42.29291
G1 X119.37 Y103.931 E42.63013
G1 X119.37 Y80.027 E43.72492
G1 X119.371 Y50.917 E45.05813
G1 X40.634 Y50.916 E48.66422
G1 X40.633 Y103.928 E51.09213
G0 F7200 X40.774 Y104.069
G0 X41.279 Y103.662
G0 X41.343 Y103.489
G0 X41.69 Y103.489
;TYPE:SKIN
G1 F1800 X46.278 Y108.078 E51.38933
G1 X113.724 Y108.08 E54.4783
G1 X118.313 Y103.492 E54.7755
G1 X118.313 Y80.026 E55.85022
G1 X118.313 Y51.974 E57.13498
G1 X41.691 Y51.974 E60.64421
G1 X41.69 Y103.489 E63.00355
G0 F7200 X41.343 Y103.489
G0 X41.407 Y103.607
G0 X46.16 Y108.361
G0 X46.713 Y108.425
G0 X46.713 Y107.807
G1 F1800 X41.959 Y103.053 E63.31147
G0 F7200 X41.959 Y102.29
G1 F1800 X47.477 Y107.807 E63.66884
G0 F7200 X48.24 Y107.807
G1 F1800 X41.959 Y101.526 E64.07566
G0 F7200 X41.959 Y100.762
G1 F1800 X49.004 Y107.807 E64.53196
G0 F7200 X49.768 Y107.807
G1 F1800 X41.959 Y99.999 E65.03772
G0 F7200 X41.959 Y99.235
G1 F1800 X50.531 Y107.807 E65.59292
G0 F7200 X51.295 Y107.807
G1 F1800 X41.959 Y98.471 E66.19761
G0 F7200 X41.959 Y97.708
G1 F1800 X52.059 Y107.807 E66.85176
G0 F7200 X52.822 Y107.807
G1 F1800 X41.959 Y96.944 E67.55535
G0 F7200 X41.959 Y96.18
G1 F1800 X53.586 Y107.807 E68.30843
G0 F7200 X54.35 Y107.807
G1 F1800 X41.959 Y95.416 E69.11099
G0 F7200 X41.959 Y94.653
G1 F1800 X55.114 Y107.807 E69.96301
G0 F7200 X55.877 Y107.807
G1 F1800 X41.959 Y93.889 E70.86448
G0 F7200 X41.959 Y93.125
G1 F1800 X56.641 Y107.807 E71.81543
G0 F7200 X57.405 Y107.807
G1 F1800 X41.959 Y92.362 E72.81583
G0 F7200 X41.959 Y91.598
G1 F1800 X58.168 Y107.807 E73.86569
G0 F7200 X58.932 Y107.807
G1 F1800 X41.959 Y90.834 E74.96502
G0 F7200 X41.959 Y90.071
G1 F1800 X59.696 Y107.807 E76.11381
G0 F7200 X60.459 Y107.807
G1 F1800 X41.959 Y89.307 E77.31206
G0 F7200 X41.959 Y88.543
G1 F1800 X61.223 Y107.807 E78.55978
G0 F7200 X61.987 Y107.807
G1 F1800 X41.959 Y87.78 E79.85696
G0 F7200 X41.959 Y87.016
G1 F1800 X62.75 Y107.807 E81.20359
G0 F7200 X63.514 Y107.807
G1 F1800 X41.959 Y86.252 E82.59971
G0 F7200 X41.959 Y85.489
G1 F1800 X64.278 Y107.807 E84.04527
G0 F7200 X65.041 Y107.807
G1 F1800 X41.959 Y84.725 E85.54029
G0 F7200 X41.959 Y83.961
G1 F1800 X65.805 Y107.807 E87.08479
G0 F7200 X66.569 Y107.807
G1 F1800 X41.959 Y83.198 E88.67875
G0 F7200 X41.959 Y82.434
G1 F1800 X67.332 Y107.807 E90.32215
G0 F7200 X68.096 Y107.807
G1 F1800 X41.959 Y81.67 E92.01504
G0 F7200 X41.959 Y80.907
G1 F1800 X68.86 Y107.808 E93.75742
G0 F7200 X69.624 Y107.808
G1 F1800 X41.959 Y80.143 E95.54927
G0 F7200 X41.959 Y79.379
G1 F1800 X70.388 Y107.808 E97.39062
G0 F7200 X71.151 Y107.808
G1 F1800 X41.959 Y78.616 E99.28138
G0 F7200 X41.959 Y77.852
G1 F1800 X71.915 Y107.808 E101.22162
G0 F7200 X72.679 Y107.808
G1 F1800 X41.959 Y77.088 E103.21135
G0 F7200 X41.959 Y76.325
G1 F1800 X73.442 Y107.808 E105.2505
G0 F7200 X74.206 Y107.808
G1 F1800 X41.959 Y75.561 E107.33914
G0 F7200 X41.959 Y74.797
G1 F1800 X74.97 Y107.808 E109.47725
G0 F7200 X75.733 Y107.808
G1 F1800 X41.959 Y74.034 E111.66479
G0 F7200 X41.959 Y73.27
G1 F1800 X76.497 Y107.808 E113.90181
G0 F7200 X77.261 Y107.808
G1 F1800 X41.959 Y72.506 E116.18832
G0 F7200 X41.959 Y71.743
G1 F1800 X78.024 Y107.808 E118.52424
G0 F7200 X78.788 Y107.808
G1 F1800 X41.959 Y70.979 E120.90965
G0 F7200 X41.959 Y70.215
G1 F1800 X79.552 Y107.808 E123.34455
G0 F7200 X80.316 Y107.808
G1 F1800 X41.959 Y69.452 E125.82889
G0 F7200 X41.959 Y68.688
G1 F1800 X81.079 Y107.808 E128.36269
G0 F7200 X81.843 Y107.808
G1 F1800 X41.959 Y67.924 E130.94597
G0 F7200 X41.959 Y67.161
G1 F1800 X82.607 Y107.808 E133.5787
G0 F7200 X83.37 Y107.808
G1 F1800 X41.959 Y66.397 E136.26089
G0 F7200 X41.959 Y65.633
G1 F1800 X84.134 Y107.808 E138.99255
G0 F7200 X84.898 Y107.808
G1 F1800 X41.959 Y64.869 E141.77371
G0 F7200 X41.959 Y64.106
G1 F1800 X85.661 Y107.808 E144.60428
G0 F7200 X86.425 Y107.808
G1 F1800 X41.959 Y63.342 E147.48434
G0 F7200 X41.959 Y62.578
G1 F1800 X87.189 Y107.808 E150.41388
G0 F7200 X87.952 Y107.808
G1 F1800 X41.959 Y61.815 E153.39284
G0 F7200 X41.959 Y61.051
G1 F1800 X88.716 Y107.808 E156.42128
G0 F7200 X89.48 Y107.808
G1 F1800 X41.959 Y60.287 E159.49921
G0 F7200 X41.959 Y59.524
G1 F1800 X90.243 Y107.808 E162.62656
G0 F7200 X91.007 Y107.808
G1 F1800 X41.959 Y58.76 E165.80339
G0 F7200 X41.959 Y57.996
G1 F1800 X91.771 Y107.809 E169.02974
G0 F7200 X92.535 Y107.809
G1 F1800 X41.959 Y57.233 E172.30554
G0 F7200 X41.959 Y56.469
G1 F1800 X93.299 Y107.809 E175.63082
G0 F7200 X94.062 Y107.809
G1 F1800 X41.959 Y55.705 E179.00556
G0 F7200 X41.959 Y54.942
G1 F1800 X94.826 Y107.809 E182.42975
G0 F7200 X95.59 Y107.809
G1 F1800 X41.959 Y54.178 E185.90342
G0 F7200 X41.959 Y53.414
G1 F1800 X96.353 Y107.809 E189.42654
G0 F7200 X97.117 Y107.809
G1 F1800 X41.959 Y52.651 E192.99912
G0 F7200 X42.316 Y52.243
G1 F1800 X97.881 Y107.809 E196.59809
G0 F7200 X98.644 Y107.809
G1 F1800 X43.079 Y52.243 E200.19706
G0 F7200 X43.843 Y52.243
G1 F1800 X99.408 Y107.809 E203.79603
G0 F7200 X100.172 Y107.809
G1 F1800 X44.607 Y52.243 E207.395
G0 F7200 X45.37 Y52.243
G1 F1800 X100.935 Y107.809 E210.99397
G0 F7200 X101.699 Y107.809
G1 F1800 X46.134 Y52.243 E214.59294
G0 F7200 X46.898 Y52.243
G1 F1800 X102.463 Y107.809 E218.19191
G0 F7200 X103.226 Y107.809
G1 F1800 X47.661 Y52.243 E221.79088
G0 F7200 X48.425 Y52.243
G1 F1800 X103.99 Y107.809 E225.38985
G0 F7200 X104.754 Y107.809
G1 F1800 X49.189 Y52.243 E228.98882
G0 F7200 X49.952 Y52.243
G1 F1800 X105.518 Y107.809 E232.58782
G0 F7200 X106.281 Y107.809
G1 F1800 X50.716 Y52.243 E236.18679
G0 F7200 X51.48 Y52.243
G1 F1800 X107.045 Y107.809 E239.78576
G0 F7200 X107.809 Y107.809
G1 F1800 X52.243 Y52.243 E243.38476
G0 F7200 X53.007 Y52.243
G1 F1800 X108.572 Y107.809 E246.98373
G0 F7200 X109.336 Y107.809
G1 F1800 X53.771 Y52.243 E250.5827
G0 F7200 X54.534 Y52.243
G1 F1800 X110.1 Y107.809 E254.1817
G0 F7200 X110.863 Y107.809
G1 F1800 X55.298 Y52.243 E257.78067
G0 F7200 X56.062 Y52.243
G1 F1800 X111.627 Y107.809 E261.37964
G0 F7200 X112.391 Y107.809
G1 F1800 X56.825 Y52.243 E264.97864
G0 F7200 X57.589 Y52.243
G1 F1800 X113.154 Y107.809 E268.57761
G0 F7200 X113.764 Y107.655
G1 F1800 X58.353 Y52.243 E272.16661
G0 F7200 X59.116 Y52.243
G1 F1800 X114.146 Y107.273 E275.73089
G0 F7200 X114.528 Y106.891
G1 F1800 X59.88 Y52.243 E279.27043
G0 F7200 X60.644 Y52.243
G1 F1800 X114.91 Y106.51 E282.78527
G0 F7200 X115.292 Y106.128
G1 F1800 X61.407 Y52.243 E286.27539
G0 F7200 X62.171 Y52.243
G1 F1800 X115.674 Y105.746 E289.74077
G0 F7200 X116.056 Y105.364
G1 F1800 X62.935 Y52.243 E293.18141
G0 F7200 X63.699 Y52.243
G1 F1800 X116.437 Y104.982 E296.59728
G0 F7200 X116.819 Y104.6
G1 F1800 X64.462 Y52.243 E299.98843
G0 F7200 X65.226 Y52.243
G1 F1800 X117.201 Y104.219 E303.35488
G0 F7200 X117.583 Y103.837
G1 F1800 X65.99 Y52.243 E306.69658
G0 F7200 X66.753 Y52.243
G1 F1800 X117.965 Y103.455 E310.01358
G0 F7200 X118.042 Y102.768
G1 F1800 X67.517 Y52.243 E313.28607
G0 F7200 X68.281 Y52.243
G1 F1800 X118.042 Y102.005 E316.50912
G0 F7200 X118.042 Y101.241
G1 F1800 X69.044 Y52.243 E319.68271
G0 F7200 X69.808 Y52.243
G1 F1800 X118.042 Y100.477 E322.80682
G0 F7200 X118.042 Y99.714
G1 F1800 X70.572 Y52.243 E325.88148
G0 F7200 X71.335 Y52.243
G1 F1800 X118.042 Y98.95 E328.90669
G0 F7200 X118.042 Y98.186
G1 F1800 X72.099 Y52.243 E331.88241
G0 F7200 X72.863 Y52.243
G1 F1800 X118.042 Y97.423 E334.80868
G0 F7200 X118.042 Y96.659
G1 F1800 X73.626 Y52.243 E337.68549
G0 F7200 X74.39 Y52.243
G1 F1800 X118.042 Y95.895 E340.51283
G0 F7200 X118.042 Y95.132
G1 F1800 X75.154 Y52.243 E343.29071
G0 F7200 X75.917 Y52.243
G1 F1800 X118.042 Y94.368 E346.01914
G0 F7200 X118.042 Y93.604
G1 F1800 X76.681 Y52.243 E348.69809
G0 F7200 X77.445 Y52.243
G1 F1800 X118.042 Y92.84 E351.32755
G0 F7200 X118.042 Y92.077
G1 F1800 X78.208 Y52.243 E353.90759
G0 F7200 X78.972 Y52.243
G1 F1800 X118.042 Y91.313 E356.43815
G0 F7200 X118.042 Y90.549
G1 F1800 X79.736 Y52.243 E358.91922
G0 F7200 X80.5 Y52.244
G1 F1800 X118.042 Y89.786 E361.35081
G0 F7200 X118.042 Y89.022
G1 F1800 X81.264 Y52.244 E363.73292
G0 F7200 X82.027 Y52.244
G1 F1800 X118.042 Y88.258 E366.06557
G0 F7200 X118.042 Y87.495
G1 F1800 X82.791 Y52.244 E368.34878
G0 F7200 X83.555 Y52.244
G1 F1800 X118.042 Y86.731 E370.58249
G0 F7200 X118.042 Y85.967
G1 F1800 X84.318 Y52.244 E372.76676
G0 F7200 X85.082 Y52.244
G1 F1800 X118.042 Y85.204 E374.90157
G0 F7200 X118.042 Y84.44
G1 F1800 X85.846 Y52.244 E376.98691
G0 F7200 X86.609 Y52.244
G1 F1800 X118.042 Y83.676 E379.02278
G0 F7200 X118.042 Y82.913
G1 F1800 X87.373 Y52.244 E381.00921
G0 F7200 X88.137 Y52.244
G1 F1800 X118.042 Y82.149 E382.94615
G0 F7200 X118.042 Y81.385
G1 F1800 X88.901 Y52.244 E384.83361
G0 F7200 X89.664 Y52.244
G1 F1800 X118.042 Y80.622 E386.67165
G0 F7200 X118.042 Y79.858
G1 F1800 X90.428 Y52.244 E388.46021
G0 F7200 X91.192 Y52.244
G1 F1800 X118.042 Y79.094 E390.19928
G0 F7200 X118.042 Y78.331
G1 F1800 X91.955 Y52.244 E391.88893
G0 F7200 X92.719 Y52.244
G1 F1800 X118.042 Y77.567 E393.52909
G0 F7200 X118.042 Y76.803
G1 F1800 X93.483 Y52.244 E395.11978
G0 F7200 X94.246 Y52.244
G1 F1800 X118.042 Y76.04 E396.66104
G0 F7200 X118.042 Y75.276
G1 F1800 X95.01 Y52.244 E398.15282
G0 F7200 X95.774 Y52.244
G1 F1800 X118.042 Y74.512 E399.59512
G0 F7200 X118.042 Y73.749
G1 F1800 X96.537 Y52.244 E400.98799
G0 F7200 X97.301 Y52.244
G1 F1800 X118.042 Y72.985 E402.33138
G0 F7200 X118.042 Y72.221
G1 F1800 X98.065 Y52.244 E403.62529
G0 F7200 X98.828 Y52.244
G1 F1800 X118.042 Y71.458 E404.86978
G0 F7200 X118.042 Y70.694
G1 F1800 X99.592 Y52.244 E406.06478
G0 F7200 X100.356 Y52.244
G1 F1800 X118.042 Y69.93 E407.2103
G0 F7200 X118.042 Y69.167
G1 F1800 X101.119 Y52.244 E408.3064
G0 F7200 X101.883 Y52.244
G1 F1800 X118.042 Y68.403 E409.35302
G0 F7200 X118.042 Y67.639
G1 F1800 X102.647 Y52.244 E410.35015
G0 F7200 X103.41 Y52.244
G1 F1800 X118.042 Y66.876 E411.29786
G0 F7200 X118.042 Y66.112
G1 F1800 X104.174 Y52.244 E412.19609
G0 F7200 X104.938 Y52.244
G1 F1800 X118.042 Y65.348 E413.04484
G0 F7200 X118.042 Y64.585
G1 F1800 X105.701 Y52.244 E413.84416
G0 F7200 X106.465 Y52.244
G1 F1800 X118.042 Y63.821 E414.594
G0 F7200 X118.042 Y63.057
G1 F1800 X107.229 Y52.244 E415.29436
G0 F7200 X107.992 Y52.244
G1 F1800 X118.042 Y62.293 E415.94526
G0 F7200 X118.042 Y61.53
G1 F1800 X108.756 Y52.244 E416.54672
G0 F7200 X109.52 Y52.244
G1 F1800 X118.042 Y60.766 E417.09868
G0 F7200 X118.042 Y60.002
G1 F1800 X110.283 Y52.244 E417.6012
G0 F7200 X111.047 Y52.244
G1 F1800 X118.042 Y59.239 E418.05427
G0 F7200 X118.042 Y58.475
G1 F1800 X111.811 Y52.244 E418.45785
G0 F7200 X112.574 Y52.244
G1 F1800 X118.042 Y57.711 E418.81198
G0 F7200 X118.042 Y56.948
G1 F1800 X113.338 Y52.244 E419.11665
G0 F7200 X114.102 Y52.244
G1 F1800 X118.042 Y56.184 E419.37185
G0 F7200 X118.042 Y55.42
G1 F1800 X114.865 Y52.244 E419.57759
G0 F7200 X115.629 Y52.244
G1 F1800 X118.042 Y54.657 E419.73388
G0 F7200 X118.042 Y53.893
G1 F1800 X116.393 Y52.244 E419.84068
G0 F7200 X117.156 Y52.244
G1 F1800 X118.042 Y53.129 E419.89804
G0 F7200 X118.042 Y52.366
M104 S220
G1 F1800 X117.92 Y52.244 E419.90594
G1 F2100 E419.50594
;MESH:NONMESH
EXCLUDE_OBJECT_END NAME=Print_25_Glass_0_15mm_PLA_20x20_3mf
G0 F600 X117.92 Y52.244 Z0.35
G0 F7200 X117.92 Y51.627
G0 X41.416 Y51.698
G0 X41.386 Y103.675
G1 F840 E419.90594
G0 F7200 X41.488 Y103.574
;TIME_ELAPSED:316.404784
;LAYER:1
M106 S85
;TYPE:WALL-INNER
;MESH:Print 25 - Glass - 0.15mm_PLA_20x20.3mf
EXCLUDE_OBJECT_START NAME=Print_25_Glass_0_15mm_PLA_20x20_3mf
G1 F2700 X46.194 Y108.28 E420.09271
G1 X113.809 Y108.282 E421.9902
