;FLAVOR:Marlin
;TIME:2191
;Filament used: 1.8971m
;Layer height: 0.2
;MINX:59.466
;MINY:67.342
;MINZ:0.2
;MAXX:100.531
;MAXY:92.863
;MAXZ:25.2
;Generated with Cura_SteamEngine 5.2.1
M82 ;absolute extrusion mode


; Pre-Processed for Cancel-Object support by preprocess_cancellation v0.2.0
; 1 known objects
EXCLUDE_OBJECT_DEFINE NAME=hotend_mount_dragonfly_3007_fan_stl_1 CENTER=80.233,80.698 POLYGON=[[64.9,72.766],[64.9,87.252],[95.1,87.252],[95.1,72.766]]
PRINT_START BED=110 EXTRUDER=255 STANDBY=200 CHAMBER=36
G92 E0
G92 E0
G1 F7200 E-0.4
;LAYER_COUNT:124
;LAYER:0
M107
G1 F600 Z0.6
G0 F7200 X61.379 Y68.663 Z0.6
;TYPE:SKIRT
G1 F600 Z0.2
G1 F2880 E0
G1 F1800 X61.905 Y68.267 E0.02557
G1 X62.475 Y67.936 E0.05117
G1 X63.081 Y67.678 E0.07674
G1 X63.714 Y67.494 E0.10234
G1 X64.364 Y67.389 E0.12791
G1 X64.764 Y67.364 E0.14348
G1 X65.337 Y67.349 E0.16574
G1 X65.695 Y67.351 E0.17964
G1 X65.971 Y67.362 E0.19037
G1 X66.46 Y67.404 E0.20943
G1 X67.702 Y67.567 E0.25808
G1 X70.454 Y67.887 E0.36567
G1 X73.098 Y68.119 E0.46874
G1 X75.764 Y68.277 E0.57246
G1 X78.424 Y68.36 E0.67581
G1 X81.121 Y68.367 E0.78055
G1 X83.782 Y68.299 E0.88392
G1 X86.443 Y68.156 E0.98741
G1 X89.127 Y67.935 E1.092
G1 X91.809 Y67.637 E1.1968
G1 X93.456 Y67.415 E1.26134
G1 X94.072 Y67.357 E1.28536
G1 X94.679 Y67.342 E1.30894
G1 X95.138 Y67.356 E1.32678
G1 X95.794 Y67.416 E1.35236
G1 X96.438 Y67.555 E1.37795
G1 X97.06 Y67.77 E1.4035
G1 X97.568 Y68.012 E1.42536
G1 X98.135 Y68.347 E1.45093
G1 X98.657 Y68.749 E1.47652
G1 X99.127 Y69.211 E1.50211
G1 X99.537 Y69.727 E1.52771
G1 X99.882 Y70.288 E1.55328
G1 X100.156 Y70.887 E1.57886
G1 X100.356 Y71.515 E1.60446
G1 X100.478 Y72.162 E1.63003
G1 X100.52 Y72.744 E1.65269
G1 X100.531 Y73.389 E1.67774
G1 X100.528 Y86.23 E2.17642
G1 X100.518 Y86.937 E2.20388
G1 X100.469 Y87.594 E2.22947
G1 X100.341 Y88.24 E2.25504
G1 X100.135 Y88.866 E2.28063
G1 X99.855 Y89.462 E2.30621
G1 X99.505 Y90.02 E2.33179
G1 X98.876 Y90.751 E2.36924
G1 X98.501 Y91.116 E2.38956
G1 X98.002 Y91.546 E2.41514
G1 X97.455 Y91.913 E2.44072
G1 X96.867 Y92.21 E2.46631
G1 X96.247 Y92.434 E2.49191
G1 X95.605 Y92.581 E2.51748
G1 X94.808 Y92.654 E2.54856
G1 X94.138 Y92.665 E2.57459
G1 X92.418 Y92.665 E2.64138
G1 X89.753 Y92.703 E2.74489
G1 X86.963 Y92.822 E2.85334
G1 X86.557 Y92.846 E2.86913
G1 X86.067 Y92.862 E2.88817
G1 X74.382 Y92.863 E3.34196
G1 X73.52 Y92.849 E3.37544
G1 X72.567 Y92.808 E3.41248
G1 X71.526 Y92.75 E3.45297
G1 X67.478 Y92.665 E3.61021
G1 X65.925 Y92.664 E3.67052
G1 X65.211 Y92.654 E3.69825
G1 X64.554 Y92.605 E3.72384
G1 X63.908 Y92.477 E3.74941
G1 X63.282 Y92.271 E3.77501
G1 X62.686 Y91.991 E3.80058
G1 X62.128 Y91.641 E3.82616
G1 X61.542 Y91.157 E3.85568
G1 X61.236 Y90.859 E3.87226
G1 X61.005 Y90.62 E3.88517
G1 X60.576 Y90.119 E3.91079
G1 X60.212 Y89.57 E3.93637
G1 X59.917 Y88.981 E3.96195
G1 X59.695 Y88.361 E3.98753
G1 X59.55 Y87.719 E4.01309
G1 X59.481 Y87.004 E4.04098
G1 X59.472 Y86.607 E4.0564
G1 X59.466 Y73.504 E4.56526
G1 X59.477 Y72.716 E4.59586
G1 X59.526 Y72.059 E4.62145
G1 X59.654 Y71.412 E4.64706
G1 X59.86 Y70.787 E4.67262
G1 X60.14 Y70.19 E4.69823
G1 X60.49 Y69.632 E4.72381
G1 X60.905 Y69.121 E4.74937
G1 X61.379 Y68.663 E4.77497
G0 F7200 X61.903 Y68.933
G1 F1800 X62.42 Y68.581 E4.79926
G1 X62.978 Y68.298 E4.82356
G1 X63.567 Y68.089 E4.84783
G1 X64.178 Y67.957 E4.8721
G1 X64.778 Y67.904 E4.89549
G1 X65.351 Y67.889 E4.91775
G1 X65.674 Y67.891 E4.9303
G1 X65.95 Y67.902 E4.94102
G1 X66.39 Y67.939 E4.95817
G1 X67.703 Y68.111 E5.0096
G1 X70.377 Y68.422 E5.11414
G1 X73.057 Y68.657 E5.21862
G1 X75.714 Y68.815 E5.32199
G1 X78.44 Y68.9 E5.4279
G1 X81.133 Y68.907 E5.53249
G1 X83.79 Y68.839 E5.6357
G1 X86.48 Y68.694 E5.74032
G1 X89.198 Y68.471 E5.84623
G1 X91.853 Y68.176 E5.94997
G1 X93.528 Y67.95 E6.01561
G1 X94.115 Y67.895 E6.03851
G1 X94.662 Y67.881 E6.05976
G1 X95.121 Y67.895 E6.07759
G1 X95.743 Y67.954 E6.10185
G1 X96.353 Y68.092 E6.12614
G1 X97.203 Y68.431 E6.16168
G1 X97.322 Y68.492 E6.16687
G1 X97.859 Y68.813 E6.19117
G1 X98.35 Y69.199 E6.21542
G1 X98.789 Y69.644 E6.2397
G1 X99.167 Y70.142 E6.26398
G1 X99.478 Y70.684 E6.28825
G1 X99.718 Y71.262 E6.31255
G1 X99.882 Y71.865 E6.33682
G1 X99.98 Y72.754 E6.37155
G1 X99.991 Y73.389 E6.39622
G1 X99.989 Y86.222 E6.89459
G1 X99.979 Y86.929 E6.92205
G1 X99.93 Y87.552 E6.94632
G1 X99.802 Y88.164 E6.9706
G1 X99.597 Y88.755 E6.99489
G1 X99.318 Y89.315 E7.01919
G1 X98.971 Y89.834 E7.04343
G1 X98.5 Y90.364 E7.07097
G1 X98.125 Y90.729 E7.09129
G1 X97.65 Y91.136 E7.11558
G1 X97.127 Y91.478 E7.13985
G1 X96.565 Y91.751 E7.16411
G1 X95.972 Y91.95 E7.18841
G1 X95.359 Y92.072 E7.21268
G1 X94.799 Y92.114 E7.23449
G1 X94.138 Y92.125 E7.26016
G1 X92.481 Y92.125 E7.32451
G1 X89.723 Y92.164 E7.43163
G1 X86.525 Y92.307 E7.55595
G1 X85.916 Y92.324 E7.57961
G1 X74.39 Y92.324 E8.02722
G1 X73.684 Y92.314 E8.05464
G1 X72.597 Y92.268 E8.09689
G1 X71.567 Y92.21 E8.13695
G1 X67.49 Y92.125 E8.29532
G1 X65.933 Y92.125 E8.35579
G1 X65.219 Y92.115 E8.38352
G1 X64.595 Y92.066 E8.40782
G1 X63.983 Y91.938 E8.43211
G1 X63.393 Y91.733 E8.45636
G1 X62.833 Y91.455 E8.48064
G1 X62.313 Y91.107 E8.50494
G1 X61.915 Y90.766 E8.52529
G1 X61.624 Y90.483 E8.54106
G1 X61.393 Y90.244 E8.55397
G1 X60.988 Y89.768 E8.57824
G1 X60.647 Y89.244 E8.60252
G1 X60.376 Y88.681 E8.62678
G1 X60.179 Y88.087 E8.65109
G1 X60.059 Y87.474 E8.67534
G1 X60.021 Y86.988 E8.69428
G1 X60.012 Y86.607 E8.70908
G1 X60.006 Y73.433 E9.22069
G1 X60.016 Y72.723 E9.24826
G1 X60.065 Y72.1 E9.27253
G1 X60.193 Y71.488 E9.29681
G1 X60.398 Y70.897 E9.32111
G1 X60.677 Y70.338 E9.34537
G1 X61.024 Y69.818 E9.36965
G1 X61.435 Y69.347 E9.39392
G1 X61.903 Y68.933 E9.41819
G0 F7200 X62.424 Y69.22
G1 F1800 X62.93 Y68.917 E9.44109
G1 X63.472 Y68.685 E9.46399
G1 X64.04 Y68.529 E9.48686
G1 X64.792 Y68.443 E9.51626
G1 X65.365 Y68.428 E9.53852
G1 X65.928 Y68.441 E9.56039
G1 X66.32 Y68.475 E9.57567
G1 X67.579 Y68.64 E9.62498
G1 X70.339 Y68.961 E9.73289
G1 X73.014 Y69.196 E9.83717
G1 X75.701 Y69.355 E9.9417
G1 X78.422 Y69.44 E10.04743
G1 X81.11 Y69.447 E10.15181
G1 X83.833 Y69.377 E10.2576
G1 X86.553 Y69.231 E10.36338
G1 X89.23 Y69.011 E10.46769
G1 X91.902 Y68.714 E10.5721
G1 X93.6 Y68.485 E10.63864
G1 X94.159 Y68.433 E10.66044
G1 X94.646 Y68.421 E10.67936
G1 X95.105 Y68.435 E10.69719
G1 X95.691 Y68.493 E10.72006
G1 X96.265 Y68.63 E10.74298
G1 X96.956 Y68.912 E10.77196
G1 X97.075 Y68.973 E10.77715
G1 X97.581 Y69.277 E10.80008
G1 X98.04 Y69.646 E10.82295
G1 X98.445 Y70.074 E10.84583
G1 X98.789 Y70.553 E10.86874
G1 X99.065 Y71.075 E10.89167
G1 X99.268 Y71.628 E10.91454
G1 X99.394 Y72.204 E10.93744
G1 X99.44 Y72.764 E10.95926
G1 X99.451 Y73.389 E10.98354
G1 X99.449 Y86.215 E11.48164
G1 X99.439 Y86.922 E11.5091
G1 X99.39 Y87.509 E11.53197
G1 X99.263 Y88.085 E11.55488
G1 X99.059 Y88.638 E11.57777
G1 X98.782 Y89.158 E11.60065
G1 X98.437 Y89.637 E11.62357
G1 X98.123 Y89.977 E11.64155
G1 X97.748 Y90.342 E11.66187
G1 X97.299 Y90.724 E11.68476
G1 X96.802 Y91.041 E11.70766
G1 X96.267 Y91.288 E11.73054
G1 X95.703 Y91.461 E11.75345
G1 X95.121 Y91.556 E11.77635
G1 X94.79 Y91.574 E11.78922
G1 X94.138 Y91.585 E11.81455
G1 X92.474 Y91.585 E11.87917
G1 X89.692 Y91.624 E11.98722
G1 X86.917 Y91.743 E12.09509
G1 X86.494 Y91.768 E12.11154
G1 X85.916 Y91.784 E12.134
G1 X74.397 Y91.784 E12.58134
G1 X73.691 Y91.774 E12.60876
G1 X72.627 Y91.729 E12.65012
G1 X71.58 Y91.671 E12.69084
G1 X67.501 Y91.585 E12.84928
G1 X65.94 Y91.585 E12.9099
G1 X65.226 Y91.575 E12.93763
G1 X64.638 Y91.526 E12.96055
G1 X64.063 Y91.399 E12.98342
G1 X63.51 Y91.195 E13.00631
G1 X62.989 Y90.918 E13.02922
G1 X62.511 Y90.574 E13.05209
G1 X62.287 Y90.375 E13.06373
G1 X62.012 Y90.108 E13.07861
G1 X61.781 Y89.869 E13.09152
G1 X61.401 Y89.418 E13.11442
G1 X61.085 Y88.92 E13.13733
G1 X60.84 Y88.384 E13.16022
G1 X60.669 Y87.82 E13.1831
G1 X60.561 Y86.972 E13.2163
G1 X60.552 Y86.607 E13.23048
G1 X60.546 Y73.441 E13.74178
G1 X60.556 Y72.731 E13.76936
G1 X60.605 Y72.143 E13.79227
G1 X60.732 Y71.567 E13.81518
G1 X60.936 Y71.014 E13.83807
G1 X61.213 Y70.494 E13.86095
G1 X61.557 Y70.015 E13.88385
G1 X61.964 Y69.588 E13.90676
G1 X62.424 Y69.22 E13.92964
G0 F7200 X62.94 Y69.528
G1 F1800 X63.432 Y69.279 E13.95105
G1 X63.955 Y69.103 E13.97248
G1 X64.498 Y69.004 E13.99392
G1 X64.806 Y68.983 E14.00591
G1 X65.379 Y68.968 E14.02817
G1 X65.907 Y68.981 E14.04868
G1 X66.25 Y69.01 E14.06205
G1 X67.563 Y69.182 E14.11347
G1 X70.262 Y69.496 E14.21899
G1 X72.971 Y69.734 E14.3246
G1 X75.686 Y69.896 E14.43023
G1 X78.405 Y69.98 E14.53587
G1 X81.122 Y69.987 E14.64139
G1 X83.875 Y69.917 E14.74833
G1 X86.555 Y69.773 E14.85256
G1 X89.267 Y69.549 E14.95824
G1 X91.988 Y69.247 E15.06456
G1 X93.672 Y69.02 E15.13055
G1 X94.203 Y68.972 E15.15125
G1 X94.629 Y68.961 E15.1678
G1 X95.088 Y68.975 E15.18564
G1 X95.637 Y69.031 E15.20707
G1 X96.172 Y69.167 E15.22851
G1 X96.71 Y69.392 E15.25115
G1 X96.829 Y69.453 E15.25635
G1 X97.3 Y69.74 E15.27777
G1 X97.726 Y70.092 E15.29923
G1 X98.095 Y70.501 E15.32062
G1 X98.402 Y70.96 E15.34206
G1 X98.64 Y71.458 E15.3635
G1 X98.803 Y71.985 E15.38492
G1 X98.9 Y72.774 E15.41579
G1 X98.911 Y73.389 E15.43968
G1 X98.909 Y86.207 E15.93747
G1 X98.899 Y86.914 E15.96493
G1 X98.851 Y87.464 E15.98637
G1 X98.724 Y88.001 E16.0078
G1 X98.521 Y88.514 E16.02922
G1 X98.247 Y88.992 E16.05062
G1 X97.746 Y89.59 E16.08092
G1 X97.371 Y89.955 E16.10124
G1 X96.949 Y90.31 E16.12265
G1 X96.48 Y90.601 E16.14409
G1 X95.974 Y90.821 E16.16552
G1 X95.442 Y90.965 E16.18692
G1 X94.78 Y91.034 E16.21277
G1 X94.138 Y91.045 E16.2377
G1 X92.466 Y91.045 E16.30264
G1 X89.696 Y91.084 E16.41022
G1 X86.828 Y91.207 E16.5217
G1 X86.345 Y91.234 E16.54049
G1 X86.022 Y91.243 E16.55304
G1 X74.405 Y91.244 E17.00418
G1 X73.699 Y91.234 E17.0316
G1 X72.658 Y91.19 E17.07207
G1 X71.594 Y91.131 E17.11345
G1 X67.512 Y91.045 E17.27201
G1 X65.948 Y91.045 E17.33275
G1 X65.234 Y91.035 E17.36048
G1 X64.684 Y90.987 E17.38192
G1 X64.147 Y90.86 E17.40335
G1 X63.634 Y90.658 E17.42476
G1 X63.155 Y90.383 E17.44621
G1 X62.659 Y89.984 E17.47093
G1 X62.4 Y89.733 E17.48494
G1 X62.169 Y89.494 E17.49785
G1 X61.816 Y89.07 E17.51927
G1 X61.527 Y88.6 E17.5407
G1 X61.309 Y88.093 E17.56213
G1 X61.167 Y87.56 E17.58355
G1 X61.101 Y86.957 E17.60711
G1 X61.092 Y86.607 E17.62071
G1 X61.086 Y73.448 E18.13174
G1 X61.096 Y72.738 E18.15931
G1 X61.144 Y72.189 E18.18071
G1 X61.271 Y71.652 E18.20214
G1 X61.473 Y71.139 E18.22356
G1 X61.748 Y70.66 E18.245
G1 X62.089 Y70.226 E18.26644
G1 X62.489 Y69.847 E18.28784
G1 X62.94 Y69.528 E18.30929
G0 F7200 X63.011 Y70.127
G1 F1800 X63.45 Y69.864 E18.32917
G1 X63.924 Y69.673 E18.34901
G1 X64.422 Y69.558 E18.36886
G1 X64.82 Y69.523 E18.38438
G1 X65.393 Y69.508 E18.40664
G1 X65.885 Y69.521 E18.42575
G1 X66.18 Y69.546 E18.43725
G1 X67.457 Y69.713 E18.48726
G1 X70.189 Y70.031 E18.59408
G1 X72.963 Y70.274 E18.70222
G1 X75.673 Y70.436 E18.80765
G1 X78.386 Y70.52 E18.91306
G1 X81.135 Y70.527 E19.01982
G1 X83.883 Y70.457 E19.12657
G1 X86.595 Y70.311 E19.23204
G1 X89.331 Y70.086 E19.33865
G1 X92.043 Y69.785 E19.44462
G1 X93.745 Y69.555 E19.51132
G1 X94.247 Y69.51 E19.53089
G1 X94.613 Y69.501 E19.54511
G1 X95.072 Y69.515 E19.56294
G1 X95.58 Y69.57 E19.58279
G1 X96.073 Y69.704 E19.60263
G1 X96.464 Y69.873 E19.61917
G1 X96.583 Y69.934 E19.62436
G1 X97.018 Y70.202 E19.6442
G1 X97.406 Y70.535 E19.66406
G1 X97.738 Y70.923 E19.68389
G1 X98.004 Y71.359 E19.70373
G1 X98.2 Y71.831 E19.72357
G1 X98.32 Y72.328 E19.74343
G1 X98.36 Y72.784 E19.76121
G1 X98.371 Y73.389 E19.78471
G1 X98.369 Y86.199 E20.28218
G1 X98.359 Y86.906 E20.30964
G1 X98.312 Y87.415 E20.32949
G1 X98.186 Y87.91 E20.34933
G1 X97.984 Y88.38 E20.3692
G1 X97.712 Y88.813 E20.38905
G1 X97.37 Y89.203 E20.4092
G1 X96.995 Y89.568 E20.42952
G1 X96.602 Y89.895 E20.44938
G1 X96.163 Y90.157 E20.46923
G1 X95.688 Y90.346 E20.48908
G1 X95.19 Y90.46 E20.50892
G1 X94.771 Y90.495 E20.52525
G1 X94.195 Y90.505 E20.54762
G1 X92.458 Y90.505 E20.61508
G1 X89.666 Y90.544 E20.72352
G1 X86.808 Y90.667 E20.83461
G1 X86.33 Y90.694 E20.8532
G1 X86.007 Y90.703 E20.86575
G1 X74.413 Y90.704 E21.31601
G1 X73.707 Y90.694 E21.34343
G1 X72.688 Y90.651 E21.38303
G1 X71.607 Y90.591 E21.42508
G1 X67.523 Y90.505 E21.58372
G1 X65.955 Y90.505 E21.64461
G1 X65.241 Y90.495 E21.67234
G1 X64.732 Y90.448 E21.69219
G1 X64.237 Y90.322 E21.71203
G1 X63.767 Y90.12 E21.7319
G1 X63.335 Y89.848 E21.75172
G1 X63.032 Y89.593 E21.7671
G1 X62.789 Y89.358 E21.78023
G1 X62.558 Y89.119 E21.79314
G1 X62.232 Y88.724 E21.81303
G1 X61.972 Y88.284 E21.83287
G1 X61.784 Y87.809 E21.85271
G1 X61.672 Y87.311 E21.87254
G1 X61.64 Y86.941 E21.88696
G1 X61.633 Y86.7 E21.89632
G1 X61.626 Y73.456 E22.41065
G1 X61.636 Y72.746 E22.43823
G1 X61.683 Y72.237 E22.45808
G1 X61.809 Y71.742 E22.47792
G1 X62.011 Y71.272 E22.49778
G1 X62.283 Y70.839 E22.51764
G1 X62.619 Y70.455 E22.53746
G1 X63.011 Y70.127 E22.55731
G1 F7200 E22.15731
G1 F600 Z0.6
G0 F7200 X73.666 Y78 Z0.6
;TYPE:SUPPORT
G1 F600 Z0.2
G1 F2880 E22.55731
G1 F1800 X86.332 Y78 E23.04919
G1 F7200 E22.64919
G1 F600 Z0.6
G0 F7200 X86.332 Y81 Z0.6
G1 F600 Z0.2
G1 F2880 E23.04919
G1 F1800 X73.666 Y81 E23.54108
G1 F7200 E23.14108
G1 F600 Z0.6
G0 F7200 X73.666 Y84 Z0.6
G1 F600 Z0.2
G1 F2880 E23.54108
G1 F1800 X86.332 Y84 E24.03296
G1 F7200 E23.63296
G1 F600 Z0.6
G0 F7200 X86.332 Y87 Z0.6
G1 F600 Z0.2
G1 F2880 E24.03296
G1 F1800 X73.666 Y87 E24.52484
G1 F7200 E24.12484
G1 F600 Z0.6
G0 F7200 X75 Y87.52 Z0.6
G1 F600 Z0.2
G1 F2880 E24.52484
G1 F1800 X75 Y75.98 E24.973
G1 F7200 E24.573
G1 F600 Z0.6
G0 F7200 X77.334 Y75 Z0.6
G1 F600 Z0.2
G1 F2880 E24.973
G1 F1800 X80.888 Y75 E25.11102
G0 F7200 X81 Y75.937
G1 F1800 X81 Y87.52 E25.56085
G1 F7200 E25.16085
G1 F600 Z0.6
G0 F7200 X78 Y87.52 Z0.6
G1 F600 Z0.2
G1 F2880 E25.56085
G1 F1800 X78 Y74.245 E26.07638
G1 F7200 E25.67638
G1 F600 Z0.6
G0 F7200 X84 Y75.98 Z0.6
G1 F600 Z0.2
G1 F2880 E26.07638
G1 F1800 X84 Y87.52 E26.52454
G1 F7200 E26.12454
G1 F600 Z0.6
;MESH:hotend_mount_dragonfly_3007_fan.stl(1)
EXCLUDE_OBJECT_START NAME=hotend_mount_dragonfly_3007_fan_stl_1
G0 F7200 X89.423 Y83.298 Z0.6
;TYPE:WALL-INNER
G1 F600 Z0.2
G1 F2880 E26.52454
G1 F1615 X89.456 Y83.015 E26.5355
G1 F1611.9 X89.494 Y82.886 E26.54068
G1 F1717.7 X89.717 Y82.283 E26.56394
G1 F1800 X89.805 Y82.096 E26.57107
G1 X89.964 Y81.816 E26.58219
G1 X90.159 Y81.535 E26.594
G1 X90.372 Y81.281 E26.60544
G1 X90.616 Y81.042 E26.61723
G1 X90.885 Y80.824 E26.62918
G1 X91.16 Y80.642 E26.64057
G1 X91.477 Y80.473 E26.65297
G1 X91.641 Y80.402 E26.65914
G1 X91.939 Y80.295 E26.67007
G1 X92.284 Y80.206 E26.68237
G1 X92.468 Y80.173 E26.68882
G1 X92.769 Y80.143 E26.69926
G1 X93.085 Y80.135 E26.71017
G1 X93.419 Y80.161 E26.72174
G1 X93.42 Y77.755 E26.80479
G1 X93.176 Y77.839 E26.8137
G1 X92.961 Y77.889 E26.82132
G1 X92.645 Y77.933 E26.83233
G1 X92.398 Y77.946 E26.84087
G1 X88.881 Y77.946 E26.96228
G1 X88.88 Y82.464 E27.11824
G1 F1684.2 X88.914 Y82.959 E27.13655
G1 F1627.1 X88.898 Y83.427 E27.15443
G1 F1677.7 X88.897 Y83.992 E27.17535
G1 F1639.5 X88.909 Y84.402 E27.1909
G1 F1461.9 X88.961 Y85.151 E27.22281
G1 F1343.7 X88.961 Y85.473 E27.2377
G1 X89.787 Y85.473 E27.2759
G1 X89.698 Y85.299 E27.28493
G1 X89.584 Y85.038 E27.29811
G1 F1386.8 X89.528 Y84.818 E27.30828
G1 F1494.8 X89.46 Y84.465 E27.32322
G1 F1594.1 X89.435 Y84.273 E27.33077
G1 F1652 X89.412 Y83.979 E27.34186
G1 F1687.5 X89.404 Y83.715 E27.35158
G1 F1671.2 X89.423 Y83.298 E27.3671
G0 F7200 X91.158 Y81.219
G1 F1800 X91.307 Y81.116 E27.37336
G1 X91.552 Y80.972 E27.38317
G1 X91.831 Y80.843 E27.39378
G1 X92.207 Y80.717 E27.40747
G1 X92.461 Y80.659 E27.41646
G1 X92.691 Y80.63 E27.42446
G1 X92.968 Y80.615 E27.43404
G1 X93.278 Y80.627 E27.44475
G1 X93.565 Y80.666 E27.45475
G1 X93.742 Y80.704 E27.461
G1 X93.899 Y80.749 E27.46663
G1 X93.901 Y76.934 E27.59833
G1 X93.675 Y77.097 E27.60795
G1 X93.423 Y77.235 E27.61786
G1 X93.292 Y77.292 E27.6228
G1 X93.034 Y77.38 E27.63221
G1 X92.881 Y77.416 E27.63763
G1 X92.615 Y77.454 E27.64691
G1 X92.398 Y77.466 E27.65441
G1 X88.401 Y77.466 E27.79239
G1 X88.4 Y86.034 E28.08815
G1 X90.943 Y86.034 E28.17594
G1 X90.778 Y85.877 E28.1838
G1 X90.589 Y85.664 E28.19363
G1 X90.418 Y85.432 E28.20358
