;FLAVOR:Marlin
;TIME:1352
;Filament used: 1.26042m
;Layer height: 0.15
;MINX:56.666
;MINY:7.426
;MINZ:0.2
;MAXX:99.29
;MAXY:152.528
;MAXZ:5.7
;Generated with Cura_SteamEngine 5.2.1
M82 ;absolute extrusion mode


; Pre-Processed for Cancel-Object support by preprocess_cancellation v0.2.0
; 3 known objects
EXCLUDE_OBJECT_DEFINE NAME=Print_24_Hardtop_2_0_15mm_PLA_20x20_3mf_3 CENTER=63.876,80.315 POLYGON=[[60.301,75.274],[60.301,84.875],[73.849,84.875],[73.849,75.274]]
EXCLUDE_OBJECT_DEFINE NAME=Print_24_Hardtop_2_0_15mm_PLA_20x20_3mf_1 CENTER=80.032,80.240 POLYGON=[[75.868,11.463],[75.868,148.491],[84.187,148.491],[84.187,11.463]]
EXCLUDE_OBJECT_DEFINE NAME=Print_24_Hardtop_2_0_15mm_PLA_20x20_3mf_2 CENTER=91.207,83.243 POLYGON=[[86.104,73.271],[86.104,86.819],[95.705,86.819],[95.705,73.271]]
PRINT_START BED=70 EXTRUDER=220 STANDBY=175 CHAMBER=28
G92 E0
G92 E0
G1 F2100 E-0.4
;LAYER_COUNT:35
;LAYER:0
M107
G1 F600 Z0.6
G0 F7200 X72.088 Y10.939 Z0.6
;TYPE:SKIRT
G1 F600 Z0.2
G1 F840 E0
G1 F1800 X72.173 Y10.394 E0.02526
G1 X72.336 Y9.867 E0.05053
G1 X72.574 Y9.369 E0.07581
G1 X72.88 Y8.91 E0.10107
G1 X73.25 Y8.501 E0.12633
G1 X73.675 Y8.149 E0.1516
G1 X74.147 Y7.863 E0.17688
G1 X74.655 Y7.647 E0.20216
G1 X75.188 Y7.507 E0.2274
G1 X75.815 Y7.444 E0.25626
G1 X76.805 Y7.426 E0.30161
G1 X80.745 Y7.427 E0.48206
G1 X81.421 Y7.437 E0.51302
G1 X81.971 Y7.485 E0.53831
G1 X82.508 Y7.612 E0.56358
G1 X83.021 Y7.816 E0.58887
G1 X83.499 Y8.091 E0.61412
G1 X83.903 Y8.405 E0.63756
G1 X84.015 Y8.505 E0.64443
G1 X84.398 Y8.901 E0.66966
G1 X84.721 Y9.349 E0.69496
G1 X84.976 Y9.838 E0.72022
G1 X85.157 Y10.359 E0.74548
G1 X85.275 Y11.05 E0.77758
G1 X85.583 Y14.982 E0.95822
G1 X85.853 Y18.75 E1.13123
G1 X86.095 Y22.437 E1.30046
G1 X86.367 Y26.952 E1.50761
G1 X86.595 Y31.146 E1.69998
G1 X86.784 Y33.916 E1.82714
G1 X87.047 Y36.62 E1.95156
G1 X87.387 Y39.324 E2.07638
G1 X87.802 Y42.012 E2.20095
G1 X88.288 Y44.657 E2.32411
G1 X88.863 Y47.359 E2.45063
G1 X89.498 Y49.98 E2.57415
G1 X90.212 Y52.591 E2.69812
G1 X91.01 Y55.221 E2.82399
G1 X91.879 Y57.816 E2.94933
G1 X92.801 Y60.333 E3.0721
G1 X93.822 Y62.892 E3.19828
G1 X94.89 Y65.361 E3.32148
G1 X96.054 Y67.86 E3.44774
G1 X97.254 Y70.255 E3.57043
G1 X98.823 Y73.16 E3.72164
G1 X99.049 Y73.663 E3.7469
G1 X99.2 Y74.194 E3.77218
G1 X99.278 Y74.862 E3.80298
G1 X99.289 Y75.288 E3.8225
G1 X99.29 Y85.977 E4.31205
G1 X99.279 Y86.7 E4.34517
G1 X99.23 Y87.25 E4.37045
G1 X99.103 Y87.786 E4.39568
G1 X98.826 Y88.445 E4.42842
G1 X98.425 Y89.19 E4.46717
G1 X97.873 Y90.177 E4.51896
G1 X96.636 Y92.548 E4.64144
G1 X95.437 Y95.011 E4.7669
G1 X94.318 Y97.486 E4.8913
G1 X93.263 Y100.013 E5.01672
G1 X92.275 Y102.571 E5.14231
G1 X91.391 Y105.075 E5.26393
G1 X90.539 Y107.721 E5.39124
G1 X89.79 Y110.294 E5.51397
G1 X89.106 Y112.923 E5.63839
G1 X88.479 Y115.642 E5.76618
G1 X87.957 Y118.241 E5.88759
G1 X87.499 Y120.902 E6.01126
G1 X87.111 Y123.621 E6.13705
G1 X86.8 Y126.355 E6.26307
G1 X86.572 Y129.013 E6.38525
G1 X86.465 Y130.705 E6.4629
G1 X86.382 Y132.246 E6.53357
G1 X86.151 Y136.127 E6.71164
G1 X85.832 Y140.996 E6.93511
G1 X85.538 Y145.133 E7.12506
G1 X85.291 Y148.299 E7.2705
G1 X85.229 Y148.973 E7.3015
G1 X85.139 Y149.517 E7.32675
G1 X84.971 Y150.043 E7.35204
G1 X84.729 Y150.539 E7.37732
G1 X84.418 Y150.994 E7.40256
G1 X84.093 Y151.353 E7.42474
G1 X84.016 Y151.428 E7.42966
G1 X83.594 Y151.784 E7.45495
G1 X83.125 Y152.074 E7.4802
G1 X82.619 Y152.294 E7.50547
G1 X82.087 Y152.439 E7.53073
G1 X81.431 Y152.508 E7.56094
G1 X80.367 Y152.528 E7.60967
G1 X76.494 Y152.527 E7.78706
G1 X75.831 Y152.518 E7.81742
G1 X75.282 Y152.47 E7.84266
G1 X74.745 Y152.344 E7.86792
G1 X74.231 Y152.141 E7.89323
G1 X73.753 Y151.867 E7.91847
G1 X73.319 Y151.526 E7.94375
G1 X72.939 Y151.126 E7.96902
G1 X72.62 Y150.676 E7.99428
G1 X72.37 Y150.184 E8.01955
G1 X72.194 Y149.661 E8.04483
G1 X72.095 Y149.118 E8.07011
G1 X72.08 Y148.477 E8.09947
G1 X72.143 Y147.459 E8.14618
G1 X72.255 Y146.022 E8.2122
G1 X72.426 Y143.25 E8.33939
G1 X72.517 Y140.529 E8.46408
G1 X72.531 Y137.813 E8.58847
G1 X72.467 Y135.095 E8.71299
G1 X72.327 Y132.375 E8.83773
G1 X72.111 Y129.668 E8.9621
G1 X71.817 Y126.964 E9.08667
G1 X71.443 Y124.237 E9.21274
G1 X71.001 Y121.579 E9.33614
G1 X70.483 Y118.925 E9.45999
G1 X69.883 Y116.261 E9.58505
G1 X69.213 Y113.624 E9.70966
G1 X68.471 Y111.027 E9.83336
G1 X67.638 Y108.391 E9.95997
G1 X66.745 Y105.824 E10.08445
G1 X65.799 Y103.325 E10.20683
G1 X64.75 Y100.782 E10.33282
G1 X63.646 Y98.305 E10.45702
G1 X62.455 Y95.823 E10.5831
G1 X61.227 Y93.442 E10.7058
G1 X59.909 Y91.05 E10.83088
G1 X58.511 Y88.681 E10.95686
G1 X57.251 Y86.661 E11.0659
G1 X56.994 Y86.173 E11.09116
G1 X56.81 Y85.653 E11.11642
G1 X56.703 Y85.112 E11.14168
G1 X56.675 Y84.751 E11.15826
G1 X56.666 Y84.427 E11.17311
G1 X56.667 Y76.067 E11.55599
G1 X56.679 Y75.382 E11.58737
G1 X56.728 Y74.833 E11.61261
G1 X56.857 Y74.296 E11.6379
G1 X57.061 Y73.784 E11.66315
G1 X57.242 Y73.454 E11.68038
G1 X57.732 Y72.657 E11.72323
G1 X58.311 Y71.745 E11.77271
G1 X59.702 Y69.409 E11.89723
G1 X61.027 Y67.032 E12.02186
G1 X62.279 Y64.63 E12.14592
G1 X63.469 Y62.18 E12.27066
G1 X64.594 Y59.686 E12.39597
G1 X65.639 Y57.182 E12.52024
G1 X66.626 Y54.617 E12.64611
G1 X67.519 Y52.082 E12.7692
G1 X68.346 Y49.508 E12.89302
G1 X69.112 Y46.867 E13.01896
G1 X69.796 Y44.239 E13.14334
G1 X70.404 Y41.587 E13.26795
G1 X70.94 Y38.911 E13.39294
G1 X71.394 Y36.254 E13.51639
G1 X71.776 Y33.564 E13.64083
G1 X72.085 Y30.83 E13.76684
G1 X72.312 Y28.15 E13.89002
G1 X72.465 Y25.436 E14.01452
G1 X72.542 Y22.686 E14.14051
G1 X72.54 Y19.964 E14.26518
G1 X72.463 Y17.278 E14.38825
G1 X72.26 Y13.91 E14.54278
G1 X72.122 Y12.131 E14.6245
G1 X72.082 Y11.491 E14.65387
G1 X72.088 Y10.939 E14.67915
G0 F7200 X72.629 Y10.946
G1 F1800 X72.717 Y10.442 E14.70258
G1 X72.882 Y9.959 E14.72596
G1 X73.12 Y9.507 E14.74936
G1 X73.426 Y9.097 E14.77279
G1 X73.792 Y8.74 E14.7962
G1 X74.209 Y8.445 E14.8196
G1 X74.667 Y8.218 E14.84301
G1 X75.155 Y8.066 E14.86642
G1 X75.825 Y7.984 E14.89733
G1 X76.805 Y7.966 E14.94222
G1 X80.737 Y7.967 E15.1223
G1 X81.413 Y7.977 E15.15327
G1 X81.922 Y8.025 E15.17668
G1 X82.417 Y8.151 E15.20008
G1 X82.887 Y8.353 E15.22351
G1 X83.319 Y8.625 E15.24689
G1 X83.655 Y8.908 E15.26701
G1 X84.008 Y9.277 E15.29039
G1 X84.3 Y9.697 E15.31382
G1 X84.523 Y10.157 E15.33723
G1 X84.671 Y10.646 E15.36063
G1 X84.737 Y11.092 E15.38128
G1 X85.045 Y15.021 E15.56178
G1 X85.314 Y18.785 E15.73461
G1 X85.556 Y22.469 E15.9037
G1 X85.828 Y26.981 E16.11072
G1 X86.059 Y31.222 E16.30524
G1 X86.244 Y33.934 E16.42973
G1 X86.513 Y36.707 E16.55733
G1 X86.848 Y39.368 E16.68017
G1 X87.272 Y42.114 E16.80742
G1 X87.765 Y44.795 E16.93227
G1 X88.332 Y47.459 E17.05701
G1 X88.974 Y50.11 E17.18193
G1 X89.696 Y52.751 E17.30733
G1 X90.494 Y55.379 E17.43311
G1 X91.369 Y57.992 E17.55932
G1 X92.301 Y60.537 E17.68345
G1 X93.321 Y63.094 E17.80953
G1 X94.4 Y65.59 E17.93407
G1 X95.564 Y68.089 E18.06033
G1 X96.778 Y70.511 E18.18441
G1 X98.347 Y73.416 E18.33562
G1 X98.554 Y73.884 E18.35906
G1 X98.686 Y74.378 E18.38248
G1 X98.739 Y74.877 E18.40546
G1 X98.748 Y75.195 E18.42003
G1 X98.75 Y85.969 E18.91347
G1 X98.739 Y86.692 E18.94658
G1 X98.691 Y87.201 E18.97
G1 X98.565 Y87.696 E18.99339
G1 X98.35 Y88.189 E19.01803
G1 X97.98 Y88.878 E19.05384
G1 X97.421 Y89.877 E19.10627
G1 X96.14 Y92.331 E19.23306
G1 X94.956 Y94.765 E19.35702
G1 X93.811 Y97.298 E19.48433
G1 X92.764 Y99.804 E19.60872
G1 X91.775 Y102.367 E19.73454
G1 X90.876 Y104.91 E19.85807
G1 X90.028 Y107.543 E19.98476
G1 X89.262 Y110.179 E20.11048
G1 X88.578 Y112.805 E20.23476
G1 X87.959 Y115.487 E20.36082
G1 X87.425 Y118.15 E20.48521
G1 X86.956 Y120.876 E20.6119
G1 X86.575 Y123.55 E20.7356
G1 X86.264 Y126.284 E20.86162
G1 X86.033 Y128.979 E20.98551
G1 X85.927 Y130.671 E21.06315
G1 X85.843 Y132.214 E21.13392
G1 X85.612 Y136.091 E21.3118
G1 X85.294 Y140.957 E21.53514
G1 X84.999 Y145.092 E21.725
G1 X84.753 Y148.25 E21.87007
G1 X84.691 Y148.924 E21.90107
G1 X84.605 Y149.427 E21.92444
G1 X84.441 Y149.911 E21.94784
G1 X84.204 Y150.364 E21.97126
G1 X83.899 Y150.774 E21.99466
G1 X83.64 Y151.041 E22.0117
G1 X83.247 Y151.368 E22.03511
G1 X82.808 Y151.63 E22.05853
G1 X82.333 Y151.82 E22.08196
G1 X81.835 Y151.934 E22.10536
G1 X81.421 Y151.968 E22.12438
G1 X80.367 Y151.988 E22.17266
G1 X76.502 Y151.987 E22.34968
G1 X75.839 Y151.978 E22.38004
G1 X75.33 Y151.931 E22.40345
G1 X74.834 Y151.805 E22.42689
G1 X74.364 Y151.604 E22.4503
G1 X73.932 Y151.332 E22.47368
G1 X73.547 Y150.996 E22.49709
G1 X73.219 Y150.604 E22.5205
G1 X72.956 Y150.166 E22.5439
G1 X72.765 Y149.692 E22.5673
G1 X72.649 Y149.194 E22.59072
G1 X72.619 Y148.509 E22.62212
G1 X72.681 Y147.501 E22.66837
G1 X72.795 Y146.047 E22.73517
G1 X72.966 Y143.266 E22.86278
G1 X73.057 Y140.55 E22.98724
G1 X73.071 Y137.803 E23.11305
G1 X73.007 Y135.09 E23.23734
G1 X72.865 Y132.34 E23.36345
G1 X72.647 Y129.603 E23.4892
G1 X72.354 Y126.904 E23.61354
G1 X71.98 Y124.181 E23.73942
G1 X71.524 Y121.439 E23.86673
G1 X71.01 Y118.808 E23.98951
G1 X70.406 Y116.123 E24.11555
G1 X69.741 Y113.504 E24.2393
G1 X68.986 Y110.864 E24.36506
G1 X68.154 Y108.233 E24.49144
G1 X67.252 Y105.638 E24.61726
G1 X66.302 Y103.128 E24.74018
G1 X65.246 Y100.568 E24.86701
G1 X64.13 Y98.064 E24.99256
G1 X62.946 Y95.597 E25.11789
G1 X61.704 Y93.19 E25.24194
G1 X60.35 Y90.733 E25.37042
G1 X59.002 Y88.449 E25.49189
G1 X57.709 Y86.376 E25.60378
G1 X57.474 Y85.922 E25.6272
G1 X57.311 Y85.437 E25.65063
G1 X57.215 Y84.736 E25.68304
G1 X57.206 Y84.412 E25.69788
G1 X57.207 Y76.077 E26.07962
G1 X57.219 Y75.392 E26.11099
G1 X57.267 Y74.883 E26.13441
G1 X57.395 Y74.388 E26.15783
G1 X57.702 Y73.737 E26.19079
G1 X58.188 Y72.946 E26.23331
G1 X58.771 Y72.028 E26.28311
G1 X60.178 Y69.665 E26.40907
G1 X61.494 Y67.303 E26.53291
G1 X62.768 Y64.859 E26.65913
G1 X63.951 Y62.425 E26.78308
G1 X65.088 Y59.903 E26.90978
G1 X66.144 Y57.371 E27.03542
G1 X67.126 Y54.82 E27.16062
G1 X68.034 Y52.245 E27.28567
G1 X68.87 Y49.643 E27.41083
G1 X69.623 Y47.048 E27.53459
G1 X70.322 Y44.357 E27.66192
G1 X70.937 Y41.681 E27.78768
G1 X71.467 Y39.029 E27.91154
G1 X71.926 Y36.349 E28.03607
G1 X72.316 Y33.599 E28.16327
G1 X72.621 Y30.896 E28.28785
G1 X72.851 Y28.193 E28.4121
G1 X73.005 Y25.445 E28.53815
G1 X73.082 Y22.7 E28.66392
G1 X73.08 Y19.985 E28.78826
G1 X73.001 Y17.23 E28.91449
G1 X72.795 Y13.811 E29.07136
G1 X72.661 Y12.097 E29.1501
G1 X72.621 Y11.457 E29.17947
G1 X72.629 Y10.946 E29.20288
G1 F2100 E28.80288
G1 F600 Z0.6
;MESH:Print 24 - Hardtop 2 - 0.15mm_PLA_20x20.3mf(3)
EXCLUDE_OBJECT_START NAME=Print_24_Hardtop_2_0_15mm_PLA_20x20_3mf_3
G0 F7200 X63.862 Y80.703 Z0.6
;TYPE:WALL-INNER
G1 F600 Z0.2
G1 F840 E29.20288
G1 F1639.1 X63.751 Y80.557 E29.2121
G1 F1751.4 X63.66 Y80.377 E29.2216
G1 F1800 X63.61 Y80.223 E29.22901
G1 X63.596 Y80.137 E29.233
G1 X63.592 Y78.795 E29.29447
G1 X63.457 Y78.879 E29.30175
G1 X63.328 Y78.944 E29.30836
G1 X63.172 Y79.006 E29.31605
G1 X63.005 Y79.057 E29.32405
G1 X62.732 Y79.101 E29.33671
G1 X62.618 Y79.109 E29.34195
G1 X62.433 Y79.103 E29.35042
G1 X62.158 Y79.06 E29.36317
G1 X61.994 Y79.011 E29.37101
G1 X61.839 Y78.952 E29.37861
G1 X61.707 Y78.886 E29.38537
G1 X61.559 Y78.795 E29.39332
G1 X61.328 Y78.611 E29.40685
G1 X61.287 Y78.566 E29.40964
G1 X61.286 Y81.533 E29.54552
G1 X61.422 Y81.407 E29.55401
G1 X61.558 Y81.303 E29.56186
G1 X61.723 Y81.202 E29.57072
G1 X61.975 Y81.092 E29.58331
G1 X62.151 Y81.039 E29.59173
G1 X62.43 Y80.994 E29.60467
G1 X62.53 Y80.988 E29.60926
G1 X62.721 Y80.995 E29.61801
G1 X62.993 Y81.037 E29.63062
G1 F1705.3 X63.437 Y81.172 E29.65305
G1 F1601.3 X63.514 Y81.208 E29.65743
G1 F1570.3 X63.741 Y81.362 E29.67183
G1 F1614.6 X63.862 Y81.495 E29.68101
G1 F1732.6 X64.104 Y81.83 E29.70067
G1 F1800 X64.188 Y81.975 E29.70835
G1 X64.248 Y82.105 E29.71491
G1 X64.306 Y82.266 E29.72274
G1 X64.341 Y82.4 E29.72909
G1 X64.373 Y82.583 E29.73759
G1 X64.383 Y82.711 E29.74347
G1 X64.383 Y82.876 E29.75103
G1 X64.373 Y83.006 E29.757
G1 X64.346 Y83.179 E29.76502
G1 X64.31 Y83.318 E29.7716
G1 X64.254 Y83.478 E29.77936
G1 X64.197 Y83.604 E29.7857
G1 X64.116 Y83.749 E29.7933
G1 X64.056 Y83.839 E29.79826
G1 X71.342 Y83.84 E30.13195
G1 X71.342 Y82.549 E30.19108
G1 X71.341 Y81.259 E30.25016
G1 X68.176 Y81.258 E30.39511
G1 X67.932 Y81.221 E30.40641
G1 X67.721 Y81.118 E30.41717
G1 X67.584 Y80.859 E30.43059
G1 F1732.6 X64.205 Y80.857 E30.59136
G1 F1614.6 X64.053 Y80.827 E30.59927
G1 F1570.3 X63.862 Y80.703 E30.61123
G0 F7200 X64.229 Y80.258
;TYPE:WALL-OUTER
G1 F1803.3 X64.189 Y80.215 E30.61391
G1 X64.154 Y80.159 E30.61693
G1 F1800 X64.133 Y80.079 E30.62072
G1 X64.132 Y78.112 E30.71081
G1 F2004.1 X64.187 Y77.621 E30.73113
G1 F2292.5 X64.194 Y77.138 E30.7485
G1 F2265.7 X64.181 Y76.891 E30.7575
G1 F2085.8 X64.157 Y76.635 E30.76766
G1 F1844.4 X64.12 Y76.377 E30.77931
G1 F1585.6 X64.071 Y76.111 E30.79337
G1 F1468.3 X64.071 Y75.78 E30.81196
G1 X63.74 Y75.78 E30.83054
G1 F1628.1 X63.359 Y75.714 E30.85012
G1 F1894.7 X63.201 Y75.695 E30.85704
G1 F2113 X62.672 Y75.661 E30.87773
G1 F2239.6 X62.286 Y75.668 E30.89194
G1 F1991.8 X61.87 Y75.717 E30.90927
G1 F1806.7 X60.747 Y75.72 E30.96052
G1 F1796.7 X60.747 Y76.55 E30.9986
G1 F1751.4 X60.761 Y76.958 E31.01782
G1 X60.746 Y77.884 E31.06141
G1 F1796.7 X60.747 Y82.05 E31.25256
G1 F1748.2 X60.761 Y82.458 E31.27181
G1 F1751.4 X60.746 Y83.384 E31.31541
G1 F1800 X60.746 Y84.379 E31.36098
G1 X61.862 Y84.379 E31.41209
G1 F1987.7 X62.314 Y84.431 E31.43096
G1 F2250 X62.535 Y84.437 E31.43906
G1 F2244.8 X62.868 Y84.43 E31.45129
G1 F1983.7 X63.303 Y84.379 E31.46949
G1 F1800 X71.882 Y84.38 E31.8624
G1 X71.882 Y82.549 E31.94626
G1 X71.881 Y80.719 E32.03008
G1 X68.176 Y80.718 E32.19976
G1 X68.095 Y80.706 E32.20351
G1 X68.025 Y80.672 E32.20708
G1 X67.907 Y80.448 E32.21867
G1 X67.907 Y80.319 E32.22458
G1 X64.374 Y80.318 E32.38639
G1 X64.32 Y80.307 E32.38891
G1 X64.229 Y80.258 E32.39365
G0 F7200 X64.189 Y80.215
G0 X64.154 Y80.159
G0 X64.135 Y80.085
G0 X63.477 Y80.085
G0 X63.344 Y79.204
G0 X62.138 Y79.172
G0 X62.298 Y78.538
G1 F1800 X62.189 Y78.507 E32.39884
G1 X62.034 Y78.448 E32.40643
G1 X61.842 Y78.335 E32.41663
G1 X61.68 Y78.201 E32.42626
G1 X61.54 Y78.032 E32.43631
G1 X61.457 Y77.9 E32.44346
G1 F1796.7 X61.376 Y77.718 E32.4526
G1 F1780.2 X61.339 Y77.601 E32.45828
G1 F1760.9 X61.306 Y77.434 E32.46625
G1 F1751.4 X61.306 Y77.176 E32.47839
G1 F1729.5 X61.327 Y77.004 E32.48665
G1 F1726.5 X61.365 Y76.89 E32.49239
G1 F1770.5 X61.478 Y76.659 E32.50436
G1 F1800 X61.599 Y76.486 E32.51403
G1 X61.748 Y76.337 E32.52368
G1 X61.915 Y76.213 E32.53321
G1 F1806.7 X61.99 Y76.173 E32.53709
G1 F1913.4 X62.189 Y76.121 E32.54595
G1 F2145.7 X62.501 Y76.087 E32.55801
G1 F2281.7 X62.645 Y76.087 E32.56321
G1 F2234.5 X62.841 Y76.106 E32.57048
G1 F2150.4 X62.949 Y76.126 E32.57469
G1 F2000 X63.148 Y76.181 E32.5832
G1 F1830.5 X63.26 Y76.223 E32.58858
G1 F1639.1 X63.451 Y76.315 E32.59925
G1 F1500 X63.513 Y76.353 E32.60324
G1 F1585.6 X63.62 Y76.555 E32.61513
G1 F1844.4 X63.698 Y76.757 E32.62481
G1 F2085.8 X63.752 Y76.966 E32.63334
G1 F2265.7 X63.779 Y77.174 E32.64097
G1 F2342.2 X63.781 Y77.376 E32.64808
G1 F2255.2 X63.756 Y77.624 E32.65719
G1 F2033.5 X63.712 Y77.833 E32.66585
G1 F1855 X63.645 Y77.985 E32.67323
G1 F1800 X63.515 Y78.155 E32.68303
G1 X63.357 Y78.302 E32.69292
G1 X63.172 Y78.421 E32.70299
G1 X62.944 Y78.514 E32.71427
G1 X62.829 Y78.543 E32.7197
G1 X62.618 Y78.569 E32.72944
G1 X62.501 Y78.567 E32.7348
G1 X62.298 Y78.538 E32.74419
G0 F7200 X62.189 Y78.507
G0 X62.108 Y78.476
G0 X61.866 Y79.084
G0 X61.158 Y77.665
G0 X61.125 Y77.274
G0 X61.273 Y76.195
;TYPE:WALL-INNER
G1 F2370.7 X61.247 Y76.239 E32.74597
G1 X61.197 Y76.239 E32.7477
G1 X61.171 Y76.195 E32.74948
G1 X61.197 Y76.151 E32.75126
G1 X61.247 Y76.151 E32.753
G0 F7200 X61.116 Y77.429
G0 X61.116 Y82.929
G0 X61.216 Y83.257
G0 X61.514 Y83.89
G0 X61.68 Y83.7
;TYPE:WALL-OUTER
G1 F1800 X61.54 Y83.532 E32.76301
G1 X61.457 Y83.4 E32.77015
G1 F1796.7 X61.376 Y83.219 E32.77925
G1 F1780.2 X61.339 Y83.101 E32.78498
G1 F1760.9 X61.306 Y82.934 E32.79295
G1 F1748.2 X61.305 Y82.676 E32.80512
G1 F1726.5 X61.326 Y82.504 E32.81339
G1 F1723.4 X61.364 Y82.39 E32.81914
