;FLAVOR:Marlin
;TIME:749
;Filament used: 0.769336m
;Layer height: 0.15
;MINX:34.193
;MINY:45.347
;MINZ:0.2
;MAXX:125.799
;MAXY:114.823
;MAXZ:1.95
;Generated with Cura_SteamEngine 5.2.1
M82 ;absolute extrusion mode


; Pre-Processed for Cancel-Object support by preprocess_cancellation v0.2.0
; 1 known objects
EXCLUDE_OBJECT_DEFINE NAME=Print_20_Interior_4_Rear_door_inner_frame_0_15mm_PLA_20x20_3mf_2 CENTER=80.905,84.651 POLYGON=[[37.523,49.148],[37.523,110.836],[122.419,110.836],[122.419,49.148]]
PRINT_START BED=70 EXTRUDER=220 STANDBY=175 CHAMBER=28
G92 E0
G92 E0
G1 F2100 E-0.4
;LAYER_COUNT:10
;LAYER:0
M107
G1 F600 Z0.6
G0 F7200 X35.781 Y46.178 Z0.6
;TYPE:SKIRT
G1 F600 Z0.2
G1 F840 E0
G1 F1800 X35.915 Y46.081 E0.00758
G1 X36.384 Y45.79 E0.03285
G1 X36.89 Y45.571 E0.05811
G1 X37.423 Y45.427 E0.08339
G1 X38.094 Y45.357 E0.11429
G1 X38.84 Y45.347 E0.14846
G1 X121.203 Y45.351 E3.92062
G1 X121.899 Y45.361 E3.9525
G1 X122.448 Y45.409 E3.97774
G1 X122.985 Y45.536 E4.00301
G1 X123.498 Y45.739 E4.02828
G1 X124.024 Y46.047 E4.0562
G1 X124.163 Y46.144 E4.06396
G1 X124.592 Y46.491 E4.08923
G1 X124.965 Y46.897 E4.11448
G1 X125.277 Y47.353 E4.13979
G1 X125.519 Y47.849 E4.16506
G1 X125.687 Y48.374 E4.19031
G1 X125.777 Y48.918 E4.21556
G1 X125.793 Y49.219 E4.22937
G1 X125.799 Y49.766 E4.25442
G1 X125.293 Y108.419 E6.94078
G1 X125.275 Y109.21 E6.97702
G1 X125.178 Y109.983 E7.0127
G1 X125.07 Y110.449 E7.0346
G1 X124.906 Y110.976 E7.05988
G1 X124.631 Y111.538 E7.08854
G1 X124.444 Y111.852 E7.10528
G1 X124.083 Y112.359 E7.13378
G1 X123.889 Y112.589 E7.14756
G1 X123.589 Y112.907 E7.16758
G1 X123.418 Y113.068 E7.17834
G1 X122.984 Y113.42 E7.20393
G1 X122.631 Y113.666 E7.22364
G1 X122.329 Y113.856 E7.23998
G1 X122.131 Y113.968 E7.2504
G1 X121.622 Y114.208 E7.27617
G1 X121.289 Y114.336 E7.29251
G1 X121.041 Y114.422 E7.30453
G1 X120.634 Y114.547 E7.32403
G1 X120.217 Y114.65 E7.3437
G1 X119.881 Y114.713 E7.35936
G1 X119.526 Y114.762 E7.37577
G1 X119.209 Y114.791 E7.39035
G1 X118.923 Y114.807 E7.40347
G1 X117.857 Y114.823 E7.4523
G1 X79.616 Y114.813 E9.20371
G1 X41.648 Y114.823 E10.94261
G1 X40.618 Y114.806 E10.98979
G1 X40.369 Y114.794 E11.00121
G1 X39.854 Y114.744 E11.02491
G1 X39.402 Y114.677 E11.04583
G1 X38.963 Y114.585 E11.06638
G1 X38.613 Y114.49 E11.08299
G1 X38.01 Y114.27 E11.11238
G1 X37.468 Y114.019 E11.13974
G1 X36.996 Y113.759 E11.16442
G1 X36.723 Y113.582 E11.17932
G1 X36.311 Y113.273 E11.20291
G1 X36.01 Y113.014 E11.22109
G1 X35.577 Y112.575 E11.24933
G1 X35.415 Y112.382 E11.26087
G1 X35.048 Y111.863 E11.28999
G1 X34.823 Y111.48 E11.31033
G1 X34.579 Y110.985 E11.33561
G1 X34.41 Y110.467 E11.36056
G1 X34.318 Y110.096 E11.37807
G1 X34.224 Y109.552 E11.40335
G1 X34.206 Y109.235 E11.41789
G1 X34.193 Y108.3 E11.46072
G1 X34.195 Y49.887 E14.13599
G1 X34.205 Y49.208 E14.16709
G1 X34.253 Y48.658 E14.19237
G1 X34.38 Y48.121 E14.21765
G1 X34.584 Y47.608 E14.24293
G1 X34.859 Y47.13 E14.26819
G1 X35.2 Y46.697 E14.29343
G1 X35.781 Y46.178 E14.32911
G0 F7200 X36.098 Y46.615
G1 F1800 X36.232 Y46.518 E14.33669
G1 X36.668 Y46.252 E14.36008
G1 X37.14 Y46.057 E14.38347
G1 X37.637 Y45.937 E14.40688
G1 X38.102 Y45.897 E14.42826
G1 X38.84 Y45.887 E14.46206
G1 X121.195 Y45.891 E18.23385
G1 X121.891 Y45.901 E18.26573
G1 X122.4 Y45.949 E18.28915
G1 X122.895 Y46.075 E18.31254
G1 X123.365 Y46.276 E18.33595
G1 X123.715 Y46.489 E18.35472
G1 X123.854 Y46.586 E18.36248
G1 X124.249 Y46.911 E18.38591
G1 X124.589 Y47.293 E18.40933
G1 X124.865 Y47.723 E18.43273
G1 X125.07 Y48.191 E18.45613
G1 X125.201 Y48.685 E18.47954
G1 X125.253 Y49.226 E18.50443
G1 X125.259 Y49.761 E18.52893
G1 X124.753 Y108.406 E21.21493
G1 X124.735 Y109.197 E21.25117
G1 X124.652 Y109.861 E21.28181
G1 X124.544 Y110.327 E21.30372
G1 X124.39 Y110.815 E21.32716
G1 X124.168 Y111.262 E21.35002
G1 X123.981 Y111.576 E21.36675
G1 X123.671 Y112.011 E21.39122
G1 X123.477 Y112.241 E21.405
G1 X123.219 Y112.514 E21.4222
G1 X123.048 Y112.675 E21.43296
G1 X122.676 Y112.977 E21.4549
G1 X122.323 Y113.223 E21.47461
G1 X122.063 Y113.386 E21.48866
G1 X121.865 Y113.498 E21.49908
G1 X121.428 Y113.704 E21.52121
G1 X120.882 Y113.906 E21.54787
G1 X120.475 Y114.031 E21.56737
G1 X120.118 Y114.119 E21.58421
G1 X119.782 Y114.182 E21.59987
G1 X119.477 Y114.224 E21.61397
G1 X118.914 Y114.267 E21.63983
G1 X117.857 Y114.283 E21.68824
G1 X79.616 Y114.273 E23.43965
G1 X41.593 Y114.283 E25.18107
G1 X40.627 Y114.267 E25.22532
G1 X40.145 Y114.234 E25.24745
G1 X39.482 Y114.143 E25.2781
G1 X39.104 Y114.064 E25.29578
G1 X38.754 Y113.969 E25.31239
G1 X38.237 Y113.78 E25.3376
G1 X37.695 Y113.529 E25.36496
G1 X37.29 Y113.306 E25.38614
G1 X37.017 Y113.129 E25.40104
G1 X36.663 Y112.864 E25.42129
G1 X36.362 Y112.605 E25.43948
G1 X35.99 Y112.228 E25.46373
G1 X35.828 Y112.035 E25.47527
G1 X35.514 Y111.589 E25.50025
G1 X35.289 Y111.206 E25.5206
G1 X35.065 Y110.747 E25.54399
G1 X34.934 Y110.337 E25.5637
G1 X34.842 Y109.966 E25.58121
G1 X34.746 Y109.227 E25.61534
G1 X34.733 Y108.3 E25.6578
G1 X34.735 Y49.895 E28.3327
G1 X34.745 Y49.216 E28.3638
G1 X34.793 Y48.707 E28.38722
G1 X34.919 Y48.212 E28.41061
G1 X35.121 Y47.742 E28.43404
G1 X35.393 Y47.31 E28.45742
G1 X35.73 Y46.925 E28.48085
G1 X36.098 Y46.615 E28.50289
G1 F2100 E28.10289
G1 F600 Z0.6
;MESH:Print 20 - Interior 4 + Rear door inner frame - 0.15mm_PLA_20x20.3mf(2)
EXCLUDE_OBJECT_START NAME=Print_20_Interior_4_Rear_door_inner_frame_0_15mm_PLA_20x20_3mf_2
G0 F7200 X38.252 Y107.61 Z0.6
;TYPE:WALL-OUTER
G1 F600 Z0.2
G1 F840 E28.50289
G1 F2012.4 X38.237 Y107.962 E28.51732
G1 X38.252 Y108.316 E28.53184
G1 F2100 E28.13184
G0 F7200 X38.541 Y109.44
G0 X38.925 Y109.875
G0 X39.563 Y110.242
G0 X40.268 Y110.404
G0 X40.991 Y110.352
G0 X41.675 Y110.085
G0 X42.548 Y109.909
G0 X43.027 Y109.205
G0 X43.278 Y108.392
G0 X43.278 Y107.539
G0 X41.322 Y103.004
G0 X41.232 Y101.975
G0 X41.259 Y58.223
G0 X41.504 Y57.027
G0 X41.985 Y56.044
G0 X42.59 Y55.29
G0 X43.332 Y54.663
G0 X44.491 Y54.101
G0 X45.48 Y53.904
G0 X99.734 Y53.816
G1 F840 E28.53184
G0 F7200 X99.735 Y53.998
;TYPE:WALL-INNER
G1 F1800 X99.855 Y54.064 E28.53811
G1 X100.053 Y54.251 E28.55058
G1 F1542.9 X100.309 Y54.74 E28.58008
G1 X100.561 Y54.251 E28.60947
G1 F1800 X100.761 Y54.064 E28.62201
G1 X100.881 Y53.998 E28.62828
G1 X100.953 Y53.97 E28.63182
G1 X101.069 Y53.941 E28.6373
G1 X101.209 Y53.929 E28.64373
G1 X113.325 Y53.929 E29.19864
G1 X114.019 Y53.94 E29.23042
G1 X114.383 Y53.964 E29.24713
G1 X114.743 Y54.009 E29.26375
G1 X115.061 Y54.069 E29.27857
G1 X115.364 Y54.152 E29.29296
G1 X115.721 Y54.278 E29.3103
G1 X116.043 Y54.425 E29.32651
G1 X116.425 Y54.644 E29.34667
G1 X116.807 Y54.914 E29.3681
G1 X117.227 Y55.288 E29.39385
G1 X117.504 Y55.589 E29.41259
G1 X117.796 Y55.967 E29.43447
G1 X117.961 Y56.221 E29.44834
G1 X118.084 Y56.441 E29.45988
G1 X118.234 Y56.76 E29.47603
G1 X118.373 Y57.127 E29.494
G1 X118.482 Y57.525 E29.5129
G1 X118.528 Y57.759 E29.52382
G1 X118.593 Y58.314 E29.54941
G1 X118.614 Y58.77 E29.57032
G1 X118.619 Y102.03 E31.55159
G1 X118.607 Y102.415 E31.56923
G1 X118.582 Y102.774 E31.58572
G1 X118.536 Y103.135 E31.60238
G1 X118.487 Y103.407 E31.61504
G1 X118.355 Y103.872 E31.63718
G1 X118.166 Y104.34 E31.66029
G1 X117.953 Y104.736 E31.68089
G1 X117.706 Y105.108 E31.70134
G1 F1796.7 X117.547 Y105.308 E31.71306
G1 F1585.6 X117.306 Y105.683 E31.73624
G1 F1525.9 X117.569 Y105.56 E31.75192
G1 F1717.3 X117.7 Y105.513 E31.75861
G1 F1796.7 X118.009 Y105.369 E31.77425
G1 F1800 X118.354 Y105.259 E31.79083
G1 X118.473 Y105.232 E31.79642
G1 X118.852 Y105.18 E31.81394
G1 X119.255 Y105.181 E31.8324
G1 X119.603 Y105.233 E31.84851
G1 X119.719 Y105.26 E31.85397
G1 X120.003 Y105.347 E31.86757
G1 X120.111 Y105.389 E31.87288
G1 X120.381 Y105.517 E31.88656
G1 X120.493 Y105.582 E31.89249
G1 X120.696 Y105.723 E31.90381
G1 X121.175 Y49.972 E34.45726
G1 X38.816 Y49.968 E38.22924
G1 X38.815 Y105.706 E40.78199
G1 X39.006 Y105.576 E40.79257
G1 X39.116 Y105.513 E40.79838
G1 X39.488 Y105.346 E40.81706
G1 X39.771 Y105.259 E40.83062
G1 X39.89 Y105.231 E40.83621
G1 X40.181 Y105.187 E40.84969
G1 X40.3 Y105.178 E40.85516
G1 X40.703 Y105.183 E40.87362
G1 X41.018 Y105.23 E40.8882
G1 X41.14 Y105.258 E40.89394
G1 X41.419 Y105.346 E40.90734
G1 X41.524 Y105.388 E40.91252
G1 F1786.8 X41.9 Y105.573 E40.93185
G1 F1741.9 X42.153 Y105.731 E40.94597
G1 F1723.4 X42.545 Y106.097 E40.97162
G1 F1767.3 X42.781 Y106.422 E40.99036
G1 F1800 X42.978 Y106.769 E41.00863
G1 X43.104 Y107.086 E41.02425
G1 X43.141 Y107.206 E41.03
G1 X43.204 Y107.489 E41.04328
G1 X43.221 Y107.604 E41.04861
G1 X43.245 Y107.925 E41.06335
G1 X43.221 Y108.327 E41.08179
G1 X43.203 Y108.444 E41.08722
G1 X43.137 Y108.733 E41.10079
G1 X43.101 Y108.849 E41.10635
G1 X42.993 Y109.123 E41.11984
G1 X42.941 Y109.231 E41.12533
G1 X42.792 Y109.488 E41.13894
G1 X42.726 Y109.585 E41.14431
G1 X42.543 Y109.816 E41.15781
G1 X42.46 Y109.906 E41.16342
G1 X42.24 Y110.111 E41.17719
G1 X42.121 Y110.202 E41.18405
G1 X117.37 Y110.202 E44.63039
G1 X117.248 Y110.108 E44.63745
G1 X117.028 Y109.904 E44.65119
G1 X116.946 Y109.814 E44.65677
G1 X116.762 Y109.582 E44.67033
G1 X116.695 Y109.484 E44.67576
G1 X116.547 Y109.228 E44.68931
G1 X116.495 Y109.12 E44.6948
G1 X116.386 Y108.844 E44.70839
G1 X116.348 Y108.72 E44.71433
G1 X116.273 Y108.366 E44.7309
G1 X116.245 Y107.92 E44.75137
G1 X116.28 Y107.514 E44.77003
G1 X116.366 Y107.143 E44.78747
G1 X116.505 Y106.782 E44.80519
G1 X116.7 Y106.437 E44.82334
G1 F1735.7 X116.749 Y106.33 E44.82893
G1 F1533.1 X116.907 Y106.046 E44.8464
G1 F1583.1 X116.506 Y106.251 E44.86986
G1 F1800 X116.355 Y106.35 E44.87813
G1 X116.129 Y106.479 E44.89004
G1 X115.717 Y106.67 E44.91084
G1 X115.415 Y106.78 E44.92556
G1 X115.096 Y106.869 E44.94073
G1 X114.787 Y106.931 E44.95516
G1 X114.26 Y106.992 E44.97946
G1 X113.809 Y107.013 E45.00014
G1 X101.207 Y106.993 E45.5773
G1 X100.915 Y106.939 E45.5909
G1 X100.836 Y106.903 E45.59488
G1 X100.712 Y106.824 E45.60161
G1 X100.528 Y106.623 E45.61409
G1 F1533.1 X100.308 Y106.259 E45.63696
G1 X100.087 Y106.622 E45.65981
G1 F1800 X99.902 Y106.822 E45.67229
G1 X99.778 Y106.901 E45.67903
G1 X99.699 Y106.936 E45.68298
G1 X99.548 Y106.978 E45.69016
G1 X99.405 Y106.989 E45.69673
G1 X46.585 Y106.819 E48.11586
G1 X45.877 Y106.805 E48.14829
G1 X45.516 Y106.78 E48.16486
G1 X45.189 Y106.741 E48.17994
G1 X44.893 Y106.686 E48.19373
G1 X44.465 Y106.568 E48.21407
G1 X44.079 Y106.42 E48.233
G1 X43.675 Y106.218 E48.25369
G1 X43.302 Y105.98 E48.27395
G1 F1786.8 X43.107 Y105.838 E48.28508
G1 F1754.5 X42.947 Y105.709 E48.29474
G1 F1748.2 X42.734 Y105.518 E48.30823
G1 F1735.7 X42.52 Y105.303 E48.32264
G1 F1729.5 X42.414 Y105.178 E48.33045
G1 F1773.7 X42.088 Y104.745 E48.35564
G1 F1800 X41.861 Y104.372 E48.37564
G1 X41.672 Y103.974 E48.39582
G1 X41.548 Y103.653 E48.41158
G1 X41.437 Y103.254 E48.43054
G1 X41.386 Y103 E48.44241
G1 X41.32 Y102.461 E48.46728
G1 X41.298 Y102.006 E48.48814
G1 X41.293 Y59.269 E50.44546
G1 X41.303 Y58.567 E50.47762
G1 X41.326 Y58.207 E50.49414
G1 X41.372 Y57.826 E50.51172
G1 X41.429 Y57.531 E50.52548
G1 X41.511 Y57.214 E50.54047
G1 X41.568 Y57.043 E50.54873
G1 X41.695 Y56.715 E50.56484
G1 X41.804 Y56.485 E50.57649
G1 X42.059 Y56.05 E50.59959
G1 X42.288 Y55.731 E50.61757
G1 X42.609 Y55.363 E50.63994
G1 X43.009 Y54.99 E50.66499
G1 X43.33 Y54.743 E50.68354
G1 X43.722 Y54.499 E50.70468
G1 X44.176 Y54.283 E50.72771
G1 X44.478 Y54.172 E50.74244
G1 X44.789 Y54.084 E50.75725
G1 X45.093 Y54.02 E50.77148
G1 X45.636 Y53.953 E50.79653
G1 X46.09 Y53.932 E50.81735
G1 X99.408 Y53.93 E53.25927
G1 X99.663 Y53.97 E53.27109
G1 X99.735 Y53.998 E53.27463
G0 F7200 X99.734 Y53.816
G0 X100.284 Y54.576
G0 X100.993 Y54.576
;TYPE:WALL-OUTER
G1 F1800 X101.059 Y54.514 E53.27878
G1 X101.123 Y54.482 E53.28205
G1 X101.209 Y54.469 E53.28604
G1 X113.317 Y54.469 E53.84057
G1 X113.985 Y54.479 E53.87117
G1 X114.318 Y54.5 E53.88645
G1 X114.633 Y54.538 E53.90098
G1 X114.921 Y54.591 E53.9144
G1 X115.189 Y54.663 E53.92711
G1 X115.497 Y54.77 E53.94204
G1 X115.843 Y54.929 E53.95948
G1 X116.153 Y55.11 E53.97592
G1 X116.489 Y55.35 E53.99483
G1 X116.81 Y55.635 E54.01449
G1 X117.123 Y55.974 E54.03562
G1 X117.366 Y56.294 E54.05402
G1 X117.492 Y56.489 E54.06466
G1 X117.595 Y56.671 E54.07424
G1 X117.754 Y57.011 E54.09143
G1 X117.866 Y57.314 E54.10622
G1 X117.952 Y57.629 E54.12118
G1 X117.998 Y57.863 E54.1321
G1 X118.052 Y58.32 E54.15317
G1 X118.074 Y58.808 E54.17555
G1 X118.078 Y102.025 E56.15485
G1 X118.068 Y102.379 E56.17107
G1 X118.046 Y102.708 E56.18617
G1 X118.007 Y103.022 E56.20066
G1 X117.955 Y103.309 E56.21402
G1 X117.836 Y103.722 E56.23371
G1 X117.689 Y104.087 E56.25173
G1 X117.501 Y104.44 E56.27004
G1 X117.281 Y104.774 E56.28836
G1 X117.156 Y104.934 E56.29766
G1 X116.873 Y105.25 E56.31709
G1 X116.541 Y105.553 E56.33767
G1 X116.211 Y105.798 E56.3565
G1 X116.046 Y105.905 E56.3655
G1 X115.865 Y106.007 E56.37502
G1 X115.532 Y106.162 E56.39184
G1 X115.23 Y106.272 E56.40656
G1 X114.939 Y106.35 E56.42036
G1 X114.66 Y106.405 E56.43338
G1 X114.253 Y106.451 E56.45214
G1 X113.77 Y106.473 E56.47429
G1 X101.208 Y106.453 E57.04962
G1 X101.111 Y106.435 E57.05414
G1 X101.043 Y106.397 E57.0577
G1 X100.982 Y106.33 E57.06185
G1 X100.939 Y106.206 E57.06786
G1 X100.939 Y54.74 E59.42497
G1 X100.993 Y54.576 E59.43287
G0 F7200 X101.059 Y54.514
G0 X101.123 Y54.482
G0 X101.162 Y54.477
G1 F2100 E59.03287
G0 F7200 X101.162 Y53.814
G0 X114.364 Y53.908
G0 X115.35 Y54.09
G0 X116.105 Y54.396
G0 X116.87 Y54.894
G0 X117.571 Y55.583
G0 X118.117 Y56.387
G0 X118.528 Y57.485
G0 X118.668 Y58.789
G0 X118.638 Y102.756
G0 X118.394 Y103.929
G0 X118.019 Y104.732
G0 X117.295 Y105.667
G0 X116.174 Y106.994
G0 X116.28 Y109.204
G0 X116.731 Y109.95
G0 X42.759 Y109.949
G0 X43.474 Y107.885
G0 X42.742 Y105.9
G0 X45.213 Y106.898
G0 X99.571 Y107.104
G1 F840 E59.43287
G0 F7200 X99.573 Y106.394
G1 F1800 X99.505 Y106.432 E59.43644
G1 X99.455 Y106.446 E59.43882
G1 X46.595 Y106.279 E61.85978
G1 X45.913 Y106.266 E61.89102
G1 X45.58 Y106.244 E61.9063
G1 X45.254 Y106.204 E61.92135
G1 X44.993 Y106.155 E61.93351
G1 X44.586 Y106.04 E61.95288
G1 X44.287 Y105.922 E61.9676
G1 X43.941 Y105.748 E61.98534
G1 X43.608 Y105.534 E62.00347
G1 F1803.3 X43.422 Y105.392 E62.01416
G1 X43.095 Y105.107 E62.03399
G1 X42.815 Y104.805 E62.05282
G1 X42.538 Y104.445 E62.07358
G1 F1800 X42.333 Y104.108 E62.09165
G1 X42.167 Y103.758 E62.10939
G1 X42.052 Y103.459 E62.12406
G1 X41.967 Y103.147 E62.13887
G1 X41.918 Y102.907 E62.15009
G1 X41.86 Y102.435 E62.17187
G1 X41.838 Y101.966 E62.19338
G1 X41.833 Y59.277 E64.1485
G1 X41.842 Y58.599 E64.17955
G1 X41.862 Y58.269 E64.19469
G1 X41.903 Y57.926 E64.21051
G1 X41.953 Y57.664 E64.22273
G1 X42.025 Y57.38 E64.23615
G1 X42.072 Y57.238 E64.243
G1 X42.199 Y56.91 E64.25911
G1 X42.3 Y56.702 E64.2697
G1 X42.499 Y56.364 E64.28766
G1 X42.727 Y56.045 E64.30562
G1 X43.013 Y55.721 E64.32541
G1 X43.339 Y55.418 E64.3458
G1 X43.66 Y55.171 E64.36435
G1 X44.003 Y54.961 E64.38277
G1 X44.362 Y54.79 E64.40098
G1 X44.686 Y54.672 E64.41677
G1 X44.948 Y54.601 E64.4292
G1 X45.186 Y54.552 E64.44033
G1 X45.661 Y54.493 E64.46225
G1 X46.128 Y54.472 E64.48366
G1 X99.408 Y54.47 E66.92385
G1 X99.493 Y54.483 E66.92778
G1 X99.557 Y54.514 E66.93104
G1 X99.623 Y54.577 E66.93522
G1 X99.679 Y54.74 E66.94311
G1 X99.677 Y106.203 E69.30008
G1 X99.635 Y106.327 E69.30607
G1 X99.573 Y106.394 E69.31025
G0 F7200 X99.505 Y106.432
G0 X99.455 Y106.446
G0 X99.383 Y106.446
G0 X100.308 Y106.259
;TYPE:WALL-INNER
G1 F1338.8 X100.308 Y89.086 E70.36767
G1 F1342.5 X100.308 Y71.913 E71.42218
G1 F1348.1 X100.309 Y54.74 E72.47231
G1 F2100 E72.07231
G0 F7200 X100.284 Y54.74
G0 X100.756 Y54.286
G0 X114.366 Y53.898
G0 X115.353 Y54.081
G0 X116.494 Y54.61
G0 X117.243 Y55.214
G0 X118.004 Y56.169
G0 X118.444 Y57.141
G0 X118.655 Y58.283
G0 X118.37 Y104.449
G0 X117.695 Y105.338
G0 X119.988 Y105.239
G0 X121.049 Y106.597
G1 F840 E72.47231
G0 F7200 X121.241 Y107.644
;TYPE:WALL-OUTER
G1 F2020.8 X121.254 Y107.97 E72.48562
G1 F2033.5 X121.239 Y108.308 E72.49934
G1 F2100 E72.09934
G1 F600 Z0.6
G0 F7200 X118.846 Y110.206 Z0.6
G1 F600 Z0.2
G1 F840 E72.49934
G1 F1770.5 X118.55 Y110.173 E72.51321
