;FLAVOR:Marlin
;TIME:4086
;Filament used: 4.79539m
;Layer height: 0.15
;MINX:34.42
;MINY:43.515
;MINZ:0.2
;MAXX:125.557
;MAXY:116.485
;MAXZ:8.1
;Generated with Cura_SteamEngine 5.2.1
M82 ;absolute extrusion mode


; Pre-Processed for Cancel-Object support by preprocess_cancellation v0.2.0
; 1 known objects
EXCLUDE_OBJECT_DEFINE NAME=Rear_Door_interior_panel_right_stl CENTER=77.042,86.527 POLYGON=[[38.305,47.4],[38.305,112.599],[121.692,112.599],[121.692,47.4]]
PRINT_START BED=70 EXTRUDER=220 STANDBY=175 CHAMBER=28
G92 E0
G92 E0
G1 F2100 E-0.4
;LAYER_COUNT:51
;LAYER:0
M107
G1 F600 Z0.6
G0 F7200 X41.342 Y45.122 Z0.6
;TYPE:SKIRT
G1 F600 Z0.2
G1 F840 E0
G1 F1800 X41.544 Y44.94 E0.01245
G1 X41.744 Y44.773 E0.02439
G1 X42.202 Y44.445 E0.05019
G1 X42.589 Y44.209 E0.07095
G1 X43.08 Y43.957 E0.09622
G1 X43.743 Y43.744 E0.12812
G1 X44.258 Y43.629 E0.15228
G1 X45.023 Y43.538 E0.18757
G1 X46.09 Y43.52 E0.23644
G1 X86.147 Y43.515 E2.07102
G1 X87.016 Y43.527 E2.11082
G1 X87.538 Y43.571 E2.13482
G1 X87.813 Y43.613 E2.14756
G1 X88.287 Y43.716 E2.16977
G1 X88.542 Y43.789 E2.18192
G1 X89.156 Y44.024 E2.21203
G1 X89.591 Y44.235 E2.23417
G1 X90.203 Y44.607 E2.26697
G1 X90.383 Y44.741 E2.27725
G1 X90.715 Y45.018 E2.29705
G1 X90.973 Y45.26 E2.31325
G1 X91.319 Y45.631 E2.33649
G1 X91.643 Y46.033 E2.36014
G1 X120.876 Y84.824 E4.58473
G1 X121.251 Y85.34 E4.61394
G1 X121.466 Y85.655 E4.63141
G1 X121.744 Y86.134 E4.65677
G1 X121.879 Y86.411 E4.67089
G1 X122.095 Y86.959 E4.69786
G1 X123.055 Y89.929 E4.84082
G1 X123.475 Y91.109 E4.89818
G1 X123.505 Y91.219 E4.9034
G1 X123.877 Y92.269 E4.95442
G1 X124.068 Y92.907 E4.98492
G1 X124.182 Y93.447 E5.0102
G1 X124.216 Y93.892 E5.03064
G1 X124.24 Y95.187 E5.08996
G1 X124.241 Y96.108 E5.13214
G1 X124.282 Y98.911 E5.26053
G1 X124.398 Y101.596 E5.38361
G1 X124.591 Y104.305 E5.508
G1 X124.861 Y107.012 E5.63259
G1 X125.213 Y109.747 E5.75889
G1 X125.507 Y111.655 E5.8473
G1 X125.544 Y111.99 E5.86274
G1 X125.557 Y112.191 E5.87196
G1 X125.553 Y112.743 E5.89725
G1 X125.469 Y113.288 E5.9225
G1 X125.307 Y113.816 E5.9478
G1 X125.079 Y114.299 E5.97226
G1 X124.953 Y114.524 E5.98407
G1 X124.65 Y114.984 E6.00929
G1 X124.282 Y115.396 E6.0346
G1 X123.86 Y115.751 E6.05985
G1 X123.39 Y116.04 E6.08512
G1 X122.884 Y116.259 E6.11037
G1 X122.351 Y116.403 E6.13566
G1 X121.694 Y116.471 E6.16591
G1 X120.867 Y116.485 E6.20379
G1 X39.128 Y116.48 E9.94737
G1 X38.351 Y116.468 E9.98296
G1 X37.802 Y116.419 E10.00821
G1 X37.265 Y116.292 E10.03348
G1 X36.752 Y116.088 E10.05876
G1 X36.274 Y115.813 E10.08402
G1 X35.841 Y115.471 E10.10929
G1 X35.409 Y115.006 E10.13836
G1 X35.258 Y114.813 E10.14958
G1 X34.951 Y114.355 E10.17484
G1 X34.712 Y113.857 E10.20013
G1 X34.549 Y113.33 E10.2254
G1 X34.45 Y112.56 E10.26095
G1 X34.422 Y111.437 E10.3124
G1 X34.42 Y99.889 E10.84129
G1 X34.427 Y99.436 E10.86204
G1 X34.42 Y96.143 E11.01286
G1 X34.42 Y55.273 E12.88467
G1 X34.433 Y54.372 E12.92594
G1 X34.494 Y53.749 E12.95461
G1 X34.551 Y53.434 E12.96927
G1 X34.624 Y53.111 E12.98444
G1 X34.7 Y52.832 E12.99768
G1 X34.875 Y52.33 E13.02203
G1 X35.066 Y51.885 E13.04421
G1 X35.32 Y51.395 E13.06949
G1 X35.519 Y51.102 E13.08571
G1 X35.786 Y50.746 E13.10609
G1 X36.086 Y50.393 E13.12731
G1 X36.969 Y49.475 E13.18564
G1 X40.792 Y45.652 E13.43326
G1 X41.342 Y45.122 E13.46824
G0 F7200 X41.717 Y45.51
G1 F1800 X42.09 Y45.188 E13.49081
G1 X42.483 Y44.906 E13.51296
G1 X42.87 Y44.67 E13.53372
G1 X43.326 Y44.439 E13.55713
G1 X43.86 Y44.271 E13.58277
G1 X44.375 Y44.156 E13.60694
G1 X45.033 Y44.077 E13.63729
G1 X46.09 Y44.06 E13.68571
G1 X86.139 Y44.055 E15.51992
G1 X87.008 Y44.067 E15.55972
G1 X87.457 Y44.104 E15.58035
G1 X87.732 Y44.146 E15.5931
G1 X88.138 Y44.235 E15.61213
G1 X88.393 Y44.308 E15.62428
G1 X88.92 Y44.51 E15.65013
G1 X89.355 Y44.721 E15.67227
G1 X89.881 Y45.04 E15.70044
G1 X90.061 Y45.174 E15.71072
G1 X90.345 Y45.412 E15.72769
G1 X90.603 Y45.654 E15.74389
G1 X90.9 Y45.973 E15.76386
G1 X91.211 Y46.358 E15.78652
G1 X120.44 Y85.143 E18.01079
G1 X120.743 Y85.557 E18.03428
G1 X121.02 Y85.96 E18.05668
G1 X121.258 Y86.37 E18.07839
G1 X121.393 Y86.647 E18.0925
G1 X121.579 Y87.118 E18.1157
G1 X122.53 Y90.064 E18.25748
G1 X122.967 Y91.29 E18.31709
G1 X122.996 Y91.398 E18.32221
G1 X123.368 Y92.449 E18.37327
G1 X123.549 Y93.057 E18.40232
G1 X123.652 Y93.557 E18.4257
G1 X123.676 Y93.902 E18.44154
G1 X123.7 Y95.188 E18.50045
G1 X123.701 Y96.116 E18.54295
G1 X123.741 Y98.907 E18.67079
G1 X123.859 Y101.624 E18.79534
G1 X124.054 Y104.361 E18.92101
G1 X124.327 Y107.098 E19.04699
G1 X124.672 Y109.783 E19.17097
G1 X124.974 Y111.738 E19.26157
G1 X125.005 Y112.025 E19.27479
G1 X125.018 Y112.226 E19.28402
G1 X125.011 Y112.737 E19.30742
G1 X124.925 Y113.241 E19.33084
G1 X124.761 Y113.725 E19.35424
G1 X124.608 Y114.035 E19.37008
G1 X124.482 Y114.26 E19.38189
G1 X124.198 Y114.685 E19.4053
G1 X123.852 Y115.06 E19.42866
G1 X123.451 Y115.377 E19.45208
G1 X123.006 Y115.628 E19.47548
G1 X122.527 Y115.806 E19.49888
G1 X122.026 Y115.908 E19.52229
G1 X121.685 Y115.932 E19.53795
G1 X120.867 Y115.945 E19.57542
G1 X39.137 Y115.94 E23.31859
G1 X38.36 Y115.928 E23.35418
G1 X37.851 Y115.88 E23.37759
G1 X37.355 Y115.753 E23.40104
G1 X36.886 Y115.551 E23.42443
G1 X36.454 Y115.278 E23.44784
G1 X36.069 Y114.942 E23.47124
G1 X35.835 Y114.673 E23.48757
G1 X35.684 Y114.48 E23.49879
G1 X35.401 Y114.054 E23.52221
G1 X35.188 Y113.589 E23.54564
G1 X35.051 Y113.097 E23.56903
G1 X34.99 Y112.547 E23.59437
G1 X34.961 Y111.342 E23.64958
G1 X34.96 Y99.897 E24.17375
G1 X34.967 Y99.444 E24.1945
G1 X34.96 Y96.142 E24.34573
G1 X34.96 Y55.281 E26.21713
G1 X34.973 Y54.38 E26.2584
G1 X35.025 Y53.845 E26.28302
G1 X35.082 Y53.53 E26.29768
G1 X35.145 Y53.253 E26.31069
G1 X35.221 Y52.974 E26.32393
G1 X35.371 Y52.543 E26.34483
G1 X35.562 Y52.098 E26.36701
G1 X35.8 Y51.646 E26.39041
G1 X35.951 Y51.426 E26.40263
G1 X36.218 Y51.07 E26.42301
G1 X36.476 Y50.767 E26.44123
G1 X37.35 Y49.857 E26.49902
G1 X41.167 Y46.04 E26.74625
G1 X41.717 Y45.51 E26.78123
G1 F2100 E26.38123
G1 F600 Z0.6
;MESH:Rear Door interior panel - right.stl
EXCLUDE_OBJECT_START NAME=Rear_Door_interior_panel_right_stl
G0 F7200 X42.089 Y60.127 Z0.6
;TYPE:WALL-INNER
G1 F600 Z0.2
G1 F840 E26.78123
G1 F1800 X41.951 Y59.85 E26.7954
G1 X41.857 Y59.532 E26.81059
G1 X41.826 Y59.3 E26.82131
G1 X41.823 Y59.184 E26.82662
G1 X41.839 Y58.93 E26.83828
G1 X41.869 Y58.763 E26.84605
G1 X41.907 Y58.627 E26.85252
G1 X41.979 Y58.435 E26.86191
G1 X42.032 Y58.322 E26.86763
G1 X42.171 Y58.096 E26.87978
G1 X42.343 Y57.896 E26.89186
G1 X42.439 Y57.804 E26.89795
G1 X42.565 Y57.702 E26.90537
G1 X42.672 Y57.628 E26.91133
G1 X42.885 Y57.51 E26.92248
G1 X43.121 Y57.421 E26.93404
G1 X43.263 Y57.384 E26.94076
G1 X43.423 Y57.357 E26.94819
G1 X43.543 Y57.346 E26.95371
G1 X43.817 Y57.348 E26.96626
G1 X43.945 Y57.363 E26.97216
G1 X44.08 Y57.391 E26.97847
G1 X44.262 Y57.445 E26.98717
G1 X44.38 Y57.49 E26.99295
G1 X44.541 Y57.568 E27.00114
G1 X44.716 Y57.677 E27.01059
G1 X44.911 Y57.834 E27.02205
G1 X45.089 Y58.027 E27.03408
G1 X45.229 Y58.229 E27.04533
G1 X45.284 Y58.327 E27.05048
G1 X45.382 Y58.55 E27.06164
G1 X45.442 Y58.743 E27.07089
G1 X45.477 Y58.939 E27.08001
G1 X45.492 Y59.124 E27.08851
G1 X45.492 Y59.217 E27.09277
G1 X45.451 Y59.568 E27.10896
G1 X45.376 Y59.817 E27.12087
G1 X45.258 Y60.072 E27.13374
G1 X45.218 Y60.142 E27.13743
G1 X45.104 Y60.306 E27.14658
G1 X45.011 Y60.414 E27.1531
G1 X44.843 Y60.576 E27.16379
G1 X44.66 Y60.711 E27.17421
G1 X44.446 Y60.832 E27.18547
G1 X44.198 Y60.93 E27.19768
G1 X43.982 Y60.981 E27.20784
G1 X43.715 Y61.008 E27.22013
G1 X43.585 Y61.008 E27.22609
G1 X43.413 Y60.992 E27.234
G1 X43.277 Y60.969 E27.24032
G1 X43.114 Y60.926 E27.24804
G1 X42.985 Y60.88 E27.25431
G1 X42.82 Y60.805 E27.26261
G1 X42.701 Y60.738 E27.26887
G1 X42.555 Y60.639 E27.27694
G1 X42.455 Y60.559 E27.28281
G1 X42.339 Y60.45 E27.2901
G1 X42.243 Y60.343 E27.29668
G1 X42.089 Y60.127 E27.30883
G0 F7200 X41.984 Y60.178
G0 X42.731 Y60.822
G0 X43.339 Y61.04
G0 X43.932 Y61.046
G0 X44.457 Y60.889
G0 X45.021 Y60.483
G0 X45.375 Y59.966
G0 X45.498 Y59.593
G0 X45.541 Y58.675
G0 X44.917 Y58.869
;TYPE:WALL-OUTER
G1 F1800 X44.944 Y59.027 E27.31617
G1 X44.952 Y59.202 E27.3242
G1 X44.927 Y59.435 E27.33493
G1 X44.885 Y59.589 E27.34224
G1 X44.772 Y59.836 E27.35468
G1 X44.676 Y59.976 E27.36245
G1 X44.602 Y60.062 E27.36765
G1 X44.491 Y60.167 E27.37465
G1 X44.367 Y60.257 E27.38167
G1 X44.211 Y60.346 E27.38989
G1 X44.038 Y60.414 E27.39841
G1 X43.827 Y60.459 E27.40829
G1 X43.632 Y60.47 E27.41723
G1 X43.415 Y60.447 E27.42723
G1 X43.252 Y60.404 E27.43495
G1 X43.004 Y60.291 E27.44743
G1 X42.858 Y60.192 E27.45551
G1 X42.677 Y60.021 E27.46691
G1 X42.554 Y59.853 E27.47645
G1 X42.453 Y59.651 E27.48679
G1 X42.388 Y59.432 E27.49725
G1 X42.364 Y59.248 E27.50575
G1 X42.373 Y59.007 E27.5168
G1 X42.413 Y58.817 E27.52569
G1 X42.502 Y58.587 E27.53698
G1 X42.611 Y58.41 E27.5465
G1 X42.747 Y58.254 E27.55598
G1 X42.94 Y58.097 E27.56738
G1 X43.092 Y58.01 E27.5754
G1 X43.305 Y57.929 E27.58584
G1 X43.513 Y57.889 E27.59554
G1 X43.754 Y57.884 E27.60658
G1 X43.881 Y57.899 E27.61243
G1 X44.148 Y57.978 E27.62519
G1 X44.303 Y58.054 E27.63309
G1 X44.456 Y58.155 E27.64149
G1 X44.586 Y58.271 E27.64947
G1 X44.68 Y58.38 E27.65606
G1 X44.796 Y58.557 E27.66575
G1 X44.856 Y58.684 E27.67218
G1 X44.917 Y58.869 E27.68111
G0 F7200 X44.944 Y59.027
G0 X44.945 Y59.067
G1 F2100 E27.28111
G1 F600 Z0.6
G0 F7200 X43.585 Y100.008 Z0.6
;TYPE:WALL-INNER
G1 F600 Z0.2
G1 F840 E27.68111
G1 F1800 X43.413 Y99.992 E27.68902
G1 X43.277 Y99.969 E27.69534
G1 X43.114 Y99.926 E27.70306
G1 X42.985 Y99.88 E27.70933
G1 X42.82 Y99.805 E27.71763
G1 X42.701 Y99.738 E27.72388
G1 X42.555 Y99.639 E27.73196
G1 X42.455 Y99.559 E27.73783
G1 X42.268 Y99.375 E27.74984
G1 X42.104 Y99.153 E27.76248
G1 X41.98 Y98.914 E27.77482
G1 X41.928 Y98.784 E27.78123
G1 X41.862 Y98.556 E27.7921
G1 X41.827 Y98.31 E27.80348
G1 X41.823 Y98.183 E27.8093
G1 X41.839 Y97.923 E27.82123
G1 X41.888 Y97.682 E27.83249
G1 X41.989 Y97.408 E27.84587
G1 X42.045 Y97.299 E27.85148
G1 X42.165 Y97.105 E27.86193
G1 X42.343 Y96.896 E27.8745
G1 X42.439 Y96.804 E27.88059
G1 X42.565 Y96.702 E27.88801
G1 X42.672 Y96.628 E27.89397
G1 X42.824 Y96.541 E27.90199
G1 X42.95 Y96.483 E27.90835
G1 X43.121 Y96.421 E27.91668
G1 X43.263 Y96.384 E27.9234
G1 X43.423 Y96.357 E27.93083
G1 X43.543 Y96.346 E27.93635
G1 X43.818 Y96.348 E27.94894
G1 X44.016 Y96.375 E27.95809
G1 X44.325 Y96.466 E27.97285
G1 X44.553 Y96.574 E27.9844
G1 X44.782 Y96.724 E27.99694
G1 X44.978 Y96.899 E28.00897
G1 X45.108 Y97.05 E28.0181
G1 X45.254 Y97.269 E28.03015
G1 X45.364 Y97.499 E28.04183
G1 X45.448 Y97.769 E28.05478
G1 X45.477 Y97.939 E28.06268
G1 X45.493 Y98.212 E28.0752
G1 X45.452 Y98.563 E28.09139
G1 X45.389 Y98.783 E28.10187
G1 X45.241 Y99.103 E28.11802
G1 X45.141 Y99.255 E28.12635
G1 X45.012 Y99.414 E28.13573
G1 X44.865 Y99.556 E28.14509
G1 X44.789 Y99.619 E28.14961
G1 X44.62 Y99.735 E28.159
G1 X44.493 Y99.807 E28.16568
G1 X44.256 Y99.909 E28.1775
G1 X44.132 Y99.948 E28.18345
G1 X43.953 Y99.986 E28.19183
G1 X43.715 Y100.008 E28.20278
G1 X43.585 Y100.008 E28.20874
G0 F7200 X43.575 Y100.121
G0 X42.489 Y99.73
G0 X42.858 Y99.192
;TYPE:WALL-OUTER
G1 F1800 X42.677 Y99.021 E28.22014
G1 X42.559 Y98.861 E28.22924
G1 X42.452 Y98.648 E28.24016
G1 X42.39 Y98.44 E28.2501
G1 X42.364 Y98.251 E28.25884
G1 X42.373 Y98.005 E28.27011
G1 X42.406 Y97.835 E28.27804
G1 X42.488 Y97.616 E28.28875
G1 X42.609 Y97.413 E28.29958
G1 X42.747 Y97.254 E28.30922
G1 X42.94 Y97.097 E28.32062
G1 X43.092 Y97.01 E28.32864
G1 X43.305 Y96.929 E28.33907
G1 X43.513 Y96.889 E28.34877
G1 X43.754 Y96.884 E28.35981
G1 X43.905 Y96.903 E28.36678
G1 X44.129 Y96.97 E28.37749
G1 X44.289 Y97.046 E28.3856
G1 X44.437 Y97.14 E28.39363
G1 X44.574 Y97.258 E28.40192
G1 X44.697 Y97.402 E28.41059
G1 X44.786 Y97.538 E28.41803
G1 X44.862 Y97.699 E28.42619
G1 X44.917 Y97.868 E28.43433
G1 X44.946 Y98.041 E28.44236
G1 X44.952 Y98.202 E28.44974
G1 X44.927 Y98.433 E28.46038
G1 X44.882 Y98.597 E28.46817
G1 X44.781 Y98.819 E28.47934
G1 X44.676 Y98.976 E28.48799
G1 X44.602 Y99.062 E28.49319
G1 X44.473 Y99.181 E28.50122
G1 X44.354 Y99.265 E28.5079
G1 X44.227 Y99.337 E28.51458
G1 X44.016 Y99.42 E28.52497
G1 X43.856 Y99.455 E28.53247
G1 X43.632 Y99.47 E28.54275
G1 X43.415 Y99.447 E28.55274
G1 X43.209 Y99.388 E28.56256
G1 X43.004 Y99.291 E28.57294
G1 X42.858 Y99.192 E28.58102
G0 F7200 X42.713 Y99.055
G1 F2100 E28.18102
G1 F600 Z0.6
G0 F7200 X109.301 Y102.557 Z0.6
;TYPE:WALL-INNER
G1 F600 Z0.2
G1 F840 E28.58102
G1 F1800 X109.009 Y102.64 E28.59493
G1 X108.916 Y102.659 E28.59927
G1 X108.649 Y102.683 E28.61155
G1 X108.563 Y102.684 E28.61549
G1 X108.229 Y102.652 E28.63086
G1 X107.971 Y102.585 E28.64306
G1 X107.844 Y102.538 E28.64927
G1 X107.655 Y102.451 E28.6588
G1 X107.521 Y102.374 E28.66587
G1 X107.351 Y102.252 E28.67546
G1 X107.251 Y102.166 E28.6815
G1 X107.102 Y102.017 E28.69115
G1 X107.015 Y101.915 E28.69729
G1 X106.851 Y101.678 E28.71049
G1 X106.703 Y101.359 E28.72659
G1 X106.613 Y101.025 E28.74244
G1 X106.584 Y100.699 E28.75743
G1 X106.61 Y100.344 E28.77373
G1 X106.694 Y100.018 E28.78915
G1 X106.717 Y99.955 E28.79222
G1 X106.856 Y99.662 E28.80707
G1 X107.029 Y99.416 E28.82084
G1 X107.091 Y99.343 E28.82523
G1 X107.289 Y99.147 E28.83799
G1 X107.546 Y98.96 E28.85255
G1 X107.654 Y98.899 E28.85823
G1 X107.936 Y98.776 E28.87232
G1 X108.171 Y98.711 E28.88349
G1 X108.275 Y98.69 E28.88835
G1 X108.563 Y98.666 E28.90158
G1 X108.663 Y98.668 E28.90616
G1 X108.916 Y98.691 E28.9178
G1 X109.015 Y98.711 E28.92242
G1 X109.284 Y98.787 E28.93522
G1 X109.532 Y98.899 E28.94769
G1 X109.662 Y98.975 E28.95458
G1 X109.879 Y99.132 E28.96685
G1 X110.105 Y99.354 E28.98136
G1 X110.293 Y99.606 E28.99576
G1 X110.353 Y99.702 E29.00094
G1 X110.455 Y99.922 E29.01205
G1 X110.497 Y100.035 E29.01757
G1 F1790.1 X110.547 Y100.207 E29.02582
G1 F1767.3 X110.59 Y100.394 E29.03477
G1 F1783.5 X110.604 Y100.677 E29.04787
G1 X110.589 Y100.955 E29.06074
G1 F1767.3 X110.546 Y101.146 E29.06987
G1 F1793.4 X110.457 Y101.424 E29.08329
G1 F1800 X110.35 Y101.652 E29.09482
G1 X110.293 Y101.744 E29.09978
G1 X110.139 Y101.958 E29.11185
G1 X109.936 Y102.167 E29.1252
G1 X109.835 Y102.252 E29.13124
G1 X109.59 Y102.422 E29.1449
G1 X109.301 Y102.557 E29.15951
G0 F7200 X109.349 Y102.661
G0 X109.921 Y102.258
G0 X110.382 Y101.709
G0 X110.629 Y101.032
G0 X110.629 Y100.318
G0 X110.43 Y99.77
G0 X109.911 Y99.011
G0 X109.535 Y99.548
;TYPE:WALL-OUTER
G1 F1800 X109.709 Y99.722 E29.17078
G1 X109.879 Y99.963 E29.18429
G1 X109.979 Y100.187 E29.19552
G1 X110.044 Y100.441 E29.20753
G1 X110.064 Y100.675 E29.21829
G1 X110.044 Y100.908 E29.229
G1 X109.966 Y101.198 E29.24275
G1 X109.872 Y101.4 E29.25296
G1 X109.721 Y101.616 E29.26503
G1 X109.554 Y101.785 E29.27591
G1 X109.337 Y101.944 E29.28823
G1 X109.097 Y102.056 E29.30036
G1 X108.872 Y102.118 E29.31105
G1 X108.617 Y102.144 E29.32279
G1 X108.331 Y102.122 E29.33592
G1 X108.07 Y102.048 E29.34835
G1 X107.836 Y101.935 E29.36025
G1 X107.666 Y101.813 E29.36983
G1 X107.484 Y101.635 E29.38149
G1 X107.307 Y101.386 E29.39548
G1 X107.211 Y101.176 E29.40606
G1 X107.145 Y100.932 E29.41764
G1 X107.124 Y100.654 E29.4304
G1 X107.144 Y100.424 E29.44098
G1 X107.212 Y100.172 E29.45293
G1 X107.32 Y99.938 E29.46473
G1 X107.474 Y99.724 E29.47681
G1 X107.645 Y99.553 E29.48789
G1 X107.853 Y99.404 E29.4996
G1 X108.084 Y99.296 E29.51128
G1 X108.328 Y99.229 E29.52287
G1 X108.569 Y99.206 E29.53396
G1 X108.841 Y99.226 E29.54645
G1 X109.097 Y99.294 E29.55858
G1 X109.326 Y99.4 E29.57014
G1 X109.535 Y99.548 E29.58187
G0 F7200 X109.676 Y99.689
G1 F2100 E29.18187
G0 F7200 X110.14 Y99.226
G0 X112.457 Y103.112
G0 X118.841 Y103.416
G0 X119.214 Y103.677
G0 X119.386 Y104.118
G0 X119.355 Y107.337
G0 X119.095 Y107.732
G0 X118.667 Y107.917
G0 X111.676 Y108.722
G0 X111.157 Y111.433
G0 X112.393 Y111.819
G0 X111.069 Y111.75
G1 F840 E29.58187
G0 F7200 X111.068 Y111.865
;TYPE:WALL-INNER
G1 F2037.7 X111.955 Y111.927 E29.61784
G1 F2359.2 X120.799 Y111.93 E29.92688
G1 F2376.5 X120.657 Y111.779 E29.93407
G1 X120.531 Y111.685 E29.93952
G1 X120.394 Y111.61 E29.94494
