;FLAVOR:RepRap
;TIME:2830
;Filament used: 4.298m
;Layer height: 0.2
;MINX:55.664
;MINY:63.164
;MINZ:0.2
;MAXX:104.336
;MAXY:96.836
;MAXZ:24
;Generated with Cura_SteamEngine 5.2.1
T0


; Pre-Processed for Cancel-Object support by preprocess_cancellation v0.2.0
; 1 known objects
EXCLUDE_OBJECT_DEFINE NAME=styofoam_cooler_stl CENTER=80.067,79.968 POLYGON=[[61.48,69.116],[61.48,90.884],[98.52,90.884],[98.52,69.116]]
M82 ;absolute extrusion mode
PRINT_START BED=110 EXTRUDER=255 STANDBY=200 CHAMBER=36
M83 ;relative extrusion mode
G1 F7200 E-0.4
;LAYER_COUNT:118
;LAYER:0
M107
G1 F600 Z0.6
G0 F7200 X58.637 Y65.664 Z0.6
;TYPE:SKIRT
G1 F600 Z0.2
G1 F2880 E0.4
G1 F1800 X59.235 Y65.147 E0.0307
G1 X60.027 Y64.603 E0.03731
G1 X60.359 Y64.404 E0.01503
G1 X61.058 Y64.032 E0.03075
G1 X61.925 Y63.686 E0.03625
G1 X62.203 Y63.594 E0.01137
G1 X62.966 Y63.384 E0.03073
G1 X63.688 Y63.259 E0.02846
G1 X63.951 Y63.226 E0.01029
G1 X64.926 Y63.165 E0.03794
G1 X95.075 Y63.164 E1.17084
G1 X95.865 Y63.204 E0.03072
G1 X96.32 Y63.264 E0.01782
G1 X96.643 Y63.316 E0.01271
G1 X97.416 Y63.481 E0.0307
G1 X98.059 Y63.682 E0.02616
G1 X98.333 Y63.781 E0.01131
G1 X99.062 Y64.087 E0.0307
G1 X99.745 Y64.458 E0.03018
G1 X100.029 Y64.631 E0.01291
G1 X100.683 Y65.076 E0.03072
G1 X101.289 Y65.585 E0.03073
G1 X101.612 Y65.903 E0.0176
G1 X101.837 Y66.138 E0.01263
G1 X102.354 Y66.736 E0.0307
G1 X102.897 Y67.527 E0.03726
G1 X103.096 Y67.859 E0.01503
G1 X103.468 Y68.558 E0.03075
G1 X103.814 Y69.425 E0.03625
G1 X103.906 Y69.703 E0.01137
G1 X104.116 Y70.466 E0.03073
G1 X104.24 Y71.181 E0.02818
G1 X104.273 Y71.442 E0.01022
G1 X104.335 Y72.423 E0.03817
G1 X104.336 Y87.573 E0.58835
G1 X104.266 Y88.619 E0.04071
G1 X104.231 Y88.879 E0.01019
G1 X104.086 Y89.656 E0.0307
G1 X103.898 Y90.333 E0.02729
G1 X103.636 Y91.079 E0.03071
G1 X103.3 Y91.796 E0.03075
G1 X103.083 Y92.177 E0.01703
G1 X102.88 Y92.512 E0.01521
G1 X102.437 Y93.167 E0.03071
G1 X101.929 Y93.774 E0.03074
G1 X101.6 Y94.109 E0.01823
G1 X101.363 Y94.336 E0.01274
G1 X100.765 Y94.853 E0.0307
G1 X99.973 Y95.397 E0.03731
G1 X99.641 Y95.596 E0.01503
G1 X98.942 Y95.968 E0.03075
G1 X98.075 Y96.314 E0.03625
G1 X97.797 Y96.406 E0.01137
G1 X97.034 Y96.616 E0.03073
G1 X96.312 Y96.741 E0.02846
G1 X96.049 Y96.774 E0.01029
G1 X95.074 Y96.835 E0.03794
G1 X64.925 Y96.836 E1.17084
G1 X64.135 Y96.796 E0.03072
G1 X63.68 Y96.736 E0.01782
G1 X63.357 Y96.684 E0.01271
G1 X62.584 Y96.519 E0.0307
G1 X61.935 Y96.316 E0.02641
G1 X61.659 Y96.216 E0.0114
G1 X60.929 Y95.909 E0.03075
G1 X60.249 Y95.539 E0.03006
G1 X59.967 Y95.367 E0.01283
G1 X59.313 Y94.921 E0.03074
G1 X58.708 Y94.412 E0.0307
G1 X58.388 Y94.097 E0.01744
G1 X58.163 Y93.862 E0.01263
G1 X57.646 Y93.264 E0.0307
G1 X57.101 Y92.47 E0.0374
G1 X56.901 Y92.136 E0.01512
G1 X56.53 Y91.437 E0.03073
G1 X56.183 Y90.565 E0.03645
G1 X56.092 Y90.289 E0.01129
G1 X55.882 Y89.526 E0.03073
G1 X55.76 Y88.819 E0.02786
G1 X55.727 Y88.558 E0.01022
G1 X55.665 Y87.577 E0.03817
G1 X55.664 Y72.427 E0.58835
G1 X55.733 Y71.385 E0.04055
G1 X55.768 Y71.124 E0.01023
G1 X55.913 Y70.346 E0.03073
G1 X56.105 Y69.66 E0.02766
G1 X56.367 Y68.914 E0.03071
G1 X56.703 Y68.198 E0.03072
G1 X56.917 Y67.823 E0.01677
G1 X57.12 Y67.488 E0.01521
G1 X57.563 Y66.833 E0.03071
G1 X58.071 Y66.226 E0.03074
G1 X58.4 Y65.891 E0.01823
G1 X58.637 Y65.664 E0.01274
G0 F7200 X59.01 Y66.054
G1 F1800 X59.589 Y65.556 E0.02966
G1 X60.305 Y65.066 E0.03369
G1 X60.637 Y64.867 E0.01503
G1 X61.312 Y64.51 E0.02965
G1 X62.095 Y64.199 E0.03272
G1 X62.373 Y64.107 E0.01137
G1 X63.109 Y63.906 E0.02963
G1 X63.755 Y63.795 E0.02546
G1 X64.018 Y63.762 E0.01029
G1 X64.926 Y63.705 E0.03533
G1 X95.075 Y63.704 E1.17084
G1 X95.837 Y63.744 E0.02963
G1 X96.557 Y63.849 E0.02826
G1 X97.303 Y64.009 E0.02963
G1 X97.875 Y64.19 E0.0233
G1 X98.149 Y64.289 E0.01131
G1 X98.853 Y64.585 E0.02966
G1 X99.464 Y64.919 E0.02704
G1 X99.748 Y65.092 E0.01291
G1 X100.379 Y65.523 E0.02968
G1 X101.222 Y66.276 E0.0439
G1 X101.447 Y66.511 E0.01263
G1 X101.945 Y67.09 E0.02966
G1 X102.434 Y67.805 E0.03364
G1 X102.633 Y68.137 E0.01503
G1 X102.99 Y68.812 E0.02965
G1 X103.301 Y69.595 E0.03272
G1 X103.393 Y69.873 E0.01137
G1 X103.594 Y70.609 E0.02963
G1 X103.704 Y71.249 E0.02522
G1 X103.737 Y71.51 E0.01022
G1 X103.795 Y72.424 E0.03557
G1 X103.796 Y87.574 E0.58835
G1 X103.731 Y88.547 E0.03787
G1 X103.696 Y88.807 E0.01019
G1 X103.464 Y89.895 E0.0432
G1 X103.38 Y90.18 E0.01154
G1 X103.126 Y90.9 E0.02965
G1 X102.622 Y91.897 E0.04338
G1 X102.419 Y92.232 E0.01521
G1 X101.989 Y92.863 E0.02965
G1 X101.496 Y93.446 E0.02965
G1 X101.227 Y93.719 E0.01488
G1 X100.99 Y93.946 E0.01274
G1 X100.411 Y94.444 E0.02966
G1 X99.695 Y94.934 E0.03369
G1 X99.363 Y95.133 E0.01503
G1 X98.688 Y95.49 E0.02965
G1 X97.905 Y95.801 E0.03272
G1 X97.627 Y95.893 E0.01137
G1 X96.891 Y96.094 E0.02963
G1 X96.245 Y96.205 E0.02546
G1 X95.982 Y96.238 E0.01029
G1 X95.074 Y96.295 E0.03533
G1 X64.925 Y96.296 E1.17084
G1 X64.163 Y96.256 E0.02963
G1 X63.443 Y96.151 E0.02826
G1 X62.697 Y95.991 E0.02963
G1 X62.119 Y95.808 E0.02354
G1 X61.843 Y95.708 E0.0114
G1 X61.14 Y95.411 E0.02964
G1 X60.53 Y95.078 E0.02699
G1 X60.248 Y94.906 E0.01283
G1 X59.618 Y94.475 E0.02964
G1 X58.778 Y93.724 E0.04376
G1 X58.553 Y93.489 E0.01263
G1 X58.055 Y92.91 E0.02966
G1 X57.565 Y92.192 E0.03376
G1 X57.365 Y91.858 E0.01512
G1 X57.007 Y91.184 E0.02964
G1 X56.696 Y90.396 E0.0329
G1 X56.605 Y90.12 E0.01129
G1 X56.404 Y89.383 E0.02967
G1 X56.296 Y88.751 E0.0249
G1 X56.263 Y88.49 E0.01022
G1 X56.205 Y87.576 E0.03557
G1 X56.204 Y72.426 E0.58835
G1 X56.269 Y71.457 E0.03772
G1 X56.304 Y71.196 E0.01023
G1 X56.538 Y70.097 E0.04364
G1 X56.622 Y69.813 E0.0115
G1 X56.877 Y69.094 E0.02963
G1 X57.378 Y68.103 E0.04312
G1 X57.581 Y67.768 E0.01521
G1 X58.011 Y67.137 E0.02965
G1 X58.504 Y66.554 E0.02965
G1 X58.773 Y66.281 E0.01488
G1 X59.01 Y66.054 E0.01274
G0 F7200 X59.384 Y66.444
G1 F1800 X59.941 Y65.966 E0.0285
G1 X60.583 Y65.529 E0.03016
G1 X60.915 Y65.33 E0.01503
G1 X61.564 Y64.988 E0.02849
G1 X62.264 Y64.712 E0.02922
G1 X62.542 Y64.62 E0.01137
G1 X63.251 Y64.427 E0.02854
G1 X63.823 Y64.331 E0.02252
G1 X64.086 Y64.298 E0.01029
G1 X64.926 Y64.245 E0.03269
G1 X95.075 Y64.244 E1.17084
G1 X96.148 Y64.33 E0.0418
G1 X96.471 Y64.382 E0.01271
G1 X97.189 Y64.538 E0.02853
G1 X97.692 Y64.698 E0.0205
G1 X97.966 Y64.797 E0.01131
G1 X98.642 Y65.084 E0.02852
G1 X99.184 Y65.38 E0.02398
G1 X99.468 Y65.553 E0.01291
G1 X100.073 Y65.969 E0.02851
G1 X100.832 Y66.65 E0.0396
G1 X101.057 Y66.885 E0.01263
G1 X101.535 Y67.442 E0.0285
G1 X101.971 Y68.083 E0.03011
G1 X102.17 Y68.415 E0.01503
G1 X102.512 Y69.064 E0.02849
G1 X102.788 Y69.764 E0.02922
G1 X102.88 Y70.042 E0.01137
G1 X103.073 Y70.751 E0.02854
G1 X103.169 Y71.316 E0.02226
G1 X103.202 Y71.577 E0.01022
G1 X103.255 Y72.424 E0.03296
G1 X103.256 Y87.574 E0.58835
G1 X103.196 Y88.475 E0.03507
G1 X103.161 Y88.735 E0.01019
G1 X102.946 Y89.742 E0.03999
G1 X102.862 Y90.027 E0.01154
G1 X102.616 Y90.72 E0.02856
G1 X102.16 Y91.617 E0.03908
G1 X101.957 Y91.952 E0.01521
G1 X101.543 Y92.559 E0.02853
G1 X100.853 Y93.329 E0.04015
G1 X100.616 Y93.556 E0.01274
G1 X100.059 Y94.034 E0.0285
G1 X99.417 Y94.471 E0.03016
G1 X99.085 Y94.67 E0.01503
G1 X98.436 Y95.012 E0.02849
G1 X97.736 Y95.288 E0.02922
G1 X97.458 Y95.38 E0.01137
G1 X96.749 Y95.573 E0.02854
G1 X96.177 Y95.669 E0.02252
G1 X95.914 Y95.702 E0.01029
G1 X95.074 Y95.755 E0.03269
G1 X64.925 Y95.756 E1.17084
G1 X63.852 Y95.67 E0.0418
G1 X63.529 Y95.618 E0.01271
G1 X62.811 Y95.462 E0.02853
G1 X62.303 Y95.3 E0.02071
G1 X62.027 Y95.2 E0.0114
G1 X61.351 Y94.913 E0.02852
G1 X60.811 Y94.617 E0.02391
G1 X60.529 Y94.445 E0.01283
G1 X59.924 Y94.029 E0.02851
G1 X59.168 Y93.35 E0.03946
G1 X58.943 Y93.115 E0.01263
G1 X58.465 Y92.558 E0.0285
G1 X58.028 Y91.915 E0.03019
G1 X57.828 Y91.581 E0.01512
G1 X57.485 Y90.931 E0.02854
G1 X57.208 Y90.227 E0.02938
G1 X57.117 Y89.951 E0.01129
G1 X56.926 Y89.242 E0.02852
G1 X56.831 Y88.684 E0.02198
G1 X56.798 Y88.423 E0.01022
G1 X56.745 Y87.576 E0.03296
G1 X56.744 Y72.426 E0.58835
G1 X56.804 Y71.529 E0.03491
G1 X56.839 Y71.268 E0.01023
G1 X57.056 Y70.251 E0.04038
G1 X57.14 Y69.967 E0.0115
G1 X57.387 Y69.274 E0.02857
G1 X57.84 Y68.383 E0.03882
G1 X58.043 Y68.048 E0.01521
G1 X58.457 Y67.441 E0.02853
G1 X59.147 Y66.671 E0.04015
G1 X59.384 Y66.444 E0.01274
G0 F7200 X59.758 Y66.834
G1 F1800 X60.293 Y66.377 E0.02732
G1 X60.86 Y65.993 E0.02659
G1 X61.192 Y65.794 E0.01503
G1 X61.816 Y65.466 E0.02738
G1 X62.434 Y65.224 E0.02577
G1 X62.712 Y65.132 E0.01137
G1 X63.392 Y64.949 E0.02735
G1 X63.89 Y64.866 E0.01961
G1 X64.153 Y64.833 E0.01029
G1 X64.926 Y64.785 E0.03008
G1 X95.075 Y64.784 E1.17084
G1 X96.062 Y64.863 E0.03845
G1 X96.385 Y64.915 E0.01271
G1 X97.073 Y65.066 E0.02735
G1 X97.508 Y65.206 E0.01775
G1 X97.782 Y65.305 E0.01131
G1 X98.43 Y65.581 E0.02735
G1 X98.903 Y65.842 E0.02098
G1 X99.187 Y66.015 E0.01291
G1 X99.767 Y66.415 E0.02736
G1 X100.442 Y67.023 E0.03528
G1 X100.667 Y67.258 E0.01263
G1 X101.124 Y67.794 E0.02735
G1 X101.507 Y68.36 E0.02654
G1 X101.706 Y68.692 E0.01503
G1 X102.034 Y69.316 E0.02738
G1 X102.276 Y69.934 E0.02577
G1 X102.368 Y70.212 E0.01137
G1 X102.551 Y70.892 E0.02735
G1 X102.633 Y71.384 E0.01937
G1 X102.666 Y71.645 E0.01022
G1 X102.715 Y72.424 E0.03031
G1 X102.716 Y87.574 E0.58835
G1 X102.66 Y88.402 E0.03223
G1 X102.625 Y88.662 E0.01019
G1 X102.428 Y89.59 E0.03684
G1 X102.344 Y89.875 E0.01154
G1 X102.106 Y90.538 E0.02736
G1 X101.698 Y91.337 E0.03484
G1 X101.495 Y91.672 E0.01521
G1 X101.096 Y92.253 E0.02737
G1 X100.479 Y92.939 E0.03583
G1 X100.242 Y93.166 E0.01274
G1 X99.707 Y93.623 E0.02732
G1 X99.14 Y94.007 E0.02659
G1 X98.808 Y94.206 E0.01503
G1 X98.184 Y94.534 E0.02738
G1 X97.566 Y94.776 E0.02577
G1 X97.288 Y94.868 E0.01137
G1 X96.608 Y95.051 E0.02735
G1 X96.11 Y95.134 E0.01961
G1 X95.847 Y95.167 E0.01029
G1 X95.074 Y95.215 E0.03008
G1 X64.925 Y95.216 E1.17084
G1 X63.938 Y95.137 E0.03845
G1 X63.615 Y95.085 E0.01271
G1 X62.927 Y94.934 E0.02735
G1 X62.487 Y94.793 E0.01794
G1 X62.211 Y94.693 E0.0114
G1 X61.563 Y94.415 E0.02738
G1 X61.092 Y94.156 E0.02087
G1 X60.81 Y93.984 E0.01283
G1 X60.231 Y93.583 E0.02735
G1 X59.558 Y92.977 E0.03517
G1 X59.333 Y92.742 E0.01263
G1 X58.876 Y92.206 E0.02735
G1 X58.491 Y91.637 E0.02668
G1 X58.291 Y91.303 E0.01512
G1 X57.964 Y90.679 E0.02736
G1 X57.721 Y90.058 E0.0259
G1 X57.63 Y89.782 E0.01129
G1 X57.448 Y89.101 E0.02737
G1 X57.367 Y88.616 E0.0191
G1 X57.334 Y88.355 E0.01022
G1 X57.285 Y87.576 E0.03031
G1 X57.284 Y72.426 E0.58835
G1 X57.339 Y71.601 E0.03211
G1 X57.374 Y71.34 E0.01023
G1 X57.574 Y70.404 E0.03717
G1 X57.658 Y70.12 E0.0115
G1 X57.896 Y69.456 E0.02739
G1 X58.302 Y68.663 E0.0346
G1 X58.505 Y68.328 E0.01521
G1 X58.904 Y67.747 E0.02737
G1 X59.521 Y67.061 E0.03583
G1 X59.758 Y66.834 E0.01274
G0 F7200 X60.131 Y67.224
G1 F1800 X60.644 Y66.788 E0.02615
G1 X61.138 Y66.456 E0.02311
G1 X61.47 Y66.257 E0.01503
G1 X62.067 Y65.946 E0.02614
G1 X62.604 Y65.737 E0.02238
G1 X62.882 Y65.645 E0.01137
G1 X63.532 Y65.472 E0.02612
G1 X63.957 Y65.402 E0.01673
G1 X64.22 Y65.369 E0.01029
G1 X64.926 Y65.325 E0.02747
G1 X95.075 Y65.324 E1.17084
G1 X95.976 Y65.396 E0.0351
G1 X96.299 Y65.448 E0.01271
G1 X96.956 Y65.594 E0.02614
G1 X97.325 Y65.713 E0.01506
G1 X97.599 Y65.812 E0.01131
G1 X98.217 Y66.078 E0.02613
G1 X98.622 Y66.303 E0.01799
G1 X98.906 Y66.476 E0.01291
G1 X99.459 Y66.859 E0.02612
G1 X100.051 Y67.397 E0.03107
G1 X100.276 Y67.632 E0.01263
G1 X100.712 Y68.145 E0.02615
G1 X101.044 Y68.638 E0.02308
G1 X101.243 Y68.97 E0.01503
G1 X101.554 Y69.567 E0.02614
G1 X101.763 Y70.104 E0.02238
G1 X101.855 Y70.382 E0.01137
G1 X102.028 Y71.032 E0.02612
G1 X102.097 Y71.452 E0.01653
G1 X102.13 Y71.713 E0.01022
G1 X102.175 Y72.424 E0.02767
G1 X102.176 Y87.574 E0.58835
G1 X102.125 Y88.33 E0.02943
G1 X102.09 Y88.59 E0.01019
G1 X101.91 Y89.437 E0.03363
G1 X101.826 Y89.722 E0.01154
G1 X101.597 Y90.355 E0.02614
G1 X101.236 Y91.057 E0.03066
G1 X101.033 Y91.392 E0.01521
G1 X100.651 Y91.946 E0.02613
G1 X100.106 Y92.549 E0.03156
G1 X99.869 Y92.776 E0.01274
G1 X99.356 Y93.212 E0.02615
G1 X98.862 Y93.544 E0.02311
G1 X98.53 Y93.743 E0.01503
G1 X97.933 Y94.054 E0.02614
G1 X97.396 Y94.263 E0.02238
G1 X97.118 Y94.355 E0.01137
G1 X96.468 Y94.528 E0.02612
G1 X96.043 Y94.598 E0.01673
G1 X95.78 Y94.631 E0.01029
G1 X95.074 Y94.675 E0.02747
G1 X64.925 Y94.676 E1.17084
G1 X64.024 Y94.604 E0.0351
G1 X63.701 Y94.552 E0.01271
G1 X63.044 Y94.406 E0.02614
G1 X62.671 Y94.285 E0.01523
G1 X62.395 Y94.185 E0.0114
G1 X61.776 Y93.918 E0.02618
G1 X61.374 Y93.695 E0.01785
G1 X61.092 Y93.523 E0.01283
G1 X60.539 Y93.139 E0.02615
G1 X59.949 Y92.603 E0.03096
G1 X59.724 Y92.368 E0.01263
G1 X59.288 Y91.855 E0.02615
G1 X58.954 Y91.36 E0.02319
G1 X58.754 Y91.026 E0.01512
G1 X58.443 Y90.429 E0.02614
G1 X58.234 Y89.888 E0.02252
G1 X58.143 Y89.612 E0.01129
G1 X57.971 Y88.962 E0.02611
G1 X57.903 Y88.548 E0.01629
G1 X57.87 Y88.287 E0.01022
G1 X57.825 Y87.576 E0.02767
G1 X57.824 Y72.426 E0.58835
G1 X57.874 Y71.672 E0.02935
G1 X57.909 Y71.411 E0.01023
G1 X58.092 Y70.557 E0.03392
G1 X58.176 Y70.273 E0.0115
G1 X58.405 Y69.64 E0.02614
G1 X58.764 Y68.943 E0.03045
G1 X58.967 Y68.608 E0.01521
G1 X59.349 Y68.054 E0.02613
G1 X59.894 Y67.451 E0.03156
G1 X60.131 Y67.224 E0.01274
G0 F7200 X60.505 Y67.614
G1 F1800 X60.994 Y67.201 E0.02486
G1 X61.416 Y66.919 E0.01971
G1 X61.748 Y66.72 E0.01503
G1 X62.316 Y66.426 E0.02484
G1 X62.773 Y66.25 E0.01902
G1 X63.051 Y66.158 E0.01137
G1 X63.671 Y65.995 E0.0249
G1 X64.024 Y65.938 E0.01389
G1 X64.287 Y65.905 E0.01029
G1 X64.926 Y65.865 E0.02486
G1 X95.075 Y65.864 E1.17084
G1 X95.89 Y65.929 E0.03175
G1 X96.213 Y65.981 E0.01271
G1 X97.141 Y66.221 E0.03722
G1 X97.415 Y66.32 E0.01131
G1 X98.003 Y66.575 E0.02489
G1 X98.341 Y66.764 E0.01504
G1 X98.625 Y66.937 E0.01291
G1 X99.15 Y67.303 E0.02485
G1 X99.661 Y67.77 E0.02688
G1 X99.886 Y68.005 E0.01263
G1 X100.3 Y68.494 E0.02488
G1 X100.581 Y68.916 E0.01969
G1 X100.78 Y69.248 E0.01503
G1 X101.074 Y69.816 E0.02484
G1 X101.25 Y70.273 E0.01902
G1 X101.342 Y70.551 E0.01137
G1 X101.505 Y71.171 E0.0249
G1 X101.561 Y71.52 E0.01373
G1 X101.594 Y71.781 E0.01022
G1 X101.635 Y72.424 E0.02502
G1 X101.636 Y87.574 E0.58835
G1 X101.59 Y88.258 E0.02662
G1 X101.555 Y88.518 E0.01019
G1 X101.392 Y89.284 E0.03041
G1 X101.308 Y89.569 E0.01154
G1 X101.089 Y90.171 E0.02488
G1 X100.774 Y90.778 E0.02656
G1 X100.571 Y91.113 E0.01521
G1 X100.206 Y91.638 E0.02483
G1 X99.732 Y92.159 E0.02735
G1 X99.495 Y92.386 E0.01274
G1 X99.006 Y92.799 E0.02486
G1 X98.584 Y93.081 E0.01971
G1 X98.252 Y93.28 E0.01503
G1 X97.684 Y93.574 E0.02484
G1 X97.227 Y93.75 E0.01902
G1 X96.949 Y93.842 E0.01137
G1 X96.329 Y94.005 E0.0249
G1 X95.976 Y94.062 E0.01389
G1 X95.713 Y94.095 E0.01029
G1 X95.074 Y94.135 E0.02486
G1 X64.925 Y94.136 E1.17084
G1 X64.11 Y94.071 E0.03175
G1 X63.787 Y94.019 E0.01271
G1 X63.162 Y93.878 E0.02488
G1 X62.578 Y93.677 E0.02399
G1 X61.991 Y93.422 E0.02485
G1 X61.655 Y93.234 E0.01495
G1 X61.373 Y93.062 E0.01283
G1 X60.848 Y92.695 E0.02488
G1 X60.339 Y92.23 E0.02677
G1 X60.114 Y91.995 E0.01263
G1 X59.7 Y91.506 E0.02488
G1 X59.418 Y91.082 E0.01978
G1 X59.218 Y90.748 E0.01512
G1 X58.924 Y90.18 E0.02484
G1 X58.747 Y89.719 E0.01918
G1 X58.656 Y89.443 E0.01129
G1 X58.494 Y88.824 E0.02485
G1 X58.406 Y88.219 E0.02374
G1 X58.365 Y87.576 E0.02502
G1 X58.364 Y72.426 E0.58835
G1 X58.41 Y71.744 E0.02655
G1 X58.445 Y71.483 E0.01023
G1 X58.61 Y70.71 E0.0307
G1 X58.694 Y70.426 E0.0115
G1 X58.913 Y69.824 E0.02488
G1 X59.226 Y69.222 E0.02635
G1 X59.429 Y68.887 E0.01521
G1 X59.794 Y68.362 E0.02483
G1 X60.268 Y67.841 E0.02735
G1 X60.505 Y67.614 E0.01274
G0 F7200 X60.878 Y68.004
G1 F1800 X61.342 Y67.615 E0.02351
G1 X61.693 Y67.382 E0.01636
G1 X62.025 Y67.183 E0.01503
G1 X62.564 Y66.907 E0.02352
G1 X62.943 Y66.762 E0.01576
G1 X63.221 Y66.67 E0.01137
G1 X64.092 Y66.474 E0.03467
G1 X64.355 Y66.441 E0.01029
G1 X64.926 Y66.405 E0.02222
G1 X95.075 Y66.404 E1.17084
G1 X95.805 Y66.462 E0.02844
G1 X96.128 Y66.514 E0.01271
G1 X96.958 Y66.729 E0.0333
G1 X97.232 Y66.828 E0.01131
G1 X97.787 Y67.071 E0.02353
G1 X98.06 Y67.225 E0.01217
G1 X98.344 Y67.398 E0.01291
G1 X98.839 Y67.747 E0.02352
