;FLAVOR:Marlin
;TIME:4421
;Filament used: 3.92627m
;Layer height: 0.2
;MINX:40.286
;MINY:57.971
;MINZ:0.2
;MAXX:117.828
;MAXY:106.14
;MAXZ:42.2
;Generated with Cura_SteamEngine 5.2.1
M82 ;absolute extrusion mode


; Pre-Processed for Cancel-Object support by preprocess_cancellation v0.2.0
; 1 known objects
EXCLUDE_OBJECT_DEFINE NAME=SB2040_Cable_Cover_With_Fan_stl CENTER=73.041,79.031 POLYGON=[[42.165,58.479],[42.165,101.58],[117.828,101.58],[117.828,58.479]]
PRINT_START BED=110 EXTRUDER=245 STANDBY=200 CHAMBER=36
G92 E0
G92 E0
G1 F7200 E-0.4
;LAYER_COUNT:211
;LAYER:0
M107
G1 F600 Z0.6
G0 F7200 X48.944 Y67.327 Z0.6
;TYPE:SKIRT
G1 F600 Z0.2
G1 F2880 E0
G1 F1200 X49.452 Y67.027 E0.02291
G1 X49.995 Y66.798 E0.0458
G1 X50.564 Y66.645 E0.06868
G1 X51.149 Y66.57 E0.09158
G1 X51.908 Y66.591 E0.12107
G1 X52.81 Y66.696 E0.15634
G1 X53.727 Y66.818 E0.19226
G1 X56.425 Y67.096 E0.29759
G1 X59.138 Y67.299 E0.40325
G1 X61.828 Y67.425 E0.50783
G1 X64.514 Y67.474 E0.61216
G1 X67.236 Y67.447 E0.71787
G1 X69.963 Y67.341 E0.82385
G1 X72.642 Y67.163 E0.92812
G1 X75.317 Y66.908 E1.03248
G1 X78.021 Y66.573 E1.13829
G1 X80.696 Y66.164 E1.24338
G1 X83.331 Y65.686 E1.34738
G1 X85.984 Y65.128 E1.45267
G1 X88.632 Y64.489 E1.55845
G1 X91.24 Y63.783 E1.66338
G1 X93.85 Y62.995 E1.76926
G1 X96.384 Y62.152 E1.87297
G1 X98.96 Y61.213 E1.97945
G1 X101.431 Y60.233 E2.08268
G1 X105.039 Y58.656 E2.2356
G1 X105.659 Y58.37 E2.26211
G1 X106.209 Y58.16 E2.28497
G1 X106.784 Y58.026 E2.3079
G1 X107.371 Y57.971 E2.3308
G1 X107.96 Y57.997 E2.3537
G1 X108.54 Y58.101 E2.37658
G1 X109.101 Y58.283 E2.39948
G1 X109.632 Y58.539 E2.42238
G1 X110.123 Y58.865 E2.44526
G1 X110.462 Y59.153 E2.46254
G1 X110.796 Y59.47 E2.48042
G1 X111.94 Y60.614 E2.54325
G1 X112.412 Y61.1 E2.56956
G1 X112.793 Y61.55 E2.59246
G1 X113.11 Y62.047 E2.61535
G1 X113.356 Y62.583 E2.63826
G1 X113.456 Y62.877 E2.65032
G1 X113.583 Y63.304 E2.66762
G1 X117.355 Y77.381 E3.23358
G1 X117.538 Y78.101 E3.26243
G1 X117.644 Y78.681 E3.28533
G1 X117.671 Y79.27 E3.30823
G1 X117.618 Y79.858 E3.33116
G1 X117.486 Y80.432 E3.35403
G1 X117.277 Y80.984 E3.37695
G1 X116.996 Y81.502 E3.39984
G1 X116.647 Y81.977 E3.42273
G1 X116.441 Y82.205 E3.43466
G1 X115.876 Y82.786 E3.46613
G1 X94.265 Y104.398 E4.65306
G1 X93.734 Y104.914 E4.68181
G1 X93.284 Y105.295 E4.70471
G1 X92.787 Y105.612 E4.7276
G1 X92.251 Y105.859 E4.75052
G1 X91.687 Y106.031 E4.77342
G1 X91.105 Y106.125 E4.79632
G1 X90.516 Y106.14 E4.8192
G1 X90.122 Y106.105 E4.83456
G1 X89.373 Y106.004 E4.86391
G1 X87.942 Y105.792 E4.92009
G1 X85.265 Y105.472 E5.02479
G1 X81.154 Y105.097 E5.1851
G1 X67.155 Y103.601 E5.73185
G1 X66.444 Y103.514 E5.75967
G1 X65.865 Y103.403 E5.78256
G1 X65.156 Y103.149 E5.81181
G1 X64.435 Y102.817 E5.84264
G1 X52.978 Y97.352 E6.3356
G1 X52.331 Y97.033 E6.36361
G1 X51.821 Y96.737 E6.38651
G1 X51.224 Y96.251 E6.41641
G1 X50.657 Y95.7 E6.44711
G1 X42.217 Y87.261 E6.91062
G1 X41.706 Y86.736 E6.93907
G1 X41.324 Y86.287 E6.96196
G1 X41.007 Y85.79 E6.98486
G1 X40.76 Y85.255 E7.00774
G1 X40.587 Y84.691 E7.03065
G1 X40.481 Y83.96 E7.05933
G1 X40.422 Y82.953 E7.09851
G1 X40.305 Y80.058 E7.21103
G1 X40.286 Y79.353 E7.23842
G1 X40.31 Y78.764 E7.26131
G1 X40.413 Y78.184 E7.28419
G1 X40.594 Y77.623 E7.30708
G1 X40.85 Y77.091 E7.33001
G1 X41.179 Y76.592 E7.35322
G1 X41.355 Y76.362 E7.36446
G1 X47.64 Y68.636 E7.75124
G1 X48.074 Y68.118 E7.77749
G1 X48.482 Y67.693 E7.80037
G1 X48.944 Y67.327 E7.82326
G0 F7200 X49.309 Y67.732
G1 F1200 X49.79 Y67.463 E7.84466
G1 X50.305 Y67.265 E7.86609
G1 X50.843 Y67.144 E7.8875
G1 X51.394 Y67.102 E7.90896
G1 X51.846 Y67.127 E7.92654
G1 X52.739 Y67.231 E7.96146
G1 X53.668 Y67.354 E7.99785
G1 X56.401 Y67.637 E8.10455
G1 X59.073 Y67.837 E8.20861
G1 X61.828 Y67.965 E8.31572
G1 X64.51 Y68.014 E8.41989
G1 X67.263 Y67.986 E8.52681
G1 X69.948 Y67.883 E8.63116
G1 X72.693 Y67.7 E8.73799
G1 X75.398 Y67.443 E8.84352
G1 X78.102 Y67.107 E8.94933
G1 X80.762 Y66.701 E9.05383
G1 X83.474 Y66.209 E9.16087
G1 X86.076 Y65.661 E9.26414
G1 X88.76 Y65.013 E9.37136
G1 X91.398 Y64.299 E9.4775
G1 X94.006 Y63.512 E9.58329
G1 X96.558 Y62.663 E9.68774
G1 X99.162 Y61.714 E9.79537
G1 X101.641 Y60.73 E9.89895
G1 X105.239 Y59.158 E10.05143
G1 X105.885 Y58.86 E10.07906
G1 X106.401 Y58.666 E10.10047
G1 X106.94 Y58.548 E10.1219
G1 X107.491 Y58.51 E10.14335
G1 X108.041 Y58.551 E10.16476
G1 X108.579 Y58.672 E10.18618
G1 X109.094 Y58.869 E10.20759
G1 X109.576 Y59.138 E10.22903
G1 X110.092 Y59.546 E10.25457
G1 X110.332 Y59.772 E10.26738
G1 X111.552 Y60.991 E10.33435
G1 X112.024 Y61.477 E10.36066
G1 X112.379 Y61.899 E10.38208
G1 X112.669 Y62.369 E10.40353
G1 X112.939 Y63.033 E10.43136
G1 X113.061 Y63.444 E10.44801
G1 X116.832 Y77.514 E11.01371
G1 X117.015 Y78.234 E11.04256
G1 X117.111 Y78.778 E11.06401
G1 X117.129 Y79.329 E11.08542
G1 X117.066 Y79.877 E11.10684
G1 X116.925 Y80.411 E11.12829
G1 X116.709 Y80.918 E11.14969
G1 X116.421 Y81.389 E11.17113
G1 X116.054 Y81.829 E11.19338
G1 X115.494 Y82.404 E11.22455
G1 X93.888 Y104.01 E12.41118
G1 X93.357 Y104.526 E12.43993
G1 X92.935 Y104.881 E12.46135
G1 X92.465 Y105.171 E12.48279
G1 X91.959 Y105.391 E12.50422
G1 X91.427 Y105.534 E12.52562
G1 X90.879 Y105.6 E12.54705
G1 X90.194 Y105.57 E12.57368
G1 X89.452 Y105.47 E12.60275
G1 X88.014 Y105.257 E12.65921
G1 X85.307 Y104.933 E12.76508
G1 X81.211 Y104.56 E12.92481
G1 X67.22 Y103.065 E13.47125
G1 X66.509 Y102.978 E13.49906
G1 X65.968 Y102.871 E13.52048
G1 X65.382 Y102.658 E13.54469
G1 X64.668 Y102.33 E13.57521
G1 X53.217 Y96.867 E14.06792
G1 X52.57 Y96.548 E14.09594
G1 X52.094 Y96.269 E14.11736
G1 X51.6 Y95.864 E14.14217
G1 X51.039 Y95.318 E14.17257
G1 X42.604 Y86.884 E14.6358
G1 X42.093 Y86.359 E14.66426
G1 X41.738 Y85.937 E14.68567
G1 X41.447 Y85.468 E14.70711
G1 X41.227 Y84.962 E14.72853
G1 X41.083 Y84.43 E14.74994
G1 X41.02 Y83.928 E14.76959
G1 X40.961 Y82.931 E14.80837
G1 X40.844 Y80.044 E14.92058
G1 X40.825 Y79.339 E14.94797
G1 X40.85 Y78.787 E14.96943
G1 X40.955 Y78.246 E14.99083
G1 X41.137 Y77.725 E15.01226
G1 X41.391 Y77.235 E15.0337
G1 X41.608 Y76.921 E15.04852
G1 X41.855 Y76.601 E15.06422
G1 X48.054 Y68.983 E15.44564
G1 X48.488 Y68.465 E15.47188
G1 X48.872 Y68.069 E15.4933
G1 X49.309 Y67.732 E15.51473
G0 F7200 X49.67 Y68.142
G1 F1200 X50.122 Y67.905 E15.53455
G1 X50.607 Y67.742 E15.55442
G1 X51.11 Y67.656 E15.57424
G1 X51.784 Y67.664 E15.60042
G1 X52.668 Y67.766 E15.63498
G1 X53.612 Y67.891 E15.67196
G1 X56.338 Y68.173 E15.77838
G1 X59.079 Y68.378 E15.88513
G1 X61.794 Y68.505 E15.99068
G1 X64.506 Y68.554 E16.09602
G1 X67.254 Y68.527 E16.20274
G1 X70.005 Y68.42 E16.30966
G1 X72.744 Y68.238 E16.41626
G1 X75.448 Y67.981 E16.52175
G1 X78.174 Y67.643 E16.62842
G1 X80.868 Y67.231 E16.73426
G1 X83.541 Y66.746 E16.83976
G1 X86.215 Y66.183 E16.94588
G1 X88.914 Y65.532 E17.0537
G1 X91.523 Y64.825 E17.15868
G1 X94.151 Y64.033 E17.26527
G1 X96.774 Y63.16 E17.37263
G1 X99.302 Y62.238 E17.47713
G1 X101.886 Y61.213 E17.58509
G1 X105.43 Y59.664 E17.73529
G1 X106.111 Y59.35 E17.76441
G1 X106.59 Y59.173 E17.78424
G1 X107.091 Y59.073 E17.80408
G1 X107.602 Y59.052 E17.82394
G1 X108.11 Y59.111 E17.8438
G1 X108.602 Y59.249 E17.86365
G1 X109.067 Y59.461 E17.8835
G1 X109.493 Y59.743 E17.90334
G1 X109.722 Y59.939 E17.91504
G1 X109.962 Y60.165 E17.92784
G1 X111.165 Y61.367 E17.99389
G1 X111.637 Y61.853 E18.0202
G1 X111.963 Y62.246 E18.04003
G1 X112.224 Y62.686 E18.05989
G1 X112.422 Y63.188 E18.08085
G1 X112.54 Y63.584 E18.0969
G1 X116.308 Y77.647 E18.6623
G1 X116.491 Y78.367 E18.69115
G1 X116.578 Y78.871 E18.71101
G1 X116.585 Y79.382 E18.73086
G1 X116.513 Y79.888 E18.75071
G1 X116.362 Y80.377 E18.77058
G1 X116.138 Y80.836 E18.79042
G1 X115.844 Y81.254 E18.81026
G1 X115.667 Y81.452 E18.82058
G1 X115.112 Y82.022 E18.85147
G1 X93.512 Y103.623 E20.03779
G1 X92.981 Y104.139 E20.06655
G1 X92.588 Y104.466 E20.0864
G1 X92.148 Y104.727 E20.10627
G1 X91.674 Y104.916 E20.12609
G1 X91.175 Y105.03 E20.14596
G1 X90.665 Y105.064 E20.16581
G1 X90.266 Y105.035 E20.18135
G1 X89.531 Y104.936 E20.21015
G1 X88.086 Y104.722 E20.26688
G1 X85.384 Y104.398 E20.37256
G1 X81.32 Y104.029 E20.53104
G1 X67.286 Y102.529 E21.07915
G1 X66.575 Y102.442 E21.10697
G1 X66.074 Y102.34 E21.12683
G1 X65.607 Y102.168 E21.14615
G1 X64.943 Y101.863 E21.17453
G1 X53.456 Y96.383 E21.66879
G1 X52.809 Y96.064 E21.69681
G1 X52.37 Y95.803 E21.71664
G1 X51.977 Y95.477 E21.73647
G1 X51.421 Y94.937 E21.76657
G1 X42.991 Y86.508 E22.22953
G1 X42.48 Y85.983 E22.25798
G1 X42.153 Y85.59 E22.27783
G1 X41.891 Y85.151 E22.29769
G1 X41.702 Y84.676 E22.31754
G1 X41.588 Y84.178 E22.33738
G1 X41.559 Y83.896 E22.34839
G1 X41.501 Y82.909 E22.38679
G1 X41.384 Y80.029 E22.49872
G1 X41.365 Y79.324 E22.52611
G1 X41.391 Y78.814 E22.54594
G1 X41.497 Y78.314 E22.56579
G1 X41.679 Y77.836 E22.58566
G1 X42.037 Y77.249 E22.61236
G1 X42.274 Y76.942 E22.62742
G1 X48.467 Y69.33 E23.00851
G1 X48.901 Y68.812 E23.03475
G1 X49.259 Y68.447 E23.05461
G1 X49.67 Y68.142 E23.07448
G1 F7200 E22.67448
G1 F600 Z0.6
;MESH:SB2040 Cable Cover With Fan.stl
EXCLUDE_OBJECT_START NAME=SB2040_Cable_Cover_With_Fan_stl
G0 F7200 X49.637 Y85.029 Z0.6
;TYPE:WALL-INNER
G1 F600 Z0.2
G1 F2880 E23.07448
G1 F904.2 X49.584 Y84.837 E23.08361
G1 F1084.7 X49.463 Y84.515 E23.09674
G1 F1200 X49.376 Y84.335 E23.10365
G1 X49.249 Y84.023 E23.11527
G1 X49.189 Y83.849 E23.12163
G1 X49.096 Y83.522 E23.13336
G1 X49.054 Y83.333 E23.14005
G1 X48.999 Y82.996 E23.15183
G1 X48.979 Y82.814 E23.15815
G1 X48.961 Y82.419 E23.1718
G1 X48.992 Y81.864 E23.19099
G1 X49.745 Y75.603 E23.40868
G1 X46.329 Y79.802 E23.59554
G1 X46.458 Y82.972 E23.70506
G1 X48.628 Y85.143 E23.81102
G1 F1084.7 X48.904 Y85.348 E23.82415
G1 F904.2 X49.109 Y85.473 E23.83515
G1 F849.6 X49.34 Y85.724 E23.85178
G1 F883.4 X49.823 Y86.225 E23.88441
G1 F901.4 X55.279 Y91.679 E24.23893
G1 F902.8 X57.004 Y92.502 E24.32662
G1 F901.4 X50.211 Y85.707 E24.76816
G1 F883.4 X49.845 Y85.299 E24.79387
G1 F849.6 X49.637 Y85.029 E24.81048
G1 F7200 E24.41048
G0 X58.204 Y92.367
G0 X58.945 Y92.83
G0 X59.4 Y92.986
G0 X82.572 Y98.563
G1 F2880 E24.81048
G1 F1064.7 X82.235 Y98.606 E24.8237
G1 F1154.3 X81.72 Y98.623 E24.84219
G1 F1233.4 X81.532 Y98.619 E24.84851
G1 F1263.2 X81.104 Y98.59 E24.86258
G1 F1260.4 X80.605 Y98.517 E24.87915
G1 F1190.1 X79.86 Y98.376 E24.90554
G1 F1097.1 X79.114 Y98.234 E24.93422
G1 F1017.7 X78.369 Y98.092 E24.96509
G1 F947.4 X77.623 Y97.95 E24.99829
G1 F887.5 X76.877 Y97.808 E25.03374
G1 F834.8 X76.132 Y97.666 E25.07137
G1 F968.1 X75.718 Y97.458 E25.0912
G1 F1200 X60.017 Y94.027 E25.64598
G1 X67.435 Y97.565 E25.92969
G1 X75.561 Y98.433 E26.21179
G1 F968.1 X76.019 Y98.367 E26.23159
G1 F832.4 X76.738 Y98.462 E26.26769
G1 F879.4 X77.458 Y98.558 E26.3019
G1 F932 X78.178 Y98.654 E26.33419
G1 F991.4 X78.897 Y98.75 E26.36449
G1 F1060.8 X79.617 Y98.846 E26.39286
G1 F1138.3 X80.337 Y98.942 E26.41929
G1 F1228.1 X81.057 Y99.038 E26.44379
G1 F1207.5 X82.047 Y99.118 E26.47786
G1 F1097.1 X82.421 Y99.134 E26.492
G1 F1026.7 X82.868 Y99.09 E26.51012
G1 F1066.7 X83.203 Y99.102 E26.52314
G1 F1170.7 X83.42 Y99.101 E26.53082
G1 F1200 X86.098 Y98.923 E26.62346
G1 X86.645 Y98.976 E26.64244
G1 X90.204 Y99.93 E26.76963
G1 X111.458 Y78.676 E27.80722
G1 X107.818 Y65.086 E28.29289
G1 X107.793 Y64.996 E28.29611
G1 X107.482 Y64.685 E28.31129
G1 X105.337 Y66.832 E28.41606
G1 X105.337 Y70.22 E28.53301
G1 X105.703 Y70.632 E28.55203
G1 X105.931 Y70.953 E28.56563
G1 X106.027 Y71.106 E28.57186
G1 X106.19 Y71.399 E28.58344
G1 X106.272 Y71.57 E28.58998
G1 X106.402 Y71.88 E28.60159
G1 X106.464 Y72.059 E28.60813
G1 X106.568 Y72.412 E28.62083
G1 X106.6 Y72.568 E28.62633
G1 X106.675 Y73.036 E28.64269
G1 X106.697 Y73.417 E28.65586
G1 X106.697 Y73.608 E28.66246
G1 X106.678 Y73.948 E28.67421
G1 X106.657 Y74.131 E28.68057
G1 X106.602 Y74.461 E28.69212
G1 X106.56 Y74.649 E28.69877
G1 X106.468 Y74.969 E28.71026
G1 X106.408 Y75.142 E28.71658
G1 X106.278 Y75.459 E28.72841
G1 X106.192 Y75.638 E28.73526
G1 X106.028 Y75.933 E28.74692
G1 X105.934 Y76.083 E28.75303
G1 X105.74 Y76.359 E28.76467
G1 X105.617 Y76.514 E28.7715
G1 X105.393 Y76.764 E28.78309
G1 X84.899 Y97.259 E29.78361
G1 X84.594 Y97.538 E29.79787
G1 X84.436 Y97.664 E29.80485
G1 X84.163 Y97.858 E29.81641
G1 X84.013 Y97.953 E29.82254
G1 X83.722 Y98.115 E29.83404
G1 X83.544 Y98.202 E29.84088
G1 F1090.9 X82.768 Y98.527 E29.87282
G1 F1017.7 X82.572 Y98.563 E29.88093
G1 F7200 E29.48093
G0 X58.279 Y92.953
G1 F2880 E29.88093
G1 F893 X57.988 Y92.768 E29.89693
G1 F932 X57.89 Y92.639 E29.90413
G1 F1088.8 X57.669 Y92.375 E29.91723
G1 F1200 X50.627 Y85.332 E30.26103
G1 X50.402 Y85.081 E30.27267
G1 X50.313 Y84.969 E30.27761
G1 X50.116 Y84.691 E30.28937
G1 X49.883 Y84.282 E30.30562
G1 X49.821 Y84.154 E30.31053
G1 X49.651 Y83.718 E30.32668
G1 X49.558 Y83.391 E30.33842
G1 X49.528 Y83.256 E30.34319
G1 X49.473 Y82.919 E30.35498
G1 X49.459 Y82.789 E30.35949
G1 X49.442 Y82.468 E30.37059
G1 X49.443 Y82.333 E30.37525
G1 X49.469 Y81.921 E30.3895
G1 X50.339 Y74.682 E30.64119
G1 F1001.7 X50.409 Y74.178 E30.66223
G1 X49.995 Y74.536 E30.68486
G1 F1200 X45.842 Y79.64 E30.91201
G1 X45.986 Y83.179 E31.03428
G1 X54.951 Y92.143 E31.47191
G1 X57.13 Y93.182 E31.55525
G1 F1088.8 X57.459 Y93.285 E31.56836
G1 F932 X57.658 Y93.335 E31.57748
G1 F893 X57.963 Y93.497 E31.5935
G1 F927.5 X58.499 Y93.765 E31.62026
G1 X59.05 Y94.014 E31.64727
G1 F886.2 X59.46 Y94.187 E31.66807
G1 F874.1 X60.33 Y94.614 E31.714
G1 F902.8 X61.201 Y95.041 E31.75851
G1 F933.5 X62.072 Y95.468 E31.80155
G1 F966.4 X62.943 Y95.895 E31.84313
G1 F1001.7 X63.814 Y96.323 E31.88326
G1 F1041.6 X64.685 Y96.75 E31.92184
G1 F1082.7 X65.556 Y97.177 E31.95895
G1 F1127.2 X66.427 Y97.604 E31.9946
G1 F1175.5 X67.298 Y98.032 E32.0288
G1 F1200 X82.411 Y99.649 E32.55348
G1 X86.13 Y99.402 E32.68214
G1 X86.521 Y99.44 E32.6957
G1 X90.348 Y100.465 E32.83247
G1 X111.993 Y78.819 E33.88917
G1 X108.281 Y64.962 E34.38438
G1 X108.224 Y64.748 E34.39203
G1 X107.482 Y64.006 E34.42825
G1 X104.857 Y66.633 E34.55645
G1 X104.856 Y70.418 E34.68711
G1 X105.033 Y70.596 E34.69577
G1 X105.254 Y70.842 E34.70719
G1 X105.344 Y70.954 E34.71215
G1 X105.539 Y71.23 E34.72381
G1 X105.771 Y71.632 E34.73983
G1 X105.959 Y72.064 E34.7561
G1 X106.104 Y72.536 E34.77314
G1 X106.197 Y73.079 E34.79216
G1 X106.218 Y73.444 E34.80478
G1 X106.218 Y73.582 E34.80954
G1 X106.184 Y74.052 E34.82581
G1 X106.129 Y74.382 E34.83736
G1 X106.099 Y74.516 E34.8421
G1 X106.007 Y74.836 E34.85359
G1 X105.964 Y74.96 E34.85812
G1 X105.834 Y75.277 E34.86995
G1 X105.772 Y75.404 E34.87483
G1 X105.608 Y75.7 E34.88651
G1 X105.347 Y76.083 E34.90251
G1 X105.259 Y76.193 E34.90737
G1 X104.99 Y76.491 E34.92123
G1 X84.517 Y96.96 E35.9206
G1 X84.271 Y97.182 E35.93204
G1 X84.159 Y97.272 E35.937
G1 X83.778 Y97.534 E35.95296
G1 X83.487 Y97.696 E35.96446
G1 X83.36 Y97.758 E35.96934
G1 F1202.5 X82.938 Y97.926 E35.98498
G1 X82.618 Y98.021 E35.99648
G1 F1200 X82.483 Y98.052 E36.00126
G1 X82.02 Y98.127 E36.01745
G1 X81.69 Y98.148 E36.02887
G1 X81.554 Y98.148 E36.03356
G1 X81.153 Y98.127 E36.04742
G1 X80.772 Y98.068 E36.06073
G1 X67.993 Y95.278 E36.51226
G1 F1175.5 X67.069 Y95.087 E36.54551
G1 F1127.2 X66.144 Y94.896 E36.58022
G1 F1082.7 X65.22 Y94.705 E36.61631
G1 F1041.6 X64.295 Y94.514 E36.65388
G1 F1001.7 X63.371 Y94.323 E36.6929
G1 F966.4 X62.446 Y94.131 E36.73339
G1 F933.5 X61.522 Y93.94 E36.77526
G1 F902.8 X60.597 Y93.749 E36.81859
G1 F874.1 X59.673 Y93.558 E36.86331
G1 F891.6 X59.144 Y93.377 E36.88928
G1 F933.5 X58.761 Y93.214 E36.90775
G1 F927.5 X58.279 Y92.953 E36.93223
G1 F7200 E36.53223
G0 X81.193 Y97.769
G0 X81.881 Y97.765
G0 X82.94 Y97.606
G1 F2880 E36.93223
G0 F7200 X82.872 Y97.441
G1 F1200 X82.481 Y97.561 E36.94635
G1 X82.067 Y97.638 E36.96089
G1 X81.578 Y97.669 E36.9778
G1 X81.204 Y97.65 E36.99073
G1 X80.848 Y97.594 E37.00317
G1 X59.798 Y92.996 E37.74695
G1 X59.351 Y92.866 E37.76302
G1 X58.996 Y92.721 E37.77626
G1 X58.596 Y92.498 E37.79207
G1 X58.313 Y92.301 E37.80397
G1 X57.989 Y92.018 E37.81882
G1 X51.01 Y85.038 E38.15955
G1 X50.705 Y84.693 E38.17545
G1 X50.509 Y84.414 E38.18722
G1 X50.266 Y83.973 E38.2046
G1 X50.113 Y83.586 E38.21896
