;FLAVOR:Marlin
;TIME:2389
;Filament used: 2.03589m
;Layer height: 0.15
;MINX:40.502
;MINY:63.902
;MINZ:0.2
;MAXX:119.498
;MAXY:96.15
;MAXZ:11
;Generated with Cura_SteamEngine 5.2.1
M82 ;absolute extrusion mode


; Pre-Processed for Cancel-Object support by preprocess_cancellation v0.2.0
; 3 known objects
EXCLUDE_OBJECT_DEFINE NAME=Rancher_16bl30_switch_mount_lower_stl CENTER=56.320,80.080 POLYGON=[[45.077,68.478],[45.077,91.523],[67.123,91.523],[67.123,68.478]]
EXCLUDE_OBJECT_DEFINE NAME=SW1_cover_STL CENTER=79.967,80.093 POLYGON=[[68.876,68.525],[68.876,91.575],[91.124,91.575],[91.124,68.525]]
EXCLUDE_OBJECT_DEFINE NAME=Rancher_16bl30_switch_mount_upper_stl CENTER=103.887,80.352 POLYGON=[[92.877,68.477],[92.877,91.522],[114.923,91.522],[114.923,68.477]]
PRINT_START BED=70 EXTRUDER=220 STANDBY=175 CHAMBER=28
G92 E0
G92 E0
G1 F2100 E-0.4
;LAYER_COUNT:73
;LAYER:0
M107
G1 F600 Z0.6
G0 F7200 X42.377 Y64.691 Z0.6
;TYPE:SKIRT
G1 F600 Z0.2
G1 F840 E0
G1 F1800 X42.883 Y64.388 E0.02701
G1 X43.425 Y64.156 E0.05401
G1 X43.993 Y63.999 E0.081
G1 X44.739 Y63.914 E0.11539
G1 X45.182 Y63.903 E0.13569
G1 X66.7 Y63.903 E1.12119
G1 X68.48 Y63.927 E1.20272
G1 X68.856 Y63.917 E1.21995
G1 X70.389 Y63.95 E1.29018
G1 X89.875 Y63.95 E2.18262
G1 X92.982 Y63.902 E2.32493
G1 X114.503 Y63.902 E3.31058
G1 X115.201 Y63.912 E3.34255
G1 X115.789 Y63.961 E3.36957
G1 X116.365 Y64.088 E3.39659
G1 X116.918 Y64.292 E3.42358
G1 X117.438 Y64.569 E3.45057
G1 X117.916 Y64.914 E3.47756
G1 X118.344 Y65.32 E3.50458
G1 X118.712 Y65.781 E3.5316
G1 X119.015 Y66.287 E3.55861
G1 X119.246 Y66.829 E3.58559
G1 X119.402 Y67.397 E3.61257
G1 X119.487 Y68.14 E3.64682
G1 X119.498 Y68.582 E3.66707
G1 X119.498 Y91.065 E4.69678
G1 X119.489 Y91.792 E4.73007
G1 X119.441 Y92.38 E4.75709
G1 X119.315 Y92.955 E4.78405
G1 X119.112 Y93.509 E4.81108
G1 X118.836 Y94.03 E4.83808
G1 X118.492 Y94.509 E4.86509
G1 X118.087 Y94.937 E4.89207
G1 X117.627 Y95.306 E4.91908
G1 X117.122 Y95.61 E4.94608
G1 X116.58 Y95.842 E4.97308
G1 X116.012 Y96 E5.00008
G1 X115.261 Y96.086 E5.0347
G1 X114.818 Y96.097 E5.055
G1 X93.241 Y96.097 E6.04321
G1 X90.734 Y96.141 E6.15804
G1 X89.807 Y96.15 E6.2005
G1 X70.398 Y96.15 E7.08942
G1 X68.545 Y96.125 E7.17429
G1 X68.244 Y96.133 E7.18808
G1 X66.594 Y96.098 E7.26367
G1 X63.447 Y96.098 E7.4078
G1 X62.566 Y96.082 E7.44815
G1 X60.106 Y95.948 E7.56099
G1 X57.437 Y95.873 E7.68327
G1 X54.714 Y95.873 E7.80798
G1 X52.025 Y95.95 E7.93119
G1 X49.543 Y96.082 E8.04502
G1 X48.968 Y96.098 E8.07137
G1 X45.497 Y96.098 E8.23034
G1 X44.799 Y96.088 E8.26231
G1 X44.211 Y96.039 E8.28933
G1 X43.635 Y95.912 E8.31634
G1 X43.082 Y95.708 E8.34334
G1 X42.562 Y95.431 E8.37032
G1 X42.084 Y95.086 E8.39732
G1 X41.656 Y94.68 E8.42434
G1 X41.288 Y94.219 E8.45136
G1 X40.985 Y93.713 E8.47837
G1 X40.754 Y93.171 E8.50535
G1 X40.598 Y92.603 E8.53233
G1 X40.513 Y91.856 E8.56676
G1 X40.502 Y91.406 E8.58738
G1 X40.502 Y68.867 E9.61965
G1 X40.511 Y68.203 E9.65006
G1 X40.559 Y67.615 E9.67708
G1 X40.686 Y67.04 E9.70405
G1 X40.89 Y66.486 E9.73109
G1 X41.166 Y65.966 E9.75805
G1 X41.511 Y65.487 E9.78508
G1 X41.917 Y65.06 E9.81207
G1 X42.377 Y64.691 E9.83908
G0 F7200 X42.893 Y64.999
G1 F1800 X43.385 Y64.749 E9.86435
G1 X43.908 Y64.573 E9.88963
G1 X44.451 Y64.474 E9.9149
G1 X44.754 Y64.453 E9.92882
G1 X45.075 Y64.444 E9.94352
G1 X66.693 Y64.443 E10.93361
G1 X68.601 Y64.469 E11.021
G1 X68.844 Y64.457 E11.03215
G1 X70.377 Y64.49 E11.10237
G1 X89.818 Y64.49 E11.99275
G1 X92.923 Y64.442 E12.13498
G1 X114.496 Y64.442 E13.123
G1 X115.194 Y64.452 E13.15498
G1 X115.743 Y64.5 E13.18022
G1 X116.28 Y64.627 E13.20549
G1 X116.793 Y64.83 E13.23076
G1 X117.272 Y65.105 E13.25605
G1 X117.705 Y65.446 E13.28129
G1 X118.085 Y65.846 E13.30656
G1 X118.403 Y66.297 E13.33184
G1 X118.653 Y66.789 E13.35711
G1 X118.829 Y67.312 E13.38238
G1 X118.927 Y67.855 E13.40766
G1 X118.947 Y68.155 E13.42143
G1 X118.958 Y68.582 E13.44099
G1 X118.958 Y91.058 E14.47037
G1 X118.949 Y91.785 E14.50367
G1 X118.902 Y92.335 E14.52895
G1 X118.776 Y92.872 E14.55421
G1 X118.574 Y93.386 E14.57951
G1 X118.3 Y93.864 E14.60474
G1 X117.96 Y94.299 E14.63003
G1 X117.561 Y94.679 E14.65526
G1 X117.11 Y94.998 E14.68056
G1 X116.619 Y95.249 E14.70582
G1 X116.096 Y95.426 E14.7311
G1 X115.554 Y95.525 E14.75634
G1 X115.246 Y95.547 E14.77048
G1 X114.925 Y95.556 E14.78519
G1 X93.231 Y95.557 E15.77876
G1 X90.729 Y95.601 E15.89336
G1 X89.802 Y95.61 E15.93582
G1 X70.405 Y95.61 E16.82419
G1 X68.451 Y95.583 E16.91369
G1 X68.255 Y95.593 E16.92268
G1 X66.605 Y95.558 E16.99826
G1 X63.455 Y95.558 E17.14253
G1 X62.749 Y95.548 E17.17487
G1 X60.187 Y95.41 E17.29238
G1 X57.417 Y95.333 E17.41929
G1 X54.698 Y95.333 E17.54382
G1 X52.021 Y95.41 E17.66647
G1 X49.514 Y95.543 E17.78145
G1 X48.968 Y95.558 E17.80647
G1 X45.504 Y95.558 E17.96512
G1 X44.806 Y95.548 E17.99709
G1 X44.257 Y95.5 E18.02233
G1 X43.72 Y95.373 E18.0476
G1 X43.207 Y95.17 E18.07287
G1 X42.728 Y94.895 E18.09816
G1 X42.295 Y94.554 E18.12341
G1 X41.915 Y94.154 E18.14867
G1 X41.597 Y93.703 E18.17395
G1 X41.347 Y93.211 E18.19922
G1 X41.171 Y92.688 E18.2245
G1 X41.073 Y92.145 E18.24977
G1 X41.052 Y91.841 E18.26372
G1 X41.043 Y91.509 E18.27893
G1 X41.042 Y68.874 E19.3156
G1 X41.051 Y68.21 E19.34601
G1 X41.099 Y67.661 E19.37125
G1 X41.225 Y67.124 E19.39651
G1 X41.428 Y66.61 E19.42182
G1 X41.702 Y66.132 E19.44706
G1 X42.043 Y65.698 E19.47234
G1 X42.443 Y65.318 E19.4976
G1 X42.893 Y64.999 E19.52287
G0 F7200 X42.965 Y65.598
G1 F1800 X43.403 Y65.335 E19.54627
G1 X43.877 Y65.144 E19.56967
G1 X44.375 Y65.028 E19.59309
G1 X44.769 Y64.993 E19.61121
G1 X45.09 Y64.984 E19.62591
G1 X66.686 Y64.983 E20.61499
G1 X68.649 Y65.01 E20.7049
G1 X68.832 Y64.997 E20.71331
G1 X70.365 Y65.03 E20.78353
G1 X89.826 Y65.03 E21.67483
G1 X92.931 Y64.982 E21.81706
G1 X114.488 Y64.982 E22.80435
G1 X115.186 Y64.992 E22.83632
G1 X115.695 Y65.04 E22.85974
G1 X116.19 Y65.166 E22.88313
G1 X116.66 Y65.367 E22.90654
G1 X117.092 Y65.639 E22.92992
G1 X117.477 Y65.976 E22.95335
G1 X117.805 Y66.368 E22.97676
G1 X118.067 Y66.806 E23.00014
G1 X118.258 Y67.281 E23.02359
G1 X118.373 Y67.779 E23.04699
G1 X118.408 Y68.17 E23.06497
G1 X118.417 Y68.49 E23.07963
G1 X118.418 Y91.051 E24.11291
G1 X118.409 Y91.778 E24.14621
G1 X118.363 Y92.287 E24.16962
G1 X118.238 Y92.783 E24.19304
G1 X118.037 Y93.253 E24.21645
G1 X117.765 Y93.686 E24.23987
G1 X117.43 Y94.072 E24.26328
G1 X117.038 Y94.4 E24.28669
G1 X116.6 Y94.663 E24.31009
G1 X116.127 Y94.855 E24.33347
G1 X115.629 Y94.971 E24.35689
G1 X115.231 Y95.007 E24.37519
G1 X114.91 Y95.016 E24.3899
G1 X93.279 Y95.017 E25.38058
G1 X90.724 Y95.061 E25.49761
G1 X89.797 Y95.07 E25.54007
G1 X70.412 Y95.07 E26.42789
G1 X68.414 Y95.043 E26.5194
G1 X68.267 Y95.053 E26.52615
G1 X66.617 Y95.018 E26.60174
G1 X63.463 Y95.018 E26.74619
G1 X62.757 Y95.008 E26.77853
G1 X60.195 Y94.87 E26.89603
G1 X57.432 Y94.793 E27.02263
G1 X54.718 Y94.793 E27.14693
G1 X51.937 Y94.873 E27.27435
G1 X49.407 Y95.007 E27.39038
G1 X49.063 Y95.017 E27.40614
G1 X45.512 Y95.018 E27.56877
G1 X44.814 Y95.008 E27.60075
G1 X44.305 Y94.96 E27.62416
G1 X43.81 Y94.834 E27.64755
G1 X43.34 Y94.633 E27.67097
G1 X42.908 Y94.361 E27.69435
G1 X42.523 Y94.024 E27.71778
G1 X42.195 Y93.632 E27.74119
G1 X41.933 Y93.194 E27.76456
G1 X41.742 Y92.719 E27.78801
G1 X41.627 Y92.221 E27.81142
G1 X41.592 Y91.827 E27.82954
G1 X41.583 Y91.495 E27.84475
G1 X41.582 Y68.882 E28.8804
G1 X41.591 Y68.218 E28.91082
G1 X41.638 Y67.709 E28.93423
G1 X41.764 Y67.213 E28.95767
G1 X41.965 Y66.744 E28.98104
G1 X42.237 Y66.311 E29.00446
G1 X42.573 Y65.926 E29.02786
G1 X42.965 Y65.598 E29.05127
G1 F2100 E28.65127
G1 F600 Z0.6
;MESH:Rancher_16bl30_switch_mount_lower.stl
EXCLUDE_OBJECT_START NAME=Rancher_16bl30_switch_mount_lower_stl
G0 F7200 X46.798 Y81.66 Z0.6
;TYPE:WALL-INNER
G1 F600 Z0.2
G1 F840 E29.05127
G1 F1800 X46.552 Y81.581 E29.0631
G1 X46.3 Y81.452 E29.07607
G1 X46.096 Y81.304 E29.08761
G1 X45.896 Y81.104 E29.10056
G1 X45.748 Y80.899 E29.11214
G1 X45.662 Y80.729 E29.12087
G1 X45.662 Y90.938 E29.58843
G1 X48.488 Y90.938 E29.71786
G1 X48.488 Y89.997 E29.76096
G1 X48.508 Y89.817 E29.76925
G1 X48.613 Y89.563 E29.78184
G1 X48.778 Y89.375 E29.7933
G1 X48.964 Y89.259 E29.80334
G1 X49.141 Y89.202 E29.81185
G1 X49.298 Y89.187 E29.81908
G1 X51.569 Y89.187 E29.92309
G1 X62.802 Y89.187 E30.43755
G1 X62.957 Y89.201 E30.44468
G1 X63.133 Y89.257 E30.45314
G1 X63.316 Y89.37 E30.46299
G1 X63.481 Y89.553 E30.47427
G1 X63.589 Y89.801 E30.48666
G1 X63.612 Y89.997 E30.4957
G1 X63.612 Y90.938 E30.53879
G1 X66.538 Y90.938 E30.6728
G1 X66.538 Y80.73 E31.14032
G1 X66.452 Y80.899 E31.14901
G1 X66.303 Y81.103 E31.16058
G1 X66.103 Y81.303 E31.17353
G1 X65.9 Y81.451 E31.18504
G1 X65.652 Y81.579 E31.19782
G1 X65.408 Y81.659 E31.20958
G1 X65.13 Y81.703 E31.22247
G1 X64.88 Y81.703 E31.23392
G1 X64.599 Y81.66 E31.24694
G1 X64.459 Y81.626 E31.25354
G1 X64.347 Y81.578 E31.25912
G1 X64.102 Y81.453 E31.27171
G1 X63.993 Y81.385 E31.2776
G1 X63.9 Y81.306 E31.28319
G1 X63.698 Y81.105 E31.29624
G1 X63.612 Y81.004 E31.30231
G1 X63.548 Y80.9 E31.30791
G1 X63.42 Y80.65 E31.32077
G1 X63.362 Y80.502 E31.32805
G1 X63.341 Y80.406 E31.33255
G1 X63.29 Y80.062 E31.34848
G1 X63.299 Y79.858 E31.35783
G1 X63.34 Y79.597 E31.36993
G1 X63.379 Y79.448 E31.37698
G1 X63.418 Y79.359 E31.38143
G1 X63.587 Y79.033 E31.39825
G1 X63.697 Y78.897 E31.40626
G1 X63.969 Y78.632 E31.42365
G1 X64.052 Y78.575 E31.42827
G1 X64.352 Y78.419 E31.44375
G1 X64.457 Y78.375 E31.44897
G1 X64.595 Y78.341 E31.45548
G1 X64.873 Y78.296 E31.46837
G1 X65.127 Y78.296 E31.48001
G1 X65.405 Y78.34 E31.4929
G1 X65.648 Y78.419 E31.5046
G1 X65.9 Y78.548 E31.51756
G1 X66.103 Y78.697 E31.5291
G1 X66.303 Y78.897 E31.54205
G1 X66.452 Y79.101 E31.55362
G1 X66.538 Y79.271 E31.56235
G1 X66.538 Y69.063 E32.02987
G1 X45.663 Y69.064 E32.98592
G1 X45.663 Y79.27 E33.45335
G1 X45.748 Y79.101 E33.46201
G1 X45.896 Y78.896 E33.47359
G1 X46.096 Y78.696 E33.48655
G1 X46.299 Y78.548 E33.49805
G1 X46.548 Y78.421 E33.51086
G1 X46.792 Y78.341 E33.52262
G1 X47.071 Y78.297 E33.53555
G1 X47.321 Y78.297 E33.547
G1 X47.602 Y78.34 E33.56002
G1 X47.741 Y78.374 E33.56657
G1 X47.848 Y78.419 E33.57189
G1 X48.146 Y78.574 E33.58728
G1 X48.228 Y78.631 E33.59185
G1 X48.3 Y78.694 E33.59623
G1 X48.562 Y78.962 E33.6134
G1 X48.652 Y79.1 E33.62094
G1 X48.78 Y79.35 E33.6338
G1 X48.82 Y79.444 E33.63848
G1 X48.862 Y79.612 E33.64641
G1 X48.91 Y79.934 E33.66132
G1 X48.909 Y80.069 E33.66751
G1 X48.855 Y80.429 E33.68418
G1 X48.815 Y80.571 E33.69094
G1 X48.652 Y80.898 E33.70767
G1 X48.589 Y81.003 E33.71328
G1 X48.503 Y81.103 E33.71932
G1 X48.303 Y81.303 E33.73227
G1 X48.21 Y81.384 E33.73792
G1 X48.1 Y81.451 E33.74382
G1 X47.848 Y81.581 E33.75681
G1 X47.741 Y81.626 E33.76212
G1 X47.602 Y81.66 E33.76868
G1 X47.324 Y81.703 E33.78156
G1 X47.076 Y81.703 E33.79292
G1 X46.798 Y81.66 E33.8058
G0 F7200 X46.78 Y81.771
G0 X47.2 Y81.777
G0 X47.749 Y81.691
G0 X48.244 Y81.438
G0 X48.638 Y81.044
G0 X48.89 Y80.55
G0 X48.979 Y79.995
G0 X48.887 Y79.446
G0 X48.685 Y79.05
G0 X48.166 Y78.455
G0 X47.868 Y79.037
;TYPE:WALL-OUTER
G1 F1800 X47.919 Y79.077 E33.80877
G1 X48.141 Y79.3 E33.82318
G1 X48.299 Y79.596 E33.83855
G1 X48.32 Y79.651 E33.84125
G1 X48.372 Y79.976 E33.85632
G1 X48.371 Y80.022 E33.85843
G1 X48.325 Y80.328 E33.8726
G1 X48.311 Y80.375 E33.87484
G1 X48.15 Y80.688 E33.89097
G1 X47.89 Y80.948 E33.90781
G1 X47.566 Y81.115 E33.9245
G1 X47.242 Y81.169 E33.93954
G1 X47.158 Y81.169 E33.94339
G1 X46.88 Y81.126 E33.95627
G1 X46.798 Y81.1 E33.96021
G1 X46.546 Y80.971 E33.97318
G1 X46.478 Y80.922 E33.97702
G1 X46.278 Y80.722 E33.98997
G1 F1653.1 X46.058 Y80.422 E34.00852
G1 F1404.6 X45.971 Y80.336 E34.0157
G1 F1318.9 X45.938 Y80.057 E34.03327
G1 F1338.8 X45.938 Y79.942 E34.04035
G1 F1317.1 X45.972 Y79.661 E34.05806
G1 F1404.6 X46.058 Y79.576 E34.06516
G1 F1653.1 X46.278 Y79.278 E34.08363
G1 F1800 X46.478 Y79.078 E34.09659
G1 X46.546 Y79.029 E34.10043
G1 X46.795 Y78.901 E34.11325
G1 X46.876 Y78.875 E34.11714
G1 X47.155 Y78.831 E34.13008
G1 X47.239 Y78.831 E34.13393
G1 X47.566 Y78.885 E34.14911
G1 X47.868 Y79.037 E34.16459
G0 F7200 X47.919 Y79.077
G0 X48.015 Y79.173
G1 F2100 E33.76459
G0 F7200 X48.476 Y78.709
G0 X48.604 Y81.337
G0 X45.73 Y81.114
G0 X45.904 Y90.696
G0 X48.246 Y90.696
G0 X49.124 Y89.072
G1 F840 E34.16459
G0 F7200 X49.124 Y89.789
G1 F1800 X49.186 Y89.751 E34.16792
G1 X49.245 Y89.732 E34.17076
G1 X51.569 Y89.727 E34.2772
G1 X62.854 Y89.731 E34.79404
G1 X62.913 Y89.75 E34.79688
G1 X62.974 Y89.788 E34.80017
G1 X63.029 Y89.849 E34.80393
G1 X63.065 Y89.931 E34.80804
G1 X63.072 Y89.997 E34.81107
G1 X63.072 Y91.478 E34.8789
G1 X67.078 Y91.478 E35.06238
G1 X67.078 Y80.919 E35.54597
G1 F1647.5 X67.028 Y80.635 E35.5604
G1 F1398.6 X66.974 Y80.406 E35.57427
G1 F1322.4 X66.987 Y80 E35.59959
G1 F1320.7 X66.973 Y79.602 E35.62445
G1 F1402.6 X67.03 Y79.363 E35.63889
G1 F1653.1 X67.078 Y79.081 E35.65316
G1 F1800 X67.078 Y68.523 E36.1367
G1 X45.123 Y68.524 E37.14223
G1 X45.123 Y79.081 E37.62573
G1 F1653.1 X45.17 Y79.363 E37.63999
G1 F1404.6 X45.227 Y79.602 E37.65441
G1 F1320.7 X45.213 Y80 E37.67927
G1 X45.226 Y80.395 E37.70394
G1 F1404.6 X45.169 Y80.635 E37.71841
G1 F1653.1 X45.123 Y80.919 E37.73276
G1 F1800 X45.122 Y91.478 E38.21635
G1 X49.028 Y91.478 E38.39525
G1 X49.028 Y89.997 E38.46308
G1 X49.034 Y89.937 E38.46584
G1 X49.069 Y89.852 E38.47005
G1 X49.124 Y89.789 E38.47388
G0 F7200 X49.186 Y89.751
G0 X49.245 Y89.732
G0 X49.312 Y89.732
G1 F2100 E38.07388
G0 F7200 X49.312 Y89.072
G0 X63.674 Y89.426
G0 X63.854 Y90.696
G0 X66.296 Y90.696
G0 X66.471 Y81.112
G0 X63.955 Y81.443
G0 X63.183 Y79.874
G1 F840 E38.47388
G0 F7200 X63.829 Y79.976
G1 F1800 X63.879 Y79.656 E38.48871
G1 X64.042 Y79.324 E38.50565
G1 X64.303 Y79.057 E38.52275
G1 X64.633 Y78.885 E38.53979
G1 X64.957 Y78.83 E38.55484
G1 X65.043 Y78.83 E38.55878
G1 X65.321 Y78.874 E38.57167
G1 X65.402 Y78.9 E38.57557
G1 X65.654 Y79.029 E38.58854
G1 X65.721 Y79.079 E38.59236
G1 X65.921 Y79.279 E38.60532
G1 F1653.1 X66.142 Y79.576 E38.62378
G1 F1402.6 X66.228 Y79.661 E38.63089
G1 F1317.1 X66.262 Y79.942 E38.6486
G1 F1337 X66.262 Y80.057 E38.6557
G1 F1317.1 X66.229 Y80.342 E38.67365
G1 F1398.6 X66.145 Y80.423 E38.68053
G1 F1647.5 X65.921 Y80.721 E38.69919
G1 F1800 X65.721 Y80.921 E38.71214
G1 X65.654 Y80.971 E38.71597
G1 X65.405 Y81.099 E38.72879
G1 X65.324 Y81.125 E38.73269
G1 X65.046 Y81.169 E38.74558
G1 X64.962 Y81.169 E38.74943
G1 X64.634 Y81.115 E38.76465
G1 X64.348 Y80.972 E38.7793
G1 X64.281 Y80.923 E38.7831
G1 X64.05 Y80.688 E38.79819
G1 X63.89 Y80.379 E38.81413
G1 X63.876 Y80.331 E38.81642
G1 X63.831 Y80.042 E38.82981
G1 X63.829 Y79.976 E38.83283
G0 F7200 X63.859 Y79.778
G1 F2100 E38.43283
G0 F7200 X63.214 Y79.676
G0 X64.565 Y81.888
G0 X66.471 Y81.112
G0 X66.296 Y90.696
G0 X63.854 Y90.696
G0 X63.164 Y89.122
G0 X48.893 Y89.105
G1 F840 E38.83283
G0 F7200 X48.715 Y88.806
;TYPE:SKIN
G1 F1800 X48.777 Y88.777 E38.83597
G1 X49.012 Y88.702 E38.84727
G1 X49.273 Y88.671 E38.8593
G1 X62.826 Y88.671 E39.48002
G1 X63.083 Y88.701 E39.49187
G1 X63.312 Y88.773 E39.50287
G1 X63.373 Y88.8 E39.50592
G1 X63.619 Y88.951 E39.51914
G1 X63.679 Y89.002 E39.52275
G1 X63.888 Y89.237 E39.53715
G1 X63.934 Y89.308 E39.54103
G1 X64.091 Y89.675 E39.55931
G1 X64.129 Y89.995 E39.57407
G1 X64.129 Y90.421 E39.59358
G1 X66.021 Y90.421 E39.68023
G1 X66.021 Y81.971 E40.06723
G1 X65.854 Y82.054 E40.07577
G1 X65.531 Y82.159 E40.09133
G1 X65.209 Y82.213 E40.10628
G1 X64.802 Y82.214 E40.12492
G1 X64.492 Y82.166 E40.13929
G1 X64.279 Y82.109 E40.14939
G1 X64.131 Y82.049 E40.1567
G1 X63.848 Y81.902 E40.17131
G1 X63.667 Y81.788 E40.1811
G1 X63.533 Y81.671 E40.18925
G1 X63.32 Y81.456 E40.20311
G1 X63.181 Y81.29 E40.21303
G1 X63.081 Y81.125 E40.22186
G1 X62.913 Y80.783 E40.23932
G1 X62.837 Y80.532 E40.25133
G1 X62.775 Y80.116 E40.27059
G1 X62.776 Y79.878 E40.28149
G1 X62.83 Y79.511 E40.29848
G1 X62.889 Y79.281 E40.30935
G1 X62.958 Y79.122 E40.31729
G1 X63.138 Y78.777 E40.33511
G1 X63.244 Y78.625 E40.3436
G1 X63.321 Y78.54 E40.34885
G1 X63.662 Y78.217 E40.37037
G1 X63.789 Y78.129 E40.37744
G1 X64.133 Y77.951 E40.39518
G1 X64.315 Y77.877 E40.40418
