;FLAVOR:Marlin
;TIME:116
;Filament used: 0.0542647m
;Layer height: 0.15
;MINX:69.17
;MINY:69.47
;MINZ:0.2
;MAXX:91.83
;MAXY:90.53
;MAXZ:2.85
;Generated with Cura_SteamEngine 5.2.1
M82 ;absolute extrusion mode


; Pre-Processed for Cancel-Object support by preprocess_cancellation v0.2.0
; 1 known objects
EXCLUDE_OBJECT_DEFINE NAME=Slide_In_Nut_Support_stl CENTER=80.158,79.987 POLYGON=[[76.225,77.526],[76.225,82.474],[83.775,82.474],[83.775,77.526]]
PRINT_START BED=70 EXTRUDER=220 STANDBY=175 CHAMBER=28
G92 E0
G92 E0
G1 F2100 E-0.4
;LAYER_COUNT:16
;LAYER:0
M107
G1 F600 Z0.6
G0 F7200 X71.687 Y71.736 Z0.6
;TYPE:SKIRT
G1 F600 Z0.2
G1 F840 E0
G1 F1800 X72.296 Y71.208 E0.03691
G1 X72.955 Y70.743 E0.07385
G1 X73.656 Y70.346 E0.11075
G1 X74.394 Y70.02 E0.1477
G1 X75.16 Y69.768 E0.18463
G1 X75.947 Y69.594 E0.22155
G1 X77.081 Y69.482 E0.27374
G1 X77.63 Y69.47 E0.29889
G1 X82.993 Y69.47 E0.54451
G1 X83.807 Y69.481 E0.58179
G1 X84.612 Y69.532 E0.61873
G1 X85.408 Y69.663 E0.65568
G1 X86.186 Y69.872 E0.69257
G1 X86.94 Y70.158 E0.72951
G1 X87.662 Y70.516 E0.76642
G1 X88.346 Y70.944 E0.80337
G1 X88.983 Y71.438 E0.84029
G1 X89.568 Y71.993 E0.87722
G1 X90.096 Y72.602 E0.91414
G1 X90.56 Y73.261 E0.95105
G1 X90.957 Y73.963 E0.98799
G1 X91.283 Y74.701 E1.02494
G1 X91.533 Y75.467 E1.06184
G1 X91.707 Y76.254 E1.09875
G1 X91.818 Y77.381 E1.15062
G1 X91.83 Y77.93 E1.17577
G1 X91.829 Y81.765 E1.35141
G1 X91.82 Y82.492 E1.38471
G1 X91.77 Y83.296 E1.4216
G1 X91.641 Y84.092 E1.45853
G1 X91.433 Y84.871 E1.49546
G1 X91.15 Y85.626 E1.53239
G1 X90.793 Y86.349 E1.56932
G1 X90.366 Y87.033 E1.60625
G1 X89.873 Y87.671 E1.64317
G1 X89.32 Y88.257 E1.68008
G1 X88.711 Y88.786 E1.71702
G1 X88.053 Y89.252 E1.75395
G1 X87.352 Y89.65 E1.79087
G1 X86.615 Y89.977 E1.8278
G1 X85.85 Y90.229 E1.86468
G1 X85.063 Y90.404 E1.90161
G1 X83.919 Y90.518 E1.95426
G1 X83.37 Y90.53 E1.97941
G1 X77.902 Y90.529 E2.22984
G1 X77.204 Y90.52 E2.26181
G1 X76.4 Y90.47 E2.29871
G1 X75.604 Y90.34 E2.33565
G1 X74.825 Y90.132 E2.37257
G1 X74.07 Y89.848 E2.40952
G1 X73.348 Y89.491 E2.44641
G1 X72.664 Y89.063 E2.48336
G1 X72.026 Y88.571 E2.52026
G1 X71.44 Y88.017 E2.55719
G1 X70.912 Y87.408 E2.59411
G1 X70.446 Y86.75 E2.63103
G1 X70.048 Y86.048 E2.66799
G1 X69.722 Y85.311 E2.7049
G1 X69.47 Y84.545 E2.74183
G1 X69.295 Y83.758 E2.77876
G1 X69.182 Y82.611 E2.83154
G1 X69.17 Y82.058 E2.85688
G1 X69.171 Y78.164 E3.03522
G1 X69.18 Y77.499 E3.06568
G1 X69.231 Y76.694 E3.10262
G1 X69.361 Y75.899 E3.13952
G1 X69.569 Y75.12 E3.17644
G1 X69.854 Y74.366 E3.21336
G1 X70.212 Y73.643 E3.25031
G1 X70.64 Y72.96 E3.28722
G1 X71.133 Y72.322 E3.32415
G1 X71.687 Y71.736 E3.36109
G0 F7200 X72.214 Y71.983
G1 F1800 X72.818 Y71.49 E3.39679
G1 X73.469 Y71.062 E3.43247
G1 X74.16 Y70.703 E3.46814
G1 X74.884 Y70.417 E3.50379
G1 X75.634 Y70.206 E3.53947
G1 X76.402 Y70.073 E3.57517
G1 X77.096 Y70.022 E3.60704
G1 X77.63 Y70.01 E3.6315
G1 X82.993 Y70.01 E3.87712
G1 X83.8 Y70.021 E3.91409
G1 X84.577 Y70.072 E3.94975
G1 X85.345 Y70.202 E3.98542
G1 X86.096 Y70.411 E4.02113
G1 X86.821 Y70.695 E4.05679
G1 X87.513 Y71.053 E4.09247
G1 X88.165 Y71.479 E4.12814
G1 X88.77 Y71.97 E4.16383
G1 X89.321 Y72.52 E4.19948
G1 X89.813 Y73.124 E4.23516
G1 X90.241 Y73.775 E4.27084
G1 X90.599 Y74.466 E4.30649
G1 X90.885 Y75.191 E4.34218
G1 X91.095 Y75.941 E4.37785
G1 X91.227 Y76.709 E4.41354
G1 X91.278 Y77.397 E4.44514
G1 X91.29 Y77.93 E4.46955
G1 X91.289 Y81.758 E4.64487
G1 X91.28 Y82.485 E4.67817
G1 X91.231 Y83.262 E4.71383
G1 X91.102 Y84.031 E4.74954
G1 X90.895 Y84.782 E4.78522
G1 X90.612 Y85.507 E4.82086
G1 X90.256 Y86.2 E4.85654
G1 X89.831 Y86.853 E4.89223
G1 X89.341 Y87.459 E4.92792
G1 X88.792 Y88.011 E4.96358
G1 X88.189 Y88.505 E4.99928
G1 X87.539 Y88.933 E5.03492
G1 X86.848 Y89.293 E5.0706
G1 X86.124 Y89.581 E5.10629
G1 X85.374 Y89.792 E5.14197
G1 X84.607 Y89.926 E5.17763
G1 X83.904 Y89.978 E5.20992
G1 X83.37 Y89.99 E5.23438
G1 X77.909 Y89.989 E5.48449
G1 X77.211 Y89.98 E5.51646
G1 X76.434 Y89.93 E5.55212
G1 X75.666 Y89.801 E5.58779
G1 X74.915 Y89.593 E5.62348
G1 X74.189 Y89.31 E5.65916
G1 X73.496 Y88.954 E5.69485
G1 X72.844 Y88.529 E5.73049
G1 X72.238 Y88.039 E5.76618
G1 X71.686 Y87.489 E5.80187
G1 X71.193 Y86.886 E5.83754
G1 X70.765 Y86.235 E5.87323
G1 X70.405 Y85.544 E5.90891
G1 X70.118 Y84.82 E5.94458
G1 X69.907 Y84.07 E5.98026
G1 X69.774 Y83.303 E6.01591
G1 X69.722 Y82.596 E6.04838
G1 X69.71 Y82.058 E6.07303
G1 X69.711 Y78.171 E6.25105
G1 X69.72 Y77.506 E6.28151
G1 X69.77 Y76.729 E6.31717
G1 X69.9 Y75.961 E6.35284
G1 X70.108 Y75.21 E6.38853
G1 X70.392 Y74.485 E6.42419
G1 X70.748 Y73.792 E6.45988
G1 X71.174 Y73.14 E6.49555
G1 X71.665 Y72.535 E6.53123
G1 X72.214 Y71.983 E6.56689
G0 F7200 X72.741 Y72.239
G1 F1800 X73.337 Y71.784 E6.60123
G1 X73.979 Y71.395 E6.63561
G1 X74.659 Y71.076 E6.67001
G1 X75.369 Y70.831 E6.70441
G1 X76.1 Y70.663 E6.73876
G1 X77.111 Y70.562 E6.78529
G1 X77.63 Y70.55 E6.80907
G1 X82.993 Y70.55 E7.05469
G1 X83.792 Y70.561 E7.09129
G1 X84.541 Y70.611 E7.12567
G1 X85.28 Y70.741 E7.16003
G1 X86.002 Y70.949 E7.19444
G1 X86.697 Y71.233 E7.22883
G1 X87.358 Y71.589 E7.26321
G1 X87.977 Y72.013 E7.29758
G1 X88.548 Y72.5 E7.33195
G1 X89.064 Y73.046 E7.36635
G1 X89.519 Y73.643 E7.40073
G1 X89.908 Y74.285 E7.43511
G1 X90.226 Y74.965 E7.46949
G1 X90.47 Y75.675 E7.50388
G1 X90.638 Y76.407 E7.53827
G1 X90.738 Y77.412 E7.58453
G1 X90.75 Y77.93 E7.60826
G1 X90.749 Y81.751 E7.78326
G1 X90.74 Y82.478 E7.81656
G1 X90.691 Y83.227 E7.85093
G1 X90.563 Y83.967 E7.88533
G1 X90.356 Y84.689 E7.91973
G1 X90.074 Y85.384 E7.95408
G1 X89.719 Y86.046 E7.98848
G1 X89.297 Y86.667 E8.02287
G1 X88.81 Y87.238 E8.05724
G1 X88.266 Y87.755 E8.09161
G1 X87.669 Y88.211 E8.12602
G1 X87.028 Y88.601 E8.16038
G1 X86.349 Y88.921 E8.19476
G1 X85.639 Y89.167 E8.22917
G1 X84.908 Y89.335 E8.26352
G1 X83.889 Y89.438 E8.31043
G1 X83.37 Y89.45 E8.33421
G1 X77.916 Y89.449 E8.584
G1 X77.218 Y89.44 E8.61597
G1 X76.469 Y89.391 E8.65034
G1 X75.729 Y89.262 E8.68475
G1 X75.008 Y89.055 E8.7191
G1 X74.312 Y88.772 E8.75351
G1 X73.651 Y88.418 E8.78785
G1 X73.031 Y87.994 E8.82225
G1 X72.459 Y87.508 E8.85663
G1 X71.942 Y86.963 E8.89104
G1 X71.487 Y86.366 E8.92541
G1 X71.097 Y85.725 E8.95978
G1 X70.778 Y85.045 E8.99418
G1 X70.532 Y84.336 E9.02855
G1 X70.364 Y83.604 E9.06294
G1 X70.262 Y82.581 E9.11003
G1 X70.25 Y82.058 E9.13399
G1 X70.251 Y78.179 E9.31164
G1 X70.26 Y77.514 E9.3421
G1 X70.31 Y76.765 E9.37648
G1 X70.439 Y76.025 E9.41089
G1 X70.647 Y75.304 E9.44525
G1 X70.93 Y74.608 E9.47966
G1 X71.285 Y73.947 E9.51403
G1 X71.708 Y73.327 E9.5484
G1 X72.195 Y72.756 E9.58277
G1 X72.741 Y72.239 E9.61721
G0 F7200 X73.265 Y72.508
G1 F1800 X73.854 Y72.091 E9.65026
G1 X74.486 Y71.743 E9.68331
G1 X75.152 Y71.467 E9.71632
G1 X75.845 Y71.266 E9.74937
G1 X76.556 Y71.143 E9.78242
G1 X77.127 Y71.102 E9.80864
G1 X77.63 Y71.09 E9.83168
G1 X82.993 Y71.09 E10.0773
G1 X83.784 Y71.101 E10.11353
G1 X84.504 Y71.151 E10.14659
G1 X85.214 Y71.281 E10.17964
G1 X85.904 Y71.488 E10.21264
G1 X86.568 Y71.77 E10.24568
G1 X87.197 Y72.125 E10.27876
G1 X87.782 Y72.546 E10.31177
G1 X88.317 Y73.03 E10.34481
G1 X88.796 Y73.57 E10.37787
G1 X89.211 Y74.159 E10.41087
G1 X89.559 Y74.791 E10.44391
G1 X89.835 Y75.458 E10.47697
G1 X90.035 Y76.151 E10.51
G1 X90.158 Y76.862 E10.54305
G1 X90.198 Y77.427 E10.56899
G1 X90.21 Y77.93 E10.59203
G1 X90.21 Y81.745 E10.76676
G1 X90.201 Y82.472 E10.80006
G1 X90.152 Y83.191 E10.83306
G1 X90.023 Y83.901 E10.86611
G1 X89.817 Y84.593 E10.89918
G1 X89.536 Y85.257 E10.9322
G1 X89.183 Y85.886 E10.96524
G1 X88.763 Y86.472 E10.99826
G1 X88.28 Y87.008 E11.0313
G1 X87.741 Y87.488 E11.06436
G1 X87.152 Y87.905 E11.09741
G1 X86.521 Y88.254 E11.13043
G1 X85.855 Y88.531 E11.16347
G1 X85.162 Y88.733 E11.19653
G1 X84.452 Y88.856 E11.22953
G1 X83.873 Y88.898 E11.25612
G1 X83.37 Y88.91 E11.27916
G1 X77.923 Y88.909 E11.52863
G1 X77.225 Y88.9 E11.5606
G1 X76.505 Y88.851 E11.59365
G1 X75.796 Y88.723 E11.62665
G1 X75.104 Y88.516 E11.65973
G1 X74.44 Y88.235 E11.69275
G1 X73.811 Y87.881 E11.72581
G1 X73.225 Y87.461 E11.75883
G1 X72.689 Y86.978 E11.79187
G1 X72.21 Y86.438 E11.82493
G1 X71.794 Y85.849 E11.85796
G1 X71.445 Y85.218 E11.89098
G1 X71.168 Y84.552 E11.92402
G1 X70.967 Y83.859 E11.95706
G1 X70.843 Y83.148 E11.99012
G1 X70.801 Y82.567 E12.0168
G1 X70.79 Y82.058 E12.04011
G1 X70.791 Y78.186 E12.21745
G1 X70.8 Y77.521 E12.24791
G1 X70.849 Y76.801 E12.28096
G1 X70.978 Y76.091 E12.31401
G1 X71.185 Y75.4 E12.34705
G1 X71.467 Y74.736 E12.38009
G1 X71.821 Y74.108 E12.4131
G1 X72.242 Y73.522 E12.44615
G1 X72.725 Y72.986 E12.47919
G1 X73.265 Y72.508 E12.51222
G0 F7200 X73.787 Y72.789
G1 F1800 X74.367 Y72.414 E12.54386
G1 X74.987 Y72.109 E12.5755
G1 X75.638 Y71.878 E12.60714
G1 X76.311 Y71.723 E12.63877
G1 X77.142 Y71.641 E12.67701
G1 X77.63 Y71.63 E12.69937
G1 X82.993 Y71.63 E12.94499
G1 X83.777 Y71.641 E12.9809
G1 X84.466 Y71.69 E13.01253
G1 X85.144 Y71.82 E13.04415
G1 X85.803 Y72.026 E13.07577
G1 X86.434 Y72.308 E13.10743
G1 X87.028 Y72.66 E13.13905
G1 X87.578 Y73.079 E13.17072
G1 X88.075 Y73.558 E13.20233
G1 X88.514 Y74.092 E13.23399
G1 X88.888 Y74.672 E13.2656
G1 X89.193 Y75.292 E13.29724
G1 X89.424 Y75.943 E13.32888
G1 X89.578 Y76.617 E13.36054
G1 X89.659 Y77.442 E13.39851
G1 X89.67 Y77.93 E13.42087
G1 X89.67 Y81.738 E13.59527
G1 X89.661 Y82.465 E13.62857
G1 X89.612 Y83.154 E13.6602
G1 X89.484 Y83.833 E13.69185
G1 X89.279 Y84.492 E13.72346
G1 X88.999 Y85.124 E13.75511
G1 X88.648 Y85.719 E13.78675
G1 X88.23 Y86.269 E13.81839
G1 X87.752 Y86.767 E13.85001
G1 X87.219 Y87.207 E13.88166
G1 X86.639 Y87.582 E13.91329
G1 X86.019 Y87.888 E13.94496
G1 X85.369 Y88.12 E13.97657
G1 X84.696 Y88.276 E14.00821
G1 X83.858 Y88.359 E14.04678
G1 X83.37 Y88.37 E14.06913
G1 X77.93 Y88.37 E14.31828
G1 X77.232 Y88.361 E14.35025
G1 X76.543 Y88.312 E14.38188
G1 X75.864 Y88.184 E14.41353
G1 X75.205 Y87.978 E14.44515
G1 X74.573 Y87.697 E14.47683
G1 X73.979 Y87.346 E14.50843
G1 X73.429 Y86.928 E14.54007
G1 X72.931 Y86.449 E14.57171
G1 X72.491 Y85.916 E14.60337
G1 X72.116 Y85.336 E14.635
G1 X71.811 Y84.717 E14.6666
G1 X71.579 Y84.066 E14.69826
G1 X71.424 Y83.393 E14.72989
G1 X71.341 Y82.552 E14.76859
G1 X71.33 Y82.058 E14.79122
G1 X71.331 Y78.193 E14.96823
G1 X71.34 Y77.528 E14.99869
G1 X71.389 Y76.839 E15.03033
G1 X71.517 Y76.16 E15.06197
G1 X71.724 Y75.501 E15.09361
G1 X72.004 Y74.87 E15.12523
G1 X72.356 Y74.276 E15.15685
G1 X72.775 Y73.726 E15.18852
G1 X73.253 Y73.228 E15.22013
G1 X73.787 Y72.789 E15.25179
G0 F7200 X74.306 Y73.085
G1 F1800 X74.876 Y72.755 E15.28196
G1 X75.481 Y72.496 E15.3121
G1 X76.114 Y72.312 E15.34229
G1 X76.764 Y72.206 E15.37245
G1 X77.157 Y72.181 E15.39048
G1 X77.63 Y72.17 E15.41215
G1 X82.993 Y72.17 E15.65777
G1 X83.769 Y72.181 E15.69332
G1 X84.426 Y72.23 E15.72349
G1 X85.072 Y72.359 E15.75366
G1 X85.698 Y72.564 E15.78383
G1 X86.294 Y72.845 E15.81401
G1 X86.852 Y73.195 E15.84418
G1 X87.363 Y73.61 E15.87433
G1 X87.821 Y74.084 E15.90451
G1 X88.217 Y74.61 E15.93467
G1 X88.547 Y75.18 E15.96483
G1 X88.806 Y75.786 E15.99502
G1 X88.989 Y76.419 E16.02519
G1 X89.094 Y77.07 E16.05539
G1 X89.119 Y77.457 E16.07315
G1 X89.13 Y77.93 E16.09482
G1 X89.13 Y81.731 E16.26891
G1 X89.121 Y82.458 E16.30221
G1 X89.072 Y83.115 E16.33238
G1 X88.945 Y83.762 E16.36258
G1 X88.741 Y84.388 E16.39273
G1 X88.462 Y84.985 E16.42291
G1 X88.112 Y85.543 E16.45308
G1 X87.698 Y86.055 E16.48323
G1 X87.225 Y86.514 E16.51342
G1 X86.7 Y86.911 E16.54357
G1 X86.13 Y87.242 E16.57375
G1 X85.525 Y87.502 E16.60391
G1 X84.892 Y87.686 E16.6341
G1 X84.242 Y87.793 E16.66427
G1 X83.843 Y87.819 E16.68259
G1 X83.37 Y87.83 E16.70426
G1 X77.937 Y87.83 E16.95308
G1 X77.239 Y87.821 E16.98505
G1 X76.582 Y87.772 E17.01523
G1 X75.936 Y87.644 E17.04539
G1 X75.31 Y87.439 E17.07556
G1 X74.713 Y87.16 E17.10574
G1 X74.154 Y86.811 E17.13592
G1 X73.642 Y86.396 E17.1661
G1 X73.184 Y85.923 E17.19626
G1 X72.787 Y85.397 E17.22644
G1 X72.456 Y84.827 E17.25663
G1 X72.197 Y84.222 E17.28677
G1 X72.013 Y83.589 E17.31696
G1 X71.907 Y82.939 E17.34712
G1 X71.881 Y82.538 E17.36553
G1 X71.87 Y82.058 E17.38752
G1 X71.87 Y78.201 E17.56416
G1 X71.879 Y77.536 E17.59462
G1 X71.928 Y76.879 E17.6248
G1 X72.056 Y76.232 E17.655
G1 X72.262 Y75.606 E17.68518
G1 X72.541 Y75.01 E17.71532
G1 X72.891 Y74.452 E17.74549
G1 X73.306 Y73.94 E17.77568
G1 X73.78 Y73.482 E17.80586
G1 X74.306 Y73.085 E17.83604
G0 F7200 X74.821 Y73.399
G1 F1800 X75.378 Y73.116 E17.86466
G1 X75.967 Y72.907 E17.89328
G1 X76.578 Y72.774 E17.92192
G1 X77.172 Y72.721 E17.94923
G1 X77.63 Y72.71 E17.97022
G1 X82.993 Y72.71 E18.21584
G1 X83.761 Y72.721 E18.25101
G1 X84.384 Y72.769 E18.27963
G1 X84.996 Y72.897 E18.30827
G1 X85.587 Y73.102 E18.33692
G1 X86.146 Y73.381 E18.36553
G1 X86.666 Y73.729 E18.39419
G1 X87.137 Y74.14 E18.42282
G1 X87.551 Y74.608 E18.45143
G1 X87.903 Y75.125 E18.48008
G1 X88.185 Y75.683 E18.50871
G1 X88.394 Y76.272 E18.53734
G1 X88.527 Y76.883 E18.56598
G1 X88.579 Y77.473 E18.5931
G1 X88.59 Y77.93 E18.61404
G1 X88.59 Y81.725 E18.78785
G1 X88.581 Y82.452 E18.82114
G1 X88.533 Y83.075 E18.84976
G1 X88.406 Y83.687 E18.87839
G1 X88.202 Y84.278 E18.90702
G1 X87.925 Y84.838 E18.93564
G1 X87.578 Y85.358 E18.96427
G1 X87.168 Y85.83 E18.9929
G1 X86.7 Y86.245 E19.02155
G1 X86.184 Y86.598 E19.05018
G1 X85.627 Y86.881 E19.0788
G1 X85.038 Y87.092 E19.10745
G1 X84.428 Y87.225 E19.13604
G1 X83.828 Y87.279 E19.16364
G1 X83.37 Y87.29 E19.18462
G1 X77.944 Y87.29 E19.43312
G1 X77.246 Y87.281 E19.46509
G1 X76.623 Y87.233 E19.49371
G1 X76.011 Y87.105 E19.52235
G1 X75.42 Y86.901 E19.55098
G1 X74.86 Y86.623 E19.57962
G1 X74.34 Y86.276 E19.60825
G1 X73.868 Y85.866 E19.63688
G1 X73.453 Y85.398 E19.66553
G1 X73.101 Y84.882 E19.69414
G1 X72.818 Y84.325 E19.72275
G1 X72.608 Y83.736 E19.75139
G1 X72.474 Y83.125 E19.78004
G1 X72.421 Y82.523 E19.80771
G1 X72.41 Y82.058 E19.82902
G1 X72.41 Y78.208 E20.00534
G1 X72.419 Y77.543 E20.0358
G1 X72.468 Y76.92 E20.06442
G1 X72.595 Y76.308 E20.09305
G1 X72.8 Y75.717 E20.1217
G1 X73.078 Y75.157 E20.15033
G1 X73.426 Y74.637 E20.17899
G1 X73.836 Y74.166 E20.20759
G1 X74.304 Y73.751 E20.23624
G1 X74.821 Y73.399 E20.26488
G0 F7200 X75.331 Y73.735
G1 F1800 X75.873 Y73.503 E20.29188
G1 X76.441 Y73.346 E20.31887
G1 X77.187 Y73.261 E20.35326
G1 X77.63 Y73.25 E20.37356
G1 X83.055 Y73.25 E20.62202
G1 X83.753 Y73.26 E20.65399
G1 X84.341 Y73.309 E20.68101
G1 X84.917 Y73.436 E20.70803
G1 X85.47 Y73.64 E20.73502
G1 X85.99 Y73.917 E20.76201
G1 X86.468 Y74.262 E20.789
G1 X86.896 Y74.668 E20.81602
G1 X87.264 Y75.129 E20.84304
G1 X87.567 Y75.635 E20.87005
G1 X87.798 Y76.177 E20.89703
G1 X87.954 Y76.745 E20.92401
G1 X88.039 Y77.488 E20.95826
G1 X88.05 Y77.93 E20.97851
G1 X88.05 Y81.718 E21.152
G1 X88.041 Y82.445 E21.1853
G1 X87.993 Y83.033 E21.21232
G1 X87.867 Y83.608 E21.23928
G1 X87.664 Y84.162 E21.2663
G1 X87.388 Y84.683 E21.2933
G1 X87.044 Y85.162 E21.32031
G1 X86.639 Y85.59 E21.3473
G1 X86.179 Y85.959 E21.3743
G1 X85.674 Y86.263 E21.4013
G1 X85.132 Y86.495 E21.4283
G1 X84.564 Y86.653 E21.4553
G1 X83.813 Y86.739 E21.48992
G1 X83.37 Y86.75 E21.51022
G1 X77.951 Y86.75 E21.75841
G1 X77.253 Y86.741 E21.79038
G1 X76.665 Y86.693 E21.8174
G1 X76.089 Y86.567 E21.8444
G1 X75.536 Y86.363 E21.87139
G1 X75.015 Y86.087 E21.8984
G1 X74.536 Y85.743 E21.92541
G1 X74.109 Y85.337 E21.95239
G1 X73.74 Y84.877 E21.9794
G1 X73.436 Y84.372 E22.0064
G1 X73.204 Y83.83 E22.0334
G1 X73.047 Y83.262 E22.06039
G1 X72.961 Y82.509 E22.0951
G1 X72.95 Y82.058 E22.11576
G1 X72.95 Y78.215 E22.29177
G1 X72.959 Y77.55 E22.32223
G1 X73.007 Y76.963 E22.3492
G1 X73.134 Y76.387 E22.37621
G1 X73.338 Y75.833 E22.40325
G1 X73.614 Y75.313 E22.43021
G1 X73.959 Y74.834 E22.45725
G1 X74.365 Y74.407 E22.48423
G1 X74.825 Y74.038 E22.51124
G1 X75.331 Y73.735 E22.53825
G0 F7200 X75.341 Y74.346
G1 F1800 X75.833 Y74.096 E22.56353
G1 X76.356 Y73.92 E22.5888
G1 X76.899 Y73.821 E22.61408
G1 X77.202 Y73.8 E22.62799
G1 X77.523 Y73.791 E22.6427
G1 X83.048 Y73.79 E22.89574
G1 X83.746 Y73.8 E22.92771
G1 X84.295 Y73.848 E22.95295
G1 X84.832 Y73.975 E22.97822
G1 X85.345 Y74.178 E23.00349
G1 X85.824 Y74.453 E23.02879
G1 X86.257 Y74.794 E23.05403
