;FLAVOR:Marlin
;TIME:1435
;Filament used: 0.821428m
;Layer height: 0.2
;MINX:67.771
;MINY:56.27
;MINZ:0.2
;MAXX:99.457
;MAXY:104.198
;MAXZ:16.4
;Generated with Cura_SteamEngine 5.2.1
M82 ;absolute extrusion mode


; Pre-Processed for Cancel-Object support by preprocess_cancellation v0.2.0
; 4 known objects
EXCLUDE_OBJECT_DEFINE NAME=Status_LED_logo_diffuser_stl CENTER=80.213,67.152 POLYGON=[[73.733,61.9],[73.733,72.5],[86.267,72.5],[86.267,61.9]]
EXCLUDE_OBJECT_DEFINE NAME=c__stealthburner_LED_diffuser_beta3_stl CENTER=80.004,80.079 POLYGON=[[73.301,74.433],[73.301,85.567],[86.699,85.567],[86.699,74.433]]
EXCLUDE_OBJECT_DEFINE NAME=Status_LED_Carrier_stl CENTER=91.214,79.965 POLYGON=[[88.573,73.449],[88.573,86.551],[93.827,86.551],[93.827,73.449]]
EXCLUDE_OBJECT_DEFINE NAME=c__stealthburner_LED_diffuser_beta3_stl_1 CENTER=80.030,93.053 POLYGON=[[73.301,87.533],[73.301,98.667],[86.699,98.667],[86.699,87.533]]
PRINT_START BED=90 EXTRUDER=245 STANDBY=120 CHAMBER=0
G92 E0
G92 E0
G1 F7200 E-0.4
;LAYER_COUNT:82
;LAYER:0
M107
G1 F600 Z0.6
G0 F7200 X69.562 Y59.744 Z0.6
;TYPE:SKIRT
G1 F600 Z0.2
G1 F7200 E0
G1 F1200 X69.836 Y59.454 E0.01791
G1 X71.026 Y58.26 E0.09361
G1 X71.497 Y57.805 E0.12301
G1 X71.998 Y57.377 E0.1526
G1 X72.547 Y57.012 E0.1822
G1 X73.136 Y56.717 E0.21178
G1 X73.756 Y56.495 E0.24135
G1 X74.399 Y56.35 E0.27094
G1 X75.173 Y56.281 E0.30583
G1 X75.827 Y56.27 E0.3352
G1 X84.028 Y56.27 E0.70344
G1 X84.806 Y56.281 E0.73838
G1 X85.463 Y56.33 E0.76796
G1 X86.11 Y56.458 E0.79757
G1 X86.735 Y56.664 E0.82712
G1 X87.332 Y56.944 E0.85673
G1 X87.89 Y57.295 E0.88633
G1 X88.409 Y57.717 E0.91636
G1 X88.715 Y58.004 E0.9352
G1 X89.819 Y59.104 E1.00518
G1 X90.352 Y59.653 E1.03953
G1 X90.782 Y60.153 E1.06914
G1 X91.174 Y60.746 E1.10106
G1 X91.529 Y61.369 E1.13326
G1 X92.921 Y63.739 E1.25667
G1 X94.353 Y66.024 E1.37775
G1 X95.822 Y68.23 E1.49676
G1 X98.118 Y71.43 E1.6736
G1 X98.357 Y71.749 E1.6915
G1 X98.719 Y72.299 E1.72106
G1 X99.012 Y72.889 E1.75064
G1 X99.231 Y73.511 E1.78025
G1 X99.374 Y74.154 E1.80983
G1 X99.44 Y74.907 E1.84377
G1 X99.457 Y75.887 E1.88778
G1 X99.456 Y76.628 E1.92105
G1 X99.426 Y78.576 E2.00853
G1 X99.422 Y81.338 E2.13255
G1 X99.456 Y82.979 E2.20624
G1 X99.456 Y84.36 E2.26825
G1 X99.446 Y85.063 E2.29982
G1 X99.397 Y85.72 E2.3294
G1 X99.269 Y86.366 E2.35897
G1 X99.063 Y86.992 E2.38856
G1 X98.783 Y87.588 E2.41813
G1 X98.563 Y87.955 E2.43734
G1 X98.113 Y88.643 E2.47426
G1 X97.51 Y89.535 E2.5226
G1 X96.046 Y91.838 E2.64513
G1 X94.694 Y94.103 E2.76358
G1 X93.386 Y96.441 E2.88387
G1 X92.085 Y98.934 E3.01013
G1 X91.64 Y99.817 E3.05453
G1 X91.309 Y100.386 E3.08409
G1 X90.787 Y101.05 E3.12201
G1 X90.505 Y101.351 E3.14053
G1 X89.701 Y102.16 E3.19174
G1 X89.2 Y102.648 E3.22315
G1 X88.701 Y103.078 E3.25272
G1 X88.154 Y103.445 E3.2823
G1 X87.566 Y103.742 E3.31188
G1 X86.946 Y103.966 E3.34148
G1 X86.304 Y104.114 E3.37106
G1 X85.506 Y104.187 E3.40704
G1 X84.841 Y104.198 E3.43691
G1 X75.851 Y104.196 E3.84057
G1 X75.155 Y104.186 E3.87182
G1 X74.498 Y104.137 E3.9014
G1 X73.852 Y104.008 E3.93098
G1 X73.226 Y103.803 E3.96056
G1 X72.63 Y103.522 E3.99015
G1 X72.072 Y103.172 E4.01972
G1 X71.561 Y102.757 E4.04928
G1 X71.103 Y102.283 E4.07888
G1 X70.57 Y101.54 E4.11993
G1 X70.191 Y100.905 E4.15314
G1 X68.788 Y98.474 E4.27917
G1 X68.469 Y97.902 E4.30857
G1 X68.183 Y97.308 E4.33818
G1 X67.972 Y96.684 E4.36775
G1 X67.838 Y96.039 E4.39733
G1 X67.783 Y95.411 E4.42564
G1 X67.771 Y94.904 E4.44841
G1 X67.772 Y88.44 E4.73865
G1 X67.811 Y85.962 E4.84993
G1 X67.771 Y81.792 E5.03718
G1 X67.772 Y76.318 E5.28297
G1 X67.782 Y75.647 E5.3131
G1 X67.795 Y75.345 E5.32667
G1 X67.864 Y74.376 E5.37029
G1 X68.017 Y71.673 E5.49185
G1 X68.093 Y68.961 E5.61367
G1 X68.103 Y67.6 E5.67478
G1 X68.104 Y64.041 E5.83459
G1 X68.114 Y63.358 E5.86526
G1 X68.163 Y62.701 E5.89484
G1 X68.292 Y62.055 E5.92442
G1 X68.498 Y61.429 E5.95401
G1 X68.778 Y60.833 E5.98358
G1 X69.129 Y60.275 E6.01318
G1 X69.562 Y59.744 E6.04394
G0 F7200 X69.958 Y60.111
G1 F1200 X70.219 Y59.835 E6.061
G1 X71.402 Y58.648 E6.13625
G1 X71.873 Y58.193 E6.16565
G1 X72.349 Y57.788 E6.19371
G1 X72.873 Y57.448 E6.22176
G1 X73.437 Y57.177 E6.24986
G1 X74.03 Y56.98 E6.27791
G1 X74.643 Y56.86 E6.30596
G1 X75.182 Y56.821 E6.33022
G1 X75.827 Y56.81 E6.35919
G1 X84.098 Y56.81 E6.73057
G1 X84.799 Y56.82 E6.76205
G1 X85.422 Y56.869 E6.79011
G1 X86.034 Y56.997 E6.81818
G1 X86.624 Y57.202 E6.84623
G1 X87.184 Y57.481 E6.87432
G1 X87.704 Y57.829 E6.90241
G1 X88.043 Y58.114 E6.9223
G1 X88.333 Y58.387 E6.94018
G1 X89.494 Y59.544 E7.01378
G1 X89.965 Y60.029 E7.04414
G1 X90.371 Y60.505 E7.07223
G1 X90.705 Y61.014 E7.09956
G1 X91.085 Y61.68 E7.13399
G1 X92.458 Y64.017 E7.2557
G1 X93.895 Y66.311 E7.37724
G1 X95.365 Y68.519 E7.49634
G1 X97.729 Y71.813 E7.6784
G1 X97.924 Y72.073 E7.69299
G1 X98.267 Y72.596 E7.72107
G1 X98.539 Y73.159 E7.74915
G1 X98.738 Y73.752 E7.77723
G1 X98.859 Y74.365 E7.80529
G1 X98.9 Y74.916 E7.8301
G1 X98.917 Y75.887 E7.8737
G1 X98.916 Y76.62 E7.90661
G1 X98.886 Y78.575 E7.99441
G1 X98.882 Y81.348 E8.11892
G1 X98.916 Y82.99 E8.19266
G1 X98.917 Y84.353 E8.25386
G1 X98.907 Y85.056 E8.28543
G1 X98.858 Y85.679 E8.31349
G1 X98.73 Y86.291 E8.34156
G1 X98.525 Y86.881 E8.36961
G1 X98.111 Y87.66 E8.40922
G1 X97.666 Y88.34 E8.44571
G1 X97.051 Y89.25 E8.49503
G1 X95.603 Y91.528 E8.61623
G1 X94.228 Y93.831 E8.73666
G1 X92.912 Y96.184 E8.85772
G1 X91.586 Y98.724 E8.98637
G1 X91.158 Y99.574 E9.0291
G1 X90.842 Y100.113 E9.05716
G1 X90.39 Y100.685 E9.08989
G1 X90.122 Y100.97 E9.10746
G1 X89.324 Y101.773 E9.15829
G1 X88.823 Y102.261 E9.18969
G1 X88.348 Y102.668 E9.21778
G1 X87.825 Y103.01 E9.24584
G1 X87.263 Y103.284 E9.27391
G1 X86.671 Y103.483 E9.30195
G1 X86.058 Y103.605 E9.33002
G1 X85.497 Y103.647 E9.35528
G1 X84.841 Y103.658 E9.38474
G1 X75.859 Y103.656 E9.78804
G1 X75.163 Y103.646 E9.81929
G1 X74.54 Y103.598 E9.84735
G1 X73.928 Y103.47 E9.87543
G1 X73.337 Y103.265 E9.90351
G1 X72.778 Y102.986 E9.93157
G1 X72.258 Y102.638 E9.95966
G1 X71.787 Y102.227 E9.98773
G1 X71.373 Y101.759 E10.01578
G1 X71.034 Y101.263 E10.04276
G1 X70.619 Y100.567 E10.07915
G1 X69.259 Y98.211 E10.20129
G1 X68.94 Y97.639 E10.2307
G1 X68.671 Y97.074 E10.2588
G1 X68.477 Y96.48 E10.28686
G1 X68.359 Y95.866 E10.31493
G1 X68.323 Y95.395 E10.33614
G1 X68.311 Y94.904 E10.35819
G1 X68.312 Y88.449 E10.64803
G1 X68.351 Y85.962 E10.75971
G1 X68.311 Y81.787 E10.94718
G1 X68.312 Y76.326 E11.19239
G1 X68.333 Y75.383 E11.23474
G1 X68.405 Y74.365 E11.28056
G1 X68.557 Y71.682 E11.40123
G1 X68.633 Y68.981 E11.52255
G1 X68.643 Y67.604 E11.58438
G1 X68.644 Y64.048 E11.74405
G1 X68.654 Y63.365 E11.77472
G1 X68.703 Y62.742 E11.80278
G1 X68.831 Y62.13 E11.83086
G1 X69.036 Y61.54 E11.8589
G1 X69.315 Y60.98 E11.887
G1 X69.663 Y60.461 E11.91505
G1 X69.958 Y60.111 E11.93561
G0 F7200 X70.354 Y60.479
G1 F1200 X70.601 Y60.216 E11.95181
G1 X71.777 Y59.036 E12.02661
G1 X72.248 Y58.581 E12.05601
G1 X72.699 Y58.201 E12.08249
G1 X73.197 Y57.886 E12.10895
G1 X73.733 Y57.641 E12.13542
G1 X74.297 Y57.47 E12.16188
G1 X74.879 Y57.378 E12.18833
G1 X75.192 Y57.361 E12.20241
G1 X75.827 Y57.35 E12.23093
G1 X84.09 Y57.35 E12.60194
G1 X84.791 Y57.36 E12.63342
G1 X85.379 Y57.409 E12.65992
G1 X85.954 Y57.536 E12.68636
G1 X86.507 Y57.74 E12.71282
G1 X87.028 Y58.017 E12.73932
G1 X87.677 Y58.511 E12.77594
G1 X87.952 Y58.77 E12.7929
G1 X89.107 Y59.92 E12.86609
G1 X89.578 Y60.405 E12.89644
G1 X89.959 Y60.855 E12.92292
G1 X90.236 Y61.281 E12.94573
G1 X90.598 Y61.916 E12.97855
G1 X92.019 Y64.335 E13.10452
G1 X93.412 Y66.559 E13.22235
G1 X94.935 Y68.847 E13.34577
G1 X97.285 Y72.12 E13.52669
G1 X97.492 Y72.397 E13.54221
G1 X97.813 Y72.891 E13.56867
G1 X98.064 Y73.425 E13.59516
G1 X98.24 Y73.988 E13.62165
G1 X98.339 Y74.569 E13.64811
G1 X98.36 Y74.926 E13.66417
G1 X98.377 Y75.887 E13.70732
G1 X98.376 Y76.612 E13.73988
G1 X98.346 Y78.574 E13.82798
G1 X98.342 Y81.358 E13.95299
G1 X98.377 Y83.091 E14.03082
G1 X98.377 Y84.345 E14.08712
G1 X98.367 Y85.048 E14.11869
G1 X98.318 Y85.635 E14.14514
G1 X98.191 Y86.211 E14.17163
G1 X97.987 Y86.764 E14.19809
G1 X97.659 Y87.365 E14.22883
G1 X97.219 Y88.038 E14.26494
G1 X96.581 Y88.981 E14.31606
G1 X95.152 Y91.229 E14.43567
G1 X93.759 Y93.563 E14.55771
G1 X92.431 Y95.939 E14.67993
G1 X91.136 Y98.418 E14.80551
G1 X90.676 Y99.331 E14.85142
G1 X90.375 Y99.839 E14.87793
G1 X89.992 Y100.319 E14.9055
G1 X89.739 Y100.59 E14.92215
G1 X88.947 Y101.386 E14.97257
G1 X88.446 Y101.874 E15.00397
G1 X87.997 Y102.256 E15.03044
G1 X87.5 Y102.573 E15.05691
G1 X86.965 Y102.821 E15.08339
G1 X86.401 Y102.994 E15.10988
G1 X85.82 Y103.089 E15.13631
G1 X85.487 Y103.107 E15.15128
G1 X84.842 Y103.118 E15.18025
G1 X75.867 Y103.117 E15.58324
G1 X75.171 Y103.107 E15.61449
G1 X74.583 Y103.058 E15.64099
G1 X74.007 Y102.931 E15.66747
G1 X73.454 Y102.727 E15.69394
G1 X72.934 Y102.45 E15.72039
G1 X72.455 Y102.105 E15.7469
G1 X72.028 Y101.698 E15.77338
G1 X71.66 Y101.238 E15.79983
G1 X71.498 Y100.986 E15.81329
G1 X71.087 Y100.297 E15.84931
G1 X69.731 Y97.948 E15.97109
G1 X69.412 Y97.376 E16.0005
G1 X69.16 Y96.843 E16.02697
G1 X68.983 Y96.28 E16.05347
G1 X68.884 Y95.699 E16.07994
G1 X68.863 Y95.38 E16.09429
G1 X68.851 Y94.904 E16.11567
G1 X68.852 Y88.457 E16.40515
G1 X68.891 Y85.962 E16.51719
G1 X68.851 Y81.782 E16.70489
G1 X68.851 Y76.334 E16.94951
G1 X68.861 Y75.663 E16.97964
G1 X68.941 Y74.442 E17.03458
G1 X69.097 Y71.694 E17.15817
G1 X69.174 Y68.955 E17.2812
G1 X69.183 Y67.607 E17.34173
G1 X69.183 Y64.056 E17.50117
G1 X69.193 Y63.373 E17.53184
G1 X69.242 Y62.786 E17.55829
G1 X69.37 Y62.21 E17.58479
G1 X69.574 Y61.657 E17.61125
G1 X69.851 Y61.137 E17.63771
G1 X70.354 Y60.479 E17.6749
G0 F7200 X70.75 Y60.846
G1 F1200 X70.984 Y60.597 E17.69024
G1 X72.152 Y59.425 E17.76453
G1 X72.623 Y58.97 E17.79394
G1 X73.046 Y58.616 E17.81871
G1 X73.517 Y58.327 E17.84352
G1 X74.023 Y58.11 E17.86824
G1 X74.557 Y57.967 E17.89306
G1 X75.202 Y57.901 E17.92217
G1 X75.827 Y57.89 E17.95024
G1 X84.082 Y57.89 E18.3209
G1 X84.783 Y57.9 E18.35238
G1 X85.333 Y57.948 E18.37717
G1 X85.87 Y58.075 E18.40195
G1 X86.383 Y58.278 E18.42672
G1 X86.861 Y58.553 E18.45148
G1 X87.311 Y58.908 E18.47722
G1 X87.571 Y59.152 E18.49323
G1 X88.719 Y60.297 E18.56603
G1 X89.19 Y60.782 E18.59638
G1 X89.545 Y61.204 E18.62115
G1 X89.767 Y61.549 E18.63957
G1 X90.132 Y62.19 E18.67269
G1 X91.531 Y64.571 E18.79669
G1 X92.99 Y66.9 E18.92009
G1 X94.482 Y69.141 E19.04097
G1 X96.857 Y72.45 E19.22386
G1 X97.06 Y72.721 E19.23906
G1 X97.358 Y73.185 E19.26382
G1 X97.586 Y73.687 E19.28858
G1 X97.739 Y74.218 E19.31339
G1 X97.82 Y74.936 E19.34583
G1 X97.837 Y75.887 E19.38854
G1 X97.837 Y76.603 E19.42069
G1 X97.806 Y78.626 E19.51154
G1 X97.802 Y81.369 E19.6347
G1 X97.837 Y83.091 E19.71204
G1 X97.837 Y84.337 E19.76798
G1 X97.827 Y85.04 E19.79955
G1 X97.779 Y85.59 E19.82434
G1 X97.652 Y86.127 E19.84912
G1 X97.449 Y86.64 E19.87389
G1 X97.207 Y87.069 E19.89601
G1 X96.772 Y87.735 E19.93173
G1 X96.149 Y88.656 E19.98165
G1 X94.667 Y90.987 E20.10568
G1 X93.284 Y93.305 E20.22688
G1 X91.963 Y95.666 E20.34835
G1 X90.654 Y98.175 E20.47542
G1 X90.194 Y99.088 E20.52133
G1 X89.91 Y99.562 E20.54614
G1 X89.595 Y99.954 E20.56872
G1 X89.356 Y100.209 E20.58441
G1 X88.57 Y100.999 E20.63445
G1 X88.069 Y101.487 E20.66585
G1 X87.647 Y101.843 E20.69064
G1 X87.178 Y102.133 E20.7154
G1 X86.672 Y102.353 E20.74018
G1 X86.14 Y102.498 E20.76493
G1 X85.478 Y102.567 E20.79482
G1 X84.842 Y102.578 E20.82338
G1 X75.874 Y102.577 E21.22606
G1 X75.178 Y102.567 E21.25731
G1 X74.629 Y102.519 E21.28205
G1 X74.092 Y102.392 E21.30683
G1 X73.579 Y102.189 E21.3316
G1 X73.1 Y101.914 E21.3564
G1 X72.667 Y101.573 E21.38115
G1 X72.287 Y101.173 E21.40592
G1 X71.961 Y100.71 E21.43135
G1 X71.582 Y100.075 E21.46455
G1 X70.202 Y97.685 E21.58847
G1 X69.883 Y97.113 E21.61788
G1 X69.65 Y96.613 E21.64265
G1 X69.492 Y96.084 E21.66744
G1 X69.403 Y95.365 E21.69997
G1 X69.391 Y94.904 E21.72068
G1 X69.391 Y88.466 E22.00975
G1 X69.43 Y85.939 E22.12323
G1 X69.391 Y81.777 E22.31011
G1 X69.391 Y76.342 E22.55415
G1 X69.41 Y75.459 E22.59381
G1 X69.482 Y74.441 E22.63963
G1 X69.637 Y71.703 E22.76277
G1 X69.713 Y69.018 E22.88338
G1 X69.723 Y67.611 E22.94655
G1 X69.723 Y64.064 E23.10582
G1 X69.733 Y63.381 E23.13649
G1 X69.781 Y62.832 E23.16123
G1 X69.908 Y62.295 E23.18601
G1 X70.111 Y61.782 E23.21078
G1 X70.386 Y61.303 E23.23558
G1 X70.75 Y60.846 E23.26182
G0 F7200 X71.146 Y61.213
G1 F1200 X71.367 Y60.978 E23.2763
G1 X72.527 Y59.813 E23.35012
G1 X72.998 Y59.358 E23.37953
G1 X73.392 Y59.033 E23.40246
G1 X73.832 Y58.773 E23.42541
G1 X74.308 Y58.585 E23.44839
G1 X74.806 Y58.473 E23.47131
G1 X75.211 Y58.441 E23.48955
G1 X75.827 Y58.43 E23.51721
G1 X84.075 Y58.43 E23.88756
G1 X84.776 Y58.44 E23.91904
G1 X85.285 Y58.488 E23.94199
G1 X85.78 Y58.613 E23.96492
G1 X86.25 Y58.815 E23.98789
G1 X86.682 Y59.087 E24.01081
G1 X86.945 Y59.305 E24.02615
G1 X87.19 Y59.535 E24.04123
G1 X88.332 Y60.673 E24.11362
G1 X88.803 Y61.158 E24.14398
G1 X89.129 Y61.551 E24.16691
G1 X89.298 Y61.816 E24.18102
G1 X89.687 Y62.5 E24.21635
G1 X91.067 Y64.849 E24.33868
G1 X92.526 Y67.178 E24.46208
G1 X94.03 Y69.437 E24.58394
G1 X96.419 Y72.764 E24.76785
G1 X96.628 Y73.044 E24.78353
G1 X96.902 Y73.476 E24.8065
G1 X97.104 Y73.945 E24.82943
G1 X97.232 Y74.44 E24.85239
G1 X97.28 Y74.946 E24.87521
G1 X97.297 Y75.887 E24.91747
G1 X97.297 Y76.595 E24.94926
G1 X97.266 Y78.618 E25.04011
G1 X97.262 Y81.379 E25.16408
G1 X97.297 Y83.091 E25.24097
G1 X97.297 Y84.33 E25.2966
G1 X97.287 Y85.033 E25.32817
G1 X97.239 Y85.541 E25.35108
G1 X97.114 Y86.037 E25.37405
G1 X96.912 Y86.506 E25.39697
G1 X96.755 Y86.774 E25.41092
G1 X96.324 Y87.432 E25.44624
G1 X95.705 Y88.347 E25.49584
G1 X94.224 Y90.678 E25.61985
G1 X92.818 Y93.032 E25.74296
G1 X91.489 Y95.409 E25.86524
G1 X90.15 Y97.974 E25.99516
G1 X89.711 Y98.845 E26.03896
G1 X89.446 Y99.282 E26.0619
G1 X89.197 Y99.588 E26.07962
G1 X88.973 Y99.828 E26.09436
G1 X88.194 Y100.612 E26.14398
G1 X87.693 Y101.1 E26.17539
G1 X87.3 Y101.427 E26.19834
G1 X86.861 Y101.689 E26.2213
G1 X86.386 Y101.879 E26.24427
G1 X85.888 Y101.993 E26.26721
G1 X85.468 Y102.027 E26.28613
G1 X84.842 Y102.038 E26.31424
G1 X75.882 Y102.037 E26.71656
G1 X75.186 Y102.027 E26.74781
G1 X74.677 Y101.979 E26.77077
G1 X74.182 Y101.853 E26.7937
G1 X73.712 Y101.652 E26.81665
G1 X73.28 Y101.38 E26.83958
G1 X72.895 Y101.043 E26.86255
G1 X72.567 Y100.651 E26.8855
G1 X72.425 Y100.433 E26.89718
G1 X72.022 Y99.757 E26.93252
G1 X70.674 Y97.422 E27.05358
G1 X70.355 Y96.85 E27.08299
G1 X70.142 Y96.385 E27.10595
G1 X70.003 Y95.893 E27.12891
G1 X69.942 Y95.35 E27.15344
G1 X69.932 Y94.997 E27.1693
G1 X69.931 Y88.474 E27.46219
G1 X69.971 Y85.942 E27.5759
G1 X69.931 Y81.772 E27.76314
G1 X69.931 Y76.35 E28.0066
G1 X69.949 Y75.497 E28.04491
G1 X70.021 Y74.479 E28.09073
G1 X70.175 Y71.749 E28.2135
G1 X70.253 Y68.991 E28.33739
G1 X70.263 Y67.615 E28.39918
G1 X70.263 Y64.072 E28.55826
G1 X70.273 Y63.389 E28.58893
G1 X70.321 Y62.88 E28.61189
G1 X70.447 Y62.385 E28.63482
G1 X70.649 Y61.915 E28.65779
G1 X70.921 Y61.483 E28.68072
G1 X71.146 Y61.213 E28.6965
G1 F7200 E28.2965
G1 F600 Z0.6
;MESH:Status_LED_logo_diffuser.stl
EXCLUDE_OBJECT_START NAME=Status_LED_logo_diffuser_stl
G0 F7200 X74.253 Y63.732 Z0.6
;TYPE:WALL-INNER
G1 F600 Z0.2
G1 F7200 E28.6965
G1 F1200 X74.253 Y70.489 E28.96618
G1 X75.743 Y71.98 E29.05031
G1 X84.257 Y71.98 E29.39013
G1 X85.747 Y70.489 E29.47426
G1 X85.747 Y64.658 E29.70698
G1 X85.747 Y63.732 E29.74394
G1 X84.435 Y62.42 E29.818
G1 X75.565 Y62.42 E30.17202
G1 X74.253 Y63.732 E30.24607
G0 F7200 X73.773 Y63.533
;TYPE:WALL-OUTER
G1 F1200 X73.773 Y70.688 E30.53164
G1 X75.544 Y72.46 E30.63164
G1 X84.456 Y72.46 E30.98733
G1 X86.227 Y70.688 E31.08732
G1 X86.227 Y64.658 E31.32799
G1 X86.227 Y63.533 E31.3729
G1 X84.634 Y61.94 E31.46281
G1 X75.366 Y61.94 E31.83272
G1 X73.773 Y63.533 E31.92263
G0 F7200 X73.773 Y63.733
G0 X74.742 Y63.935
;TYPE:SKIN
G1 F1200 X74.742 Y70.286 E32.2078
G1 X75.946 Y71.491 E32.28429
G1 X84.054 Y71.491 E32.64834
G1 X85.258 Y70.286 E32.72483
G1 X85.258 Y64.66 E32.97744
G1 X85.258 Y63.935 E33.01
G1 X84.232 Y62.909 E33.07515
