;FLAVOR:RepRap
;TIME:481
;Filament used: 0.724337m
;Layer height: 0.26
;MINX:46
;MINY:46
;MINZ:0.26
;MAXX:114
;MAXY:114
;MAXZ:5.34
;Generated with Cura_SteamEngine 5.2.1
T0


; Pre-Processed for Cancel-Object support by preprocess_cancellation v0.2.0
; 1 known objects
EXCLUDE_OBJECT_DEFINE NAME=square_1_stl CENTER=80.293,79.160 POLYGON=[[50.201,50.2],[50.201,109.8],[109.8,109.8],[109.8,50.2]]
M82 ;absolute extrusion mode
PRINT_START BED=110 EXTRUDER=245 STANDBY=200 CHAMBER=36
M83 ;relative extrusion mode
G1 F2100 E-0.4
;LAYER_COUNT:19
;LAYER:0
M107
G1 F600 Z0.66
G0 F7200 X47.004 Y47.369 Z0.66
;TYPE:SKIRT
G1 F600 Z0.26
G1 F840 E0.4
G1 F1800 X47.406 Y46.972 E0.02205
G1 X47.86 Y46.635 E0.02206
G1 X48.357 Y46.366 E0.02205
G1 X48.887 Y46.169 E0.02206
G1 X49.44 Y46.05 E0.02207
G1 X49.897 Y46.011 E0.0179
G1 X50.33 Y46 E0.0169
G1 X109.35 Y46 E2.30311
G1 X110.048 Y46.01 E0.02724
G1 X110.612 Y46.058 E0.02209
G1 X111.162 Y46.185 E0.02203
G1 X111.69 Y46.389 E0.02209
G1 X112.184 Y46.664 E0.02206
G1 X112.633 Y47.007 E0.02205
G1 X113.03 Y47.409 E0.02205
G1 X113.367 Y47.864 E0.02209
G1 X113.635 Y48.361 E0.02203
G1 X113.831 Y48.891 E0.02205
G1 X113.951 Y49.444 E0.02208
G1 X113.989 Y49.898 E0.01778
G1 X114 Y50.33 E0.01686
G1 X114 Y109.314 E2.3017
G1 X113.991 Y110.041 E0.02837
G1 X113.944 Y110.604 E0.02205
G1 X113.818 Y111.155 E0.02206
G1 X113.616 Y111.683 E0.02206
G1 X113.341 Y112.177 E0.02206
G1 X112.999 Y112.627 E0.02206
G1 X112.597 Y113.025 E0.02207
G1 X112.144 Y113.362 E0.02203
G1 X111.647 Y113.632 E0.02207
G1 X111.117 Y113.829 E0.02206
G1 X110.565 Y113.95 E0.02205
G1 X110.103 Y113.989 E0.01809
G1 X109.67 Y114 E0.0169
G1 X50.655 Y114 E2.30291
G1 X49.957 Y113.991 E0.02724
G1 X49.394 Y113.943 E0.02205
G1 X48.843 Y113.817 E0.02206
G1 X48.315 Y113.615 E0.02206
G1 X47.821 Y113.34 E0.02206
G1 X47.371 Y112.998 E0.02206
G1 X46.973 Y112.596 E0.02207
G1 X46.637 Y112.142 E0.02204
G1 X46.367 Y111.645 E0.02207
G1 X46.17 Y111.115 E0.02206
G1 X46.05 Y110.563 E0.02204
G1 X46.01 Y110.099 E0.01817
G1 X46.001 Y109.766 E0.013
G1 X46 Y50.62 E2.30802
G1 X46.009 Y49.955 E0.02595
G1 X46.057 Y49.392 E0.02205
G1 X46.183 Y48.841 E0.02206
G1 X46.386 Y48.313 E0.02207
G1 X46.662 Y47.819 E0.02208
G1 X47.004 Y47.369 E0.02206
G0 F7200 X47.397 Y47.531
G1 F1800 X47.794 Y47.171 E0.02091
G1 X48.241 Y46.873 E0.02096
G1 X48.726 Y46.645 E0.02091
G1 X49.24 Y46.492 E0.02093
G1 X49.908 Y46.41 E0.02626
G1 X50.229 Y46.401 E0.01253
G1 X109.345 Y46.4 E2.30685
G1 X110.043 Y46.41 E0.02724
G1 X110.577 Y46.458 E0.02092
G1 X111.098 Y46.584 E0.02092
G1 X111.595 Y46.787 E0.02095
G1 X112.056 Y47.061 E0.02093
G1 X112.471 Y47.4 E0.02091
G1 X112.831 Y47.798 E0.02094
G1 X113.128 Y48.244 E0.02091
G1 X113.356 Y48.73 E0.02095
G1 X113.508 Y49.244 E0.02092
G1 X113.59 Y49.909 E0.02615
G1 X113.599 Y50.229 E0.01249
G1 X113.6 Y109.309 E2.30545
G1 X113.591 Y110.036 E0.02837
G1 X113.544 Y110.57 E0.02092
G1 X113.419 Y111.091 E0.02091
G1 X113.217 Y111.588 E0.02093
G1 X112.944 Y112.05 E0.02094
G1 X112.606 Y112.466 E0.02092
G1 X112.209 Y112.827 E0.02094
G1 X111.763 Y113.125 E0.02093
G1 X111.278 Y113.353 E0.02091
G1 X110.764 Y113.507 E0.02094
G1 X110.092 Y113.59 E0.02642
G1 X109.771 Y113.599 E0.01253
G1 X50.661 Y113.6 E2.30662
G1 X49.963 Y113.591 E0.02724
G1 X49.428 Y113.544 E0.02096
G1 X48.907 Y113.418 E0.02092
G1 X48.41 Y113.216 E0.02093
G1 X47.949 Y112.943 E0.02091
G1 X47.533 Y112.604 E0.02094
G1 X47.172 Y112.208 E0.02091
G1 X46.874 Y111.762 E0.02093
G1 X46.646 Y111.276 E0.02095
G1 X46.493 Y110.762 E0.02093
G1 X46.41 Y110.088 E0.0265
G1 X46.401 Y109.755 E0.013
G1 X46.4 Y50.625 E2.3074
G1 X46.409 Y49.96 E0.02595
G1 X46.457 Y49.426 E0.02092
G1 X46.583 Y48.905 E0.02092
G1 X46.785 Y48.408 E0.02093
G1 X47.058 Y47.947 E0.02091
G1 X47.397 Y47.531 E0.02094
G0 F7200 X47.789 Y47.704
G1 F1800 X48.18 Y47.383 E0.01974
G1 X48.617 Y47.128 E0.01974
G1 X49.088 Y46.944 E0.01973
G1 X49.582 Y46.838 E0.01972
G1 X49.919 Y46.81 E0.0132
G1 X50.24 Y46.801 E0.01253
G1 X109.339 Y46.8 E2.30619
G1 X110.037 Y46.81 E0.02724
G1 X110.54 Y46.857 E0.01971
G1 X111.03 Y46.983 E0.01974
G1 X111.494 Y47.185 E0.01975
G1 X111.92 Y47.457 E0.01972
G1 X112.298 Y47.792 E0.01971
G1 X112.618 Y48.183 E0.01972
G1 X112.873 Y48.62 E0.01974
G1 X113.056 Y49.091 E0.01972
G1 X113.163 Y49.585 E0.01972
G1 X113.19 Y49.92 E0.01311
G1 X113.199 Y50.24 E0.01249
G1 X113.2 Y109.304 E2.30482
G1 X113.191 Y110.031 E0.02837
G1 X113.145 Y110.534 E0.01971
G1 X113.02 Y111.024 E0.01973
G1 X112.819 Y111.488 E0.01973
G1 X112.548 Y111.915 E0.01974
G1 X112.213 Y112.294 E0.01974
G1 X111.823 Y112.615 E0.01971
G1 X111.387 Y112.871 E0.01973
G1 X110.916 Y113.054 E0.01972
G1 X110.422 Y113.162 E0.01973
G1 X110.081 Y113.19 E0.01335
G1 X109.76 Y113.199 E0.01253
G1 X50.666 Y113.2 E2.30599
G1 X49.968 Y113.191 E0.02724
G1 X49.464 Y113.144 E0.01975
G1 X48.974 Y113.019 E0.01973
G1 X48.51 Y112.818 E0.01973
G1 X48.084 Y112.547 E0.0197
G1 X47.705 Y112.212 E0.01974
G1 X47.384 Y111.821 E0.01974
G1 X47.129 Y111.385 E0.01971
G1 X46.945 Y110.914 E0.01973
G1 X46.838 Y110.42 E0.01972
G1 X46.81 Y110.077 E0.01343
G1 X46.801 Y109.744 E0.013
G1 X46.8 Y50.631 E2.30673
G1 X46.809 Y49.966 E0.02595
G1 X46.856 Y49.462 E0.01975
G1 X46.982 Y48.973 E0.01971
G1 X47.183 Y48.509 E0.01973
G1 X47.454 Y48.082 E0.01974
G1 X47.789 Y47.704 E0.01971
G1 F2100 E-0.4
G1 F600 Z0.66
;MESH:square (1).stl
EXCLUDE_OBJECT_START NAME=square_1_stl
G0 F7200 X50.201 Y50.201 Z0.66
;TYPE:WALL-OUTER
G1 F600 Z0.26
G1 F840 E0.4
G1 F1800 X50.201 Y109.799 E2.32566
G1 X109.8 Y109.8 E2.3257
G1 X109.8 Y52.929 E2.21925
G1 X109.8 Y50.2 E0.10649
G1 X50.201 Y50.201 E2.3257
G0 F7200 X50.201 Y50.401
G1 F2100 E-0.4
G1 F600 Z0.66
G0 F7200 X54.858 Y54.858 Z0.66
G1 F600 Z0.26
G1 F840 E0.4
G1 F1800 X54.897 Y54.828 E0.00192
G1 X54.965 Y54.802 E0.00284
G1 X78.8 Y54.8 E0.9301
G1 X78.8 Y54.5 E0.01171
G1 X78.88 Y54.34 E0.00698
G1 X78.965 Y54.302 E0.00363
G1 X81 Y54.3 E0.07941
G1 X81.065 Y54.31 E0.00257
G1 X81.12 Y54.34 E0.00244
G1 X81.2 Y54.5 E0.00698
G1 X81.2 Y54.8 E0.01171
G1 X105 Y54.8 E0.92873
G1 X105.055 Y54.807 E0.00216
G1 X105.103 Y54.828 E0.00204
G1 X105.142 Y54.858 E0.00192
G1 X105.172 Y54.897 E0.00192
G1 X105.193 Y54.945 E0.00204
G1 X105.2 Y55 E0.00216
G1 X105.2 Y78.8 E0.92873
G1 X105.5 Y78.8 E0.01171
G1 X105.66 Y78.88 E0.00698
G1 X105.69 Y78.935 E0.00244
G1 X105.7 Y79 E0.00257
G1 X105.698 Y81.035 E0.07941
G1 X105.66 Y81.12 E0.00363
G1 X105.5 Y81.2 E0.00698
G1 X105.2 Y81.2 E0.01171
G1 X105.198 Y105.035 E0.9301
G1 X105.172 Y105.103 E0.00284
G1 X105.142 Y105.142 E0.00192
G1 X105.103 Y105.172 E0.00192
G1 X105.035 Y105.198 E0.00284
G1 X81.2 Y105.2 E0.9301
G1 X81.2 Y105.5 E0.01171
G1 X81.12 Y105.66 E0.00698
G1 X81.035 Y105.698 E0.00363
G1 X79 Y105.7 E0.07941
G1 X78.935 Y105.69 E0.00257
G1 X78.88 Y105.66 E0.00244
G1 X78.8 Y105.5 E0.00698
G1 X78.8 Y105.2 E0.01171
G1 X55 Y105.2 E0.92873
G1 X54.945 Y105.193 E0.00216
G1 X54.897 Y105.172 E0.00204
G1 X54.858 Y105.142 E0.00192
G1 X54.828 Y105.103 E0.00192
G1 X54.802 Y105.035 E0.00284
G1 X54.8 Y77.2 E1.08619
G1 X54.5 Y77.2 E0.01171
G1 X54.34 Y77.12 E0.00698
G1 X54.302 Y77.035 E0.00363
G1 X54.3 Y75 E0.07941
G1 X54.31 Y74.935 E0.00257
G1 X54.34 Y74.88 E0.00244
G1 X54.5 Y74.8 E0.00698
G1 X54.8 Y74.8 E0.01171
G1 X54.8 Y55 E0.77264
G1 X54.807 Y54.945 E0.00216
G1 X54.828 Y54.897 E0.00204
G1 X54.858 Y54.858 E0.00192
G0 F7200 X54.897 Y54.828
G0 X54.965 Y54.802
G0 X55.044 Y54.802
G1 F2100 E-0.4
G1 F600 Z0.66
G0 F7200 X50.581 Y50.581 Z0.66
;TYPE:SKIN
G1 F600 Z0.26
G1 F840 E0.4
G1 F1800 X50.581 Y109.419 E2.296
G1 X109.42 Y109.42 E2.29604
G1 X109.42 Y52.929 E2.20442
G1 X109.42 Y50.58 E0.09166
G1 X50.581 Y50.581 E2.29604
G1 F2100 E-0.4
G1 F600 Z0.66
G0 F7200 X105.411 Y54.589 Z0.66
G1 F600 Z0.26
G1 F840 E0.4
G1 F1800 X105.486 Y54.681 E0.00463
G1 X105.551 Y54.814 E0.00578
G1 X105.579 Y54.971 E0.00622
G1 X105.58 Y78.439 E0.91578
G1 X105.895 Y78.597 E0.01375
G1 X105.965 Y78.655 E0.00355
G1 X106.036 Y78.776 E0.00547
G1 X106.059 Y78.844 E0.0028
G1 X106.078 Y78.969 E0.00493
G1 X106.073 Y81.105 E0.08335
G1 X106.037 Y81.217 E0.00459
G1 X105.966 Y81.344 E0.00568
G1 X105.897 Y81.402 E0.00352
G1 X105.58 Y81.561 E0.01384
G1 X105.579 Y105.023 E0.91554
G1 X105.566 Y105.137 E0.00448
G1 X105.514 Y105.273 E0.00568
G1 X105.486 Y105.319 E0.0021
G1 X105.411 Y105.411 E0.00463
G1 X105.32 Y105.485 E0.00458
G1 X105.275 Y105.512 E0.00205
G1 X105.138 Y105.566 E0.00575
G1 X104.997 Y105.58 E0.00553
G1 X81.561 Y105.58 E0.91453
G1 X81.402 Y105.897 E0.01384
G1 X81.344 Y105.966 E0.00352
G1 X81.218 Y106.036 E0.00562
G1 X81.103 Y106.073 E0.00471
G1 X78.974 Y106.078 E0.08308
G1 X78.845 Y106.059 E0.00509
G1 X78.776 Y106.036 E0.00284
G1 X78.655 Y105.965 E0.00547
G1 X78.597 Y105.895 E0.00355
G1 X78.439 Y105.58 E0.01375
G1 X54.978 Y105.579 E0.91551
G1 X54.867 Y105.565 E0.00437
G1 X54.813 Y105.55 E0.00219
G1 X54.68 Y105.485 E0.00578
G1 X54.589 Y105.411 E0.00458
G1 X54.514 Y105.319 E0.00463
G1 X54.486 Y105.273 E0.0021
G1 X54.434 Y105.137 E0.00568
G1 X54.421 Y105.024 E0.00444
G1 X54.42 Y77.561 E1.07167
G1 X54.103 Y77.402 E0.01384
G1 X54.034 Y77.344 E0.00352
G1 X53.963 Y77.217 E0.00568
G1 X53.927 Y77.103 E0.00467
G1 X53.922 Y74.974 E0.08308
G1 X53.941 Y74.845 E0.00509
G1 X53.964 Y74.776 E0.00284
G1 X54.035 Y74.655 E0.00547
G1 X54.105 Y74.597 E0.00355
G1 X54.42 Y74.439 E0.01375
G1 X54.421 Y54.978 E0.75942
G1 X54.449 Y54.814 E0.00649
G1 X54.514 Y54.681 E0.00578
G1 X54.589 Y54.589 E0.00463
G1 X54.68 Y54.515 E0.00458
G1 X54.725 Y54.488 E0.00205
G1 X54.862 Y54.434 E0.00575
G1 X54.98 Y54.421 E0.00463
G1 X78.439 Y54.42 E0.91543
G1 X78.598 Y54.103 E0.01384
G1 X78.656 Y54.034 E0.00352
G1 X78.782 Y53.964 E0.00562
G1 X78.897 Y53.927 E0.00471
G1 X81.026 Y53.922 E0.08308
G1 X81.155 Y53.941 E0.00509
G1 X81.224 Y53.964 E0.00284
G1 X81.345 Y54.035 E0.00547
G1 X81.403 Y54.105 E0.00355
G1 X81.561 Y54.42 E0.01375
G1 X105.021 Y54.421 E0.91547
G1 X105.133 Y54.435 E0.0044
G1 X105.187 Y54.45 E0.00219
G1 X105.32 Y54.515 E0.00578
G1 X105.411 Y54.589 E0.00458
G1 F2100 E-0.4
G1 F600 Z0.66
G0 F7200 X109.046 Y50.78 Z0.66
G1 F600 Z0.26
G1 F840 E0.4
G1 F1800 X109.219 Y50.954 E0.00957
G0 F7200 X109.219 Y51.519
G1 F1800 X108.48 Y50.78 E0.04078
G0 F7200 X107.915 Y50.78
G1 F1800 X109.219 Y52.085 E0.07199
G0 F7200 X109.219 Y52.651
G1 F1800 X107.349 Y50.78 E0.10323
G0 F7200 X106.783 Y50.78
G1 F1800 X109.219 Y53.216 E0.13443
G0 F7200 X109.219 Y53.782
G1 F1800 X106.218 Y50.78 E0.16564
G0 F7200 X105.652 Y50.78
G1 F1800 X109.219 Y54.348 E0.19688
G0 F7200 X109.219 Y54.913
G1 F1800 X105.086 Y50.78 E0.22808
G0 F7200 X104.52 Y50.78
G1 F1800 X109.219 Y55.479 E0.25932
G0 F7200 X109.219 Y56.045
G1 F1800 X103.955 Y50.78 E0.29053
G0 F7200 X103.389 Y50.78
G1 F1800 X109.219 Y56.61 E0.32173
G0 F7200 X109.219 Y57.176
G1 F1800 X102.823 Y50.78 E0.35297
G0 F7200 X102.258 Y50.78
G1 F1800 X109.219 Y57.742 E0.38418
G0 F7200 X109.219 Y58.308
G1 F1800 X105.762 Y54.85 E0.19081
G0 F7200 X105.778 Y55.432
G1 F1800 X109.219 Y58.873 E0.1899
G0 F7200 X109.219 Y59.439
G1 F1800 X105.778 Y55.998 E0.1899
G0 F7200 X105.778 Y56.564
G1 F1800 X109.219 Y60.005 E0.1899
G0 F7200 X109.219 Y60.57
G1 F1800 X105.778 Y57.129 E0.1899
G0 F7200 X105.778 Y57.695
G1 F1800 X109.219 Y61.136 E0.1899
G0 F7200 X109.219 Y61.702
G1 F1800 X105.778 Y58.261 E0.1899
G0 F7200 X105.778 Y58.827
G1 F1800 X109.219 Y62.267 E0.18987
G0 F7200 X109.219 Y62.833
G1 F1800 X105.778 Y59.392 E0.1899
G0 F7200 X105.778 Y59.958
G1 F1800 X109.219 Y63.399 E0.1899
G0 F7200 X109.219 Y63.964
G1 F1800 X105.778 Y60.524 E0.18987
G0 F7200 X105.778 Y61.089
G1 F1800 X109.219 Y64.53 E0.1899
G0 F7200 X109.219 Y65.096
G1 F1800 X105.778 Y61.655 E0.1899
G0 F7200 X105.778 Y62.221
G1 F1800 X109.219 Y65.661 E0.18987
G0 F7200 X109.219 Y66.227
G1 F1800 X105.778 Y62.786 E0.1899
G0 F7200 X105.778 Y63.352
G1 F1800 X109.219 Y66.793 E0.1899
G0 F7200 X109.219 Y67.358
G1 F1800 X105.778 Y63.918 E0.18987
G0 F7200 X105.778 Y64.483
G1 F1800 X109.219 Y67.924 E0.1899
G0 F7200 X109.219 Y68.49
G1 F1800 X105.778 Y65.049 E0.1899
G0 F7200 X105.778 Y65.615
G1 F1800 X109.219 Y69.056 E0.1899
G0 F7200 X109.219 Y69.621
G1 F1800 X105.778 Y66.18 E0.1899
G0 F7200 X105.778 Y66.746
G1 F1800 X109.219 Y70.187 E0.1899
G0 F7200 X109.219 Y70.753
G1 F1800 X105.778 Y67.312 E0.1899
G0 F7200 X105.778 Y67.878
G1 F1800 X109.219 Y71.318 E0.18987
G0 F7200 X109.219 Y71.884
G1 F1800 X105.778 Y68.443 E0.1899
G0 F7200 X105.778 Y69.009
G1 F1800 X109.219 Y72.45 E0.1899
G0 F7200 X109.219 Y73.015
G1 F1800 X105.778 Y69.575 E0.18987
G0 F7200 X105.778 Y70.14
G1 F1800 X109.219 Y73.581 E0.1899
G0 F7200 X109.219 Y74.147
G1 F1800 X105.778 Y70.706 E0.1899
G0 F7200 X105.778 Y71.272
G1 F1800 X109.219 Y74.712 E0.18987
G0 F7200 X109.219 Y75.278
G1 F1800 X105.778 Y71.837 E0.1899
G0 F7200 X105.778 Y72.403
G1 F1800 X109.219 Y75.844 E0.1899
G0 F7200 X109.219 Y76.409
G1 F1800 X105.778 Y72.969 E0.18987
G0 F7200 X105.778 Y73.534
G1 F1800 X109.219 Y76.975 E0.1899
G0 F7200 X109.219 Y77.541
G1 F1800 X105.778 Y74.1 E0.1899
G0 F7200 X105.778 Y74.666
G1 F1800 X109.219 Y78.107 E0.1899
G0 F7200 X109.219 Y78.672
G1 F1800 X105.778 Y75.231 E0.1899
G0 F7200 X105.778 Y75.797
G1 F1800 X109.219 Y79.238 E0.1899
G0 F7200 X109.219 Y79.804
G1 F1800 X105.778 Y76.363 E0.1899
G0 F7200 X105.778 Y76.928
G1 F1800 X109.219 Y80.369 E0.1899
G0 F7200 X109.219 Y80.935
G1 F1800 X105.778 Y77.494 E0.1899
G0 F7200 X105.778 Y78.06
G1 F1800 X109.219 Y81.501 E0.1899
G0 F7200 X109.219 Y82.066
G1 F1800 X106.278 Y79.125 E0.1623
G0 F7200 X106.276 Y79.688
G1 F1800 X109.219 Y82.632 E0.16244
G0 F7200 X109.219 Y83.198
G1 F1800 X106.273 Y80.251 E0.16261
G0 F7200 X106.271 Y80.815
G1 F1800 X109.219 Y83.763 E0.16269
G0 F7200 X109.219 Y84.329
G1 F1800 X106.208 Y81.317 E0.16619
G0 F7200 X105.933 Y81.608
G1 F1800 X109.219 Y84.895 E0.18137
G0 F7200 X109.219 Y85.46
G1 F1800 X105.778 Y82.019 E0.1899
G0 F7200 X105.778 Y82.585
G1 F1800 X109.219 Y86.026 E0.1899
G0 F7200 X109.219 Y86.592
G1 F1800 X105.778 Y83.15 E0.18992
G0 F7200 X105.778 Y83.716
G1 F1800 X109.219 Y87.157 E0.1899
G0 F7200 X109.219 Y87.723
G1 F1800 X105.778 Y84.282 E0.1899
G0 F7200 X105.778 Y84.847
G1 F1800 X109.219 Y88.289 E0.18992
G0 F7200 X109.219 Y88.855
G1 F1800 X105.778 Y85.413 E0.18992
G0 F7200 X105.778 Y85.979
G1 F1800 X109.219 Y89.42 E0.1899
G0 F7200 X109.219 Y89.986
G1 F1800 X105.778 Y86.544 E0.18992
G0 F7200 X105.778 Y87.11
G1 F1800 X109.219 Y90.552 E0.18992
G0 F7200 X109.219 Y91.117
G1 F1800 X105.778 Y87.676 E0.1899
G0 F7200 X105.778 Y88.241
G1 F1800 X109.219 Y91.683 E0.18992
G0 F7200 X109.219 Y92.249
G1 F1800 X105.778 Y88.807 E0.18992
G0 F7200 X105.778 Y89.373
G1 F1800 X109.219 Y92.814 E0.1899
G0 F7200 X109.219 Y93.38
G1 F1800 X105.778 Y89.939 E0.1899
G0 F7200 X105.778 Y90.504
G1 F1800 X109.219 Y93.946 E0.18992
G0 F7200 X109.219 Y94.511
G1 F1800 X105.778 Y91.07 E0.1899
G0 F7200 X105.778 Y91.636
G1 F1800 X109.219 Y95.077 E0.1899
G0 F7200 X109.219 Y95.643
G1 F1800 X105.778 Y92.201 E0.18992
G0 F7200 X105.778 Y92.767
G1 F1800 X109.219 Y96.208 E0.1899
G0 F7200 X109.219 Y96.774
G1 F1800 X105.778 Y93.333 E0.1899
G0 F7200 X105.777 Y93.898
G1 F1800 X109.219 Y97.34 E0.18995
G0 F7200 X109.219 Y97.906
G1 F1800 X105.777 Y94.463 E0.18998
G0 F7200 X105.777 Y95.029
G1 F1800 X109.219 Y98.471 E0.18995
G0 F7200 X109.219 Y99.037
G1 F1800 X105.777 Y95.595 E0.18995
G0 F7200 X105.777 Y96.16
G1 F1800 X109.219 Y99.603 E0.18998
G0 F7200 X109.219 Y100.168
G1 F1800 X105.777 Y96.726 E0.18995
G0 F7200 X105.777 Y97.292
G1 F1800 X109.219 Y100.734 E0.18995
G0 F7200 X109.219 Y101.3
G1 F1800 X105.777 Y97.857 E0.18998
G0 F7200 X105.777 Y98.423
G1 F1800 X109.219 Y101.865 E0.18995
G0 F7200 X109.219 Y102.431
G1 F1800 X105.777 Y98.989 E0.18995
G0 F7200 X105.777 Y99.554
G1 F1800 X109.219 Y102.997 E0.18998
G0 F7200 X109.219 Y103.562
G1 F1800 X105.777 Y100.12 E0.18995
G0 F7200 X105.777 Y100.686
G1 F1800 X109.219 Y104.128 E0.18995
G0 F7200 X109.219 Y104.694
G1 F1800 X105.777 Y101.252 E0.18995
G0 F7200 X105.777 Y101.817
G1 F1800 X109.219 Y105.259 E0.18995
G0 F7200 X109.219 Y105.825
G1 F1800 X105.777 Y102.383 E0.18995
G0 F7200 X105.777 Y102.949
G1 F1800 X109.219 Y106.391 E0.18995
G0 F7200 X109.219 Y106.956
G1 F1800 X105.777 Y103.514 E0.18995
G0 F7200 X105.777 Y104.08
