;FLAVOR:RepRap
;TIME:2131
;Filament used: 2.11627m
;Layer height: 0.2
;MINX:49.534
;MINY:61.437
;MINZ:0.2
;MAXX:98.575
;MAXY:98.566
;MAXZ:14
;Generated with Cura_SteamEngine 5.2.1
T0


; Pre-Processed for Cancel-Object support by preprocess_cancellation v0.2.0
; 2 known objects
EXCLUDE_OBJECT_DEFINE NAME=SMALL_TOP_SIGHT_GLASS_STL CENTER=59.905,80.002 POLYGON=[[54.883,74.995],[54.883,85.026],[64.914,85.026],[64.914,74.995]]
EXCLUDE_OBJECT_DEFINE NAME=SIGHT_GLASS_STL CENTER=80.059,79.983 POLYGON=[[66.8,66.792],[66.8,93.211],[93.22,93.211],[93.22,66.792]]
M82 ;absolute extrusion mode
PRINT_START BED=90 EXTRUDER=245 STANDBY=120 CHAMBER=0
M83 ;relative extrusion mode
G1 F2100 E-0.4
;LAYER_COUNT:70
;LAYER:0
M107
G1 F600 Z0.4
G0 F7200 X53.783 Y71.642 Z0.4
;TYPE:SKIRT
G1 F600 Z0.2
G1 F840 E0.4
G1 F1500 X54.037 Y71.462 E0.01243
G1 X54.324 Y71.272 E0.01374
G1 X54.791 Y70.991 E0.02175
G1 X55.067 Y70.842 E0.01252
G1 X55.534 Y70.608 E0.02085
G1 X56.104 Y70.364 E0.02475
G1 X57.358 Y69.914 E0.05317
G1 X59.871 Y68.972 E0.10711
G1 X62.379 Y67.951 E0.10808
G1 X64.825 Y66.872 E0.1067
G1 X67.23 Y65.729 E0.10628
G1 X69.639 Y64.501 E0.10792
G1 X70.927 Y63.802 E0.05849
G1 X71.645 Y63.427 E0.03233
G1 X72.559 Y62.999 E0.04028
G1 X72.823 Y62.886 E0.01146
G1 X73.767 Y62.517 E0.04045
G1 X74.194 Y62.371 E0.01801
G1 X74.855 Y62.168 E0.0276
G1 X75.638 Y61.96 E0.03234
G1 X75.93 Y61.891 E0.01198
G1 X76.684 Y61.737 E0.03072
G1 X77.148 Y61.658 E0.01879
G1 X77.838 Y61.566 E0.02778
G1 X78.475 Y61.501 E0.02556
G1 X79.035 Y61.462 E0.0224
G1 X79.51 Y61.443 E0.01897
G1 X79.946 Y61.437 E0.0174
G1 X80.483 Y61.442 E0.02143
G1 X81.409 Y61.491 E0.03701
G1 X81.669 Y61.512 E0.01041
G1 X82.388 Y61.59 E0.02887
G1 X82.697 Y61.633 E0.01245
G1 X83.549 Y61.778 E0.03449
G1 X84.246 Y61.925 E0.02843
G1 X84.495 Y61.987 E0.01024
G1 X85.403 Y62.238 E0.0376
G1 X85.878 Y62.39 E0.01991
G1 X86.456 Y62.592 E0.02444
G1 X86.981 Y62.796 E0.02248
G1 X87.893 Y63.193 E0.0397
G1 X88.274 Y63.377 E0.01689
G1 X88.731 Y63.612 E0.02051
G1 X89.558 Y64.081 E0.03795
G1 X89.81 Y64.235 E0.01179
G1 X90.473 Y64.667 E0.03158
G1 X90.722 Y64.839 E0.01208
G1 X91.334 Y65.291 E0.03037
G1 X91.909 Y65.751 E0.02939
G1 X92.099 Y65.913 E0.00997
G1 X92.837 Y66.579 E0.03968
G1 X93.212 Y66.95 E0.02105
G1 X93.718 Y67.483 E0.02933
G1 X93.917 Y67.705 E0.0119
G1 X94.457 Y68.344 E0.03339
G1 X94.653 Y68.591 E0.01258
G1 X95.113 Y69.208 E0.03072
G1 X95.28 Y69.445 E0.01157
G1 X95.706 Y70.089 E0.03082
G1 X96.064 Y70.677 E0.02748
G1 X96.186 Y70.893 E0.0099
G1 X96.638 Y71.746 E0.03853
G1 X96.851 Y72.189 E0.01962
G1 X97.031 Y72.588 E0.01747
G1 X97.271 Y73.165 E0.02494
G1 X97.436 Y73.598 E0.01849
G1 X97.635 Y74.167 E0.02406
G1 X97.778 Y74.618 E0.01888
G1 X97.905 Y75.058 E0.01828
G1 X98.071 Y75.711 E0.02689
G1 X98.169 Y76.14 E0.01756
G1 X98.278 Y76.696 E0.02261
G1 X98.434 Y77.726 E0.04158
G1 X98.471 Y78.042 E0.0127
G1 X98.539 Y78.852 E0.03244
G1 X98.555 Y79.156 E0.01215
G1 X98.575 Y80.074 E0.03665
G1 X98.57 Y80.464 E0.01557
G1 X98.525 Y81.351 E0.03545
G1 X98.435 Y82.274 E0.03701
G1 X98.374 Y82.723 E0.01809
G1 X98.265 Y83.372 E0.02627
G1 X98.116 Y84.105 E0.02985
G1 X97.947 Y84.785 E0.02797
G1 X97.721 Y85.563 E0.03234
G1 X97.506 Y86.209 E0.02717
G1 X97.26 Y86.864 E0.02793
G1 X97.017 Y87.447 E0.02521
G1 X96.832 Y87.854 E0.01784
G1 X96.622 Y88.288 E0.01924
G1 X96.317 Y88.876 E0.02644
G1 X96.122 Y89.225 E0.01596
G1 X95.794 Y89.774 E0.02552
G1 X95.453 Y90.306 E0.02522
G1 X95.202 Y90.671 E0.01768
G1 X94.845 Y91.162 E0.02423
G1 X94.542 Y91.555 E0.01981
G1 X94.285 Y91.872 E0.01629
G1 X93.973 Y92.237 E0.01916
G1 X93.295 Y92.968 E0.03979
G1 X93.074 Y93.19 E0.0125
G1 X92.5 Y93.734 E0.03156
G1 X92.285 Y93.927 E0.01153
G1 X91.711 Y94.413 E0.03002
G1 X91.009 Y94.958 E0.03547
G1 X90.568 Y95.271 E0.02158
G1 X89.953 Y95.678 E0.02943
G1 X89.71 Y95.829 E0.01142
G1 X88.808 Y96.35 E0.04157
G1 X88.373 Y96.577 E0.01958
G1 X87.838 Y96.835 E0.02371
G1 X87.283 Y97.082 E0.02425
G1 X86.824 Y97.271 E0.01981
G1 X86.176 Y97.512 E0.02759
G1 X85.454 Y97.75 E0.03034
G1 X84.917 Y97.906 E0.02232
G1 X84.01 Y98.129 E0.03728
G1 X83.25 Y98.281 E0.03093
G1 X82.792 Y98.357 E0.01853
G1 X81.979 Y98.461 E0.03271
G1 X81.158 Y98.53 E0.03288
G1 X80.854 Y98.546 E0.01215
G1 X79.938 Y98.566 E0.03657
G1 X79.31 Y98.553 E0.02507
G1 X78.656 Y98.516 E0.02614
G1 X77.894 Y98.444 E0.03055
G1 X76.938 Y98.309 E0.03853
G1 X76.259 Y98.182 E0.02757
G1 X75.495 Y98.009 E0.03126
G1 X74.803 Y97.82 E0.02863
G1 X74.142 Y97.613 E0.02765
G1 X73.564 Y97.411 E0.02444
G1 X73.039 Y97.207 E0.02248
G1 X72.127 Y96.81 E0.0397
G1 X71.746 Y96.626 E0.01689
G1 X70.735 Y96.101 E0.04547
G1 X69.259 Y95.307 E0.06689
G1 X66.822 Y94.081 E0.10888
G1 X64.406 Y92.951 E0.10645
G1 X61.95 Y91.885 E0.10686
G1 X59.438 Y90.88 E0.10799
G1 X57.364 Y90.11 E0.0883
G1 X56.241 Y89.709 E0.04759
G1 X55.908 Y89.577 E0.0143
G1 X55.303 Y89.303 E0.02651
G1 X54.876 Y89.078 E0.01926
G1 X54.319 Y88.747 E0.02586
G1 X53.856 Y88.432 E0.02235
G1 X53.578 Y88.225 E0.01383
G1 X53.317 Y88.017 E0.01332
G1 X52.822 Y87.585 E0.02622
G1 X52.438 Y87.207 E0.02151
G1 X52.209 Y86.962 E0.01338
G1 X51.831 Y86.519 E0.02324
G1 X51.632 Y86.262 E0.01297
G1 X51.398 Y85.94 E0.01589
G1 X51.211 Y85.665 E0.01327
G1 X50.939 Y85.221 E0.02078
G1 X50.759 Y84.899 E0.01472
G1 X50.61 Y84.612 E0.01291
G1 X50.388 Y84.13 E0.02118
G1 X50.258 Y83.815 E0.0136
G1 X50.138 Y83.495 E0.01364
G1 X49.985 Y83.041 E0.01912
G1 X49.831 Y82.479 E0.02326
G1 X49.724 Y81.982 E0.02029
G1 X49.665 Y81.66 E0.01307
G1 X49.592 Y81.109 E0.02218
G1 X49.562 Y80.774 E0.01342
G1 X49.536 Y80.265 E0.02034
G1 X49.534 Y79.961 E0.01213
G1 X49.543 Y79.586 E0.01497
G1 X49.562 Y79.257 E0.01315
G1 X49.593 Y78.905 E0.0141
G1 X49.636 Y78.553 E0.01415
G1 X49.684 Y78.249 E0.01228
G1 X49.78 Y77.757 E0.02001
G1 X49.86 Y77.429 E0.01347
G1 X50.045 Y76.796 E0.02632
G1 X50.231 Y76.275 E0.02208
G1 X50.417 Y75.817 E0.01973
G1 X50.694 Y75.241 E0.02551
G1 X50.95 Y74.783 E0.02094
G1 X51.105 Y74.524 E0.01205
G1 X51.397 Y74.08 E0.02121
G1 X51.557 Y73.857 E0.01095
G1 X51.765 Y73.587 E0.0136
G1 X52.09 Y73.192 E0.02042
G1 X52.507 Y72.742 E0.02449
G1 X52.881 Y72.384 E0.02066
G1 X53.139 Y72.154 E0.0138
G1 X53.365 Y71.965 E0.01176
G1 X53.783 Y71.642 E0.02108
G0 F7200 X54.071 Y72.025
G1 F1500 X54.589 Y71.673 E0.025
G1 X54.825 Y71.526 E0.0111
G1 X55.282 Y71.271 E0.02089
G1 X55.749 Y71.037 E0.02085
G1 X56.266 Y70.816 E0.02244
G1 X57.497 Y70.375 E0.05219
G1 X60.068 Y69.411 E0.10959
G1 X62.552 Y68.399 E0.10705
G1 X65.01 Y67.315 E0.10722
G1 X67.468 Y66.147 E0.10862
G1 X69.856 Y64.929 E0.10699
G1 X71.149 Y64.228 E0.0587
G1 X71.867 Y63.853 E0.03233
G1 X72.76 Y63.435 E0.03935
G1 X72.999 Y63.332 E0.01039
G1 X73.737 Y63.04 E0.03168
G1 X74.339 Y62.829 E0.02546
G1 X74.978 Y62.632 E0.02669
G1 X75.761 Y62.424 E0.03234
G1 X76.026 Y62.362 E0.01086
G1 X76.78 Y62.208 E0.03072
G1 X77.224 Y62.132 E0.01798
G1 X78.034 Y62.026 E0.0326
G1 X78.378 Y61.991 E0.0138
G1 X79.056 Y61.941 E0.02713
G1 X79.517 Y61.923 E0.01841
G1 X80.075 Y61.917 E0.02227
G1 X80.477 Y61.922 E0.01605
G1 X81.382 Y61.97 E0.03617
G1 X82.336 Y62.067 E0.03827
G1 X82.616 Y62.106 E0.01128
G1 X83.468 Y62.251 E0.03449
G1 X84.143 Y62.394 E0.02754
G1 X85.259 Y62.696 E0.04614
G1 X85.721 Y62.843 E0.01935
G1 X86.287 Y63.041 E0.02393
G1 X86.792 Y63.237 E0.02162
G1 X87.497 Y63.54 E0.03063
G1 X88.184 Y63.869 E0.0304
G1 X88.683 Y64.132 E0.02251
G1 X89.32 Y64.497 E0.0293
G1 X89.548 Y64.637 E0.01068
G1 X90.211 Y65.069 E0.03158
G1 X90.436 Y65.225 E0.01093
G1 X91.048 Y65.677 E0.03037
G1 X91.779 Y66.27 E0.03757
G1 X92.356 Y66.786 E0.03089
G1 X92.736 Y67.151 E0.02103
G1 X93.37 Y67.814 E0.03661
G1 X93.551 Y68.015 E0.0108
G1 X94.091 Y68.654 E0.03339
G1 X94.268 Y68.878 E0.01139
G1 X94.728 Y69.495 E0.03072
G1 X94.879 Y69.71 E0.01049
G1 X95.305 Y70.354 E0.03082
G1 X95.652 Y70.924 E0.02663
G1 X95.763 Y71.12 E0.00899
G1 X96.206 Y71.956 E0.03776
G1 X96.413 Y72.386 E0.01905
G1 X96.593 Y72.785 E0.01747
G1 X96.822 Y73.336 E0.02382
G1 X97.032 Y73.892 E0.02372
G1 X97.177 Y74.312 E0.01773
G1 X97.362 Y74.903 E0.02472
G1 X97.479 Y75.323 E0.0174
G1 X97.634 Y75.946 E0.02562
G1 X97.73 Y76.385 E0.01794
G1 X97.842 Y76.99 E0.02456
G1 X97.96 Y77.795 E0.03247
G1 X97.993 Y78.082 E0.01153
G1 X98.061 Y78.892 E0.03244
G1 X98.076 Y79.168 E0.01103
G1 X98.094 Y79.892 E0.02891
G1 X98.09 Y80.458 E0.02259
G1 X98.046 Y81.324 E0.03461
G1 X97.976 Y82.07 E0.02991
G1 X97.9 Y82.646 E0.02319
G1 X97.828 Y83.091 E0.01799
G1 X97.645 Y84.009 E0.03736
G1 X97.52 Y84.526 E0.02123
G1 X97.266 Y85.412 E0.03679
G1 X97.051 Y86.058 E0.02717
G1 X96.817 Y86.68 E0.02652
G1 X96.579 Y87.251 E0.02469
G1 X96.458 Y87.521 E0.01181
G1 X96.19 Y88.079 E0.02471
G1 X95.898 Y88.642 E0.02531
G1 X95.703 Y88.991 E0.01596
G1 X95.389 Y89.516 E0.02442
G1 X95.056 Y90.036 E0.02465
G1 X94.813 Y90.39 E0.01714
G1 X94.464 Y90.87 E0.02369
G1 X94.254 Y91.145 E0.01381
G1 X93.819 Y91.681 E0.02755
G1 X93.487 Y92.06 E0.02011
G1 X92.944 Y92.641 E0.03174
G1 X92.744 Y92.842 E0.01132
G1 X92.17 Y93.386 E0.03156
G1 X91.975 Y93.561 E0.01046
G1 X91.401 Y94.047 E0.03002
G1 X90.836 Y94.488 E0.02861
G1 X90.303 Y94.871 E0.0262
G1 X89.688 Y95.278 E0.02943
G1 X89.468 Y95.415 E0.01034
G1 X88.784 Y95.815 E0.03163
G1 X88.02 Y96.217 E0.03446
G1 X87.763 Y96.341 E0.01139
G1 X87.211 Y96.59 E0.02417
G1 X86.786 Y96.769 E0.01841
G1 X86.026 Y97.056 E0.03242
G1 X85.304 Y97.294 E0.03034
G1 X84.629 Y97.485 E0.028
G1 X83.672 Y97.712 E0.03926
G1 X83.16 Y97.81 E0.02081
G1 X82.584 Y97.903 E0.02329
G1 X81.939 Y97.983 E0.02594
G1 X81.118 Y98.052 E0.03288
G1 X80.842 Y98.067 E0.01103
G1 X80.118 Y98.085 E0.02891
G1 X79.543 Y98.081 E0.02295
G1 X78.683 Y98.037 E0.03437
G1 X77.942 Y97.967 E0.02971
G1 X77.008 Y97.834 E0.03765
G1 X76.481 Y97.738 E0.02138
G1 X75.622 Y97.546 E0.03513
G1 X74.93 Y97.357 E0.02863
G1 X74.299 Y97.16 E0.02638
G1 X73.733 Y96.962 E0.02393
G1 X73.228 Y96.766 E0.02162
G1 X72.523 Y96.463 E0.03063
G1 X71.83 Y96.131 E0.03067
G1 X70.963 Y95.679 E0.03902
G1 X69.46 Y94.87 E0.06813
G1 X67.027 Y93.646 E0.1087
G1 X64.616 Y92.519 E0.10622
G1 X62.13 Y91.44 E0.10816
G1 X59.619 Y90.435 E0.10795
G1 X57.511 Y89.653 E0.08974
G1 X56.403 Y89.257 E0.04696
G1 X56.101 Y89.137 E0.01297
G1 X55.521 Y88.875 E0.0254
G1 X55.116 Y88.662 E0.01826
G1 X54.583 Y88.346 E0.02473
G1 X54.143 Y88.047 E0.02123
G1 X53.865 Y87.84 E0.01383
G1 X53.628 Y87.651 E0.0121
G1 X53.154 Y87.237 E0.02512
G1 X52.789 Y86.879 E0.02041
G1 X52.56 Y86.634 E0.01338
G1 X52.201 Y86.213 E0.02208
G1 X52.02 Y85.98 E0.01178
G1 X51.786 Y85.658 E0.01589
G1 X51.616 Y85.408 E0.01207
G1 X51.358 Y84.987 E0.01971
G1 X51.178 Y84.665 E0.01472
G1 X51.043 Y84.404 E0.01173
G1 X50.832 Y83.947 E0.02009
G1 X50.702 Y83.632 E0.0136
G1 X50.593 Y83.342 E0.01237
G1 X50.44 Y82.888 E0.01912
G1 X50.3 Y82.378 E0.02111
G1 X50.193 Y81.881 E0.02029
G1 X50.14 Y81.589 E0.01184
G1 X50.07 Y81.066 E0.02106
G1 X50.04 Y80.731 E0.01342
G1 X50.016 Y80.248 E0.0193
G1 X50.023 Y79.598 E0.02594
G1 X50.04 Y79.299 E0.01195
G1 X50.071 Y78.947 E0.0141
G1 X50.11 Y78.628 E0.01283
G1 X50.158 Y78.324 E0.01228
G1 X50.25 Y77.855 E0.01908
G1 X50.322 Y77.558 E0.0122
G1 X50.499 Y76.951 E0.02524
G1 X50.676 Y76.456 E0.02098
G1 X50.862 Y75.998 E0.01973
G1 X51.113 Y75.476 E0.02312
G1 X51.369 Y75.018 E0.02094
G1 X51.645 Y74.569 E0.02104
G1 X51.947 Y74.137 E0.02104
G1 X52.136 Y73.891 E0.01238
G1 X52.461 Y73.496 E0.02042
G1 X52.839 Y73.089 E0.02217
G1 X53.213 Y72.731 E0.02066
G1 X53.447 Y72.522 E0.01252
G1 X53.861 Y72.183 E0.02136
G1 X54.071 Y72.025 E0.01049
G0 F7200 X54.36 Y72.409
G1 F1500 X54.567 Y72.263 E0.01011
G1 X55.066 Y71.941 E0.0237
G1 X55.497 Y71.7 E0.01971
G1 X55.964 Y71.466 E0.02085
G1 X56.428 Y71.267 E0.02015
G1 X57.674 Y70.82 E0.05283
G1 X60.245 Y69.856 E0.10959
G1 X62.754 Y68.834 E0.10813
G1 X65.224 Y67.745 E0.10774
G1 X67.649 Y66.593 E0.10715
G1 X70.103 Y65.341 E0.10996
G1 X71.372 Y64.653 E0.05761
G1 X72.274 Y64.187 E0.04052
G1 X72.961 Y63.87 E0.0302
G1 X73.176 Y63.779 E0.00932
G1 X74.082 Y63.424 E0.03884
G1 X74.373 Y63.323 E0.01229
G1 X75.102 Y63.096 E0.03047
G1 X75.885 Y62.888 E0.03234
G1 X76.123 Y62.832 E0.00976
G1 X76.877 Y62.678 E0.03072
G1 X77.3 Y62.606 E0.01713
G1 X77.962 Y62.518 E0.02665
G1 X78.545 Y62.458 E0.02339
G1 X78.954 Y62.428 E0.01637
G1 X79.523 Y62.403 E0.02273
G1 X80.069 Y62.397 E0.02179
G1 X80.661 Y62.409 E0.02363
G1 X81.565 Y62.466 E0.03615
G1 X82.284 Y62.544 E0.02887
G1 X82.536 Y62.58 E0.01016
G1 X83.585 Y62.763 E0.0425
G1 X84.243 Y62.913 E0.02694
G1 X84.962 Y63.109 E0.02974
G1 X85.443 Y63.257 E0.02009
G1 X86.012 Y63.453 E0.02402
G1 X86.602 Y63.678 E0.0252
G1 X87.476 Y64.058 E0.03804
G1 X87.963 Y64.295 E0.02162
G1 X88.444 Y64.549 E0.02171
G1 X89.286 Y65.039 E0.03888
G1 X89.949 Y65.471 E0.03158
G1 X90.151 Y65.612 E0.00983
G1 X90.913 Y66.18 E0.03793
G1 X91.459 Y66.628 E0.02819
G1 X92.036 Y67.144 E0.03089
G1 X92.516 Y67.611 E0.02673
G1 X93.022 Y68.144 E0.02933
G1 X93.184 Y68.325 E0.0097
G1 X93.724 Y68.964 E0.03339
G1 X93.883 Y69.165 E0.01023
G1 X94.479 Y69.975 E0.04014
G1 X95.006 Y70.779 E0.03837
G1 X95.339 Y71.346 E0.02624
G1 X95.774 Y72.166 E0.03705
G1 X95.975 Y72.584 E0.01851
G1 X96.202 Y73.091 E0.02217
G1 X96.374 Y73.506 E0.01793
G1 X96.539 Y73.939 E0.01849
G1 X96.72 Y74.458 E0.02194
G1 X96.863 Y74.909 E0.01888
G1 X96.981 Y75.32 E0.01707
G1 X97.14 Y75.945 E0.02574
G1 X97.259 Y76.476 E0.02172
G1 X97.367 Y77.06 E0.0237
G1 X97.485 Y77.865 E0.03247
G1 X97.514 Y78.123 E0.01036
G1 X97.582 Y78.933 E0.03244
G1 X97.596 Y79.18 E0.00987
G1 X97.614 Y79.904 E0.02891
G1 X97.61 Y80.452 E0.02187
G1 X97.567 Y81.298 E0.03381
G1 X97.498 Y82.022 E0.02903
G1 X97.426 Y82.57 E0.02206
G1 X97.324 Y83.181 E0.02472
G1 X97.175 Y83.914 E0.02985
G1 X97.024 Y84.523 E0.02504
G1 X96.866 Y85.08 E0.02311
G1 X96.595 Y85.906 E0.0347
G1 X96.373 Y86.497 E0.0252
G1 X96.141 Y87.055 E0.02412
G1 X96.02 Y87.325 E0.01181
G1 X95.758 Y87.87 E0.02414
G1 X95.478 Y88.408 E0.02421
G1 X95.226 Y88.856 E0.02052
G1 X94.984 Y89.259 E0.01876
G1 X94.726 Y89.664 E0.01917
G1 X94.495 Y90.007 E0.01651
G1 X94.082 Y90.579 E0.02816
G1 X93.797 Y90.95 E0.01867
G1 X93.54 Y91.267 E0.01629
G1 X93.247 Y91.609 E0.01797
G1 X92.593 Y92.313 E0.03835
G1 X92.414 Y92.493 E0.01013
G1 X91.665 Y93.194 E0.04094
G1 X90.936 Y93.805 E0.03796
G1 X90.446 Y94.18 E0.02463
G1 X90.182 Y94.371 E0.01301
G1 X89.423 Y94.877 E0.03641
G1 X89.225 Y95.001 E0.00932
G1 X88.541 Y95.401 E0.03163
G1 X87.929 Y95.726 E0.02766
G1 X87.554 Y95.909 E0.01665
G1 X87.015 Y96.152 E0.0236
G1 X86.482 Y96.374 E0.02304
G1 X85.876 Y96.6 E0.02581
G1 X85.154 Y96.838 E0.03034
G1 X84.516 Y97.018 E0.02646
G1 X83.582 Y97.24 E0.03832
G1 X83.07 Y97.338 E0.02081
G1 X82.521 Y97.427 E0.0222
G1 X82.098 Y97.483 E0.01703
G1 X81.078 Y97.573 E0.04087
G1 X80.83 Y97.587 E0.00991
G1 X80.106 Y97.605 E0.02891
G1 X79.549 Y97.601 E0.02223
G1 X78.71 Y97.557 E0.03353
G1 X77.99 Y97.489 E0.02886
G1 X76.901 Y97.329 E0.04393
G1 X76.463 Y97.244 E0.01781
G1 X75.748 Y97.083 E0.02925
G1 X75.056 Y96.894 E0.02863
G1 X74.577 Y96.746 E0.02001
G1 X74.008 Y96.55 E0.02402
G1 X73.418 Y96.325 E0.0252
G1 X72.544 Y95.945 E0.03804
G1 X72.051 Y95.705 E0.02188
G1 X71.19 Y95.256 E0.03876
G1 X69.674 Y94.44 E0.06872
G1 X67.274 Y93.233 E0.10722
G1 X64.795 Y92.074 E0.10922
G1 X62.327 Y91.002 E0.10739
G1 X59.765 Y89.977 E0.11013
G1 X57.693 Y89.208 E0.08821
G1 X56.564 Y88.805 E0.04785
G1 X56.293 Y88.697 E0.01164
G1 X55.738 Y88.447 E0.02429
G1 X55.355 Y88.246 E0.01726
G1 X55.058 Y88.075 E0.01368
G1 X54.631 Y87.803 E0.02021
G1 X54.152 Y87.455 E0.02363
G1 X53.939 Y87.286 E0.01085
G1 X53.665 Y87.053 E0.01436
G1 X53.307 Y86.72 E0.01951
G1 X52.911 Y86.306 E0.02287
G1 X52.571 Y85.907 E0.02092
G1 X52.408 Y85.698 E0.01058
G1 X52.174 Y85.376 E0.01589
G1 X52.022 Y85.152 E0.0108
G1 X51.777 Y84.752 E0.01872
G1 X51.476 Y84.197 E0.0252
G1 X51.276 Y83.764 E0.01904
G1 X51.048 Y83.188 E0.02472
G1 X50.895 Y82.734 E0.01912
G1 X50.769 Y82.277 E0.01892
G1 X50.662 Y81.78 E0.02029
G1 X50.614 Y81.518 E0.01063
G1 X50.548 Y81.024 E0.01989
G1 X50.518 Y80.689 E0.01342
G1 X50.496 Y80.232 E0.01826
G1 X50.503 Y79.609 E0.02487
G1 X50.549 Y78.99 E0.02477
G1 X50.584 Y78.703 E0.01154
G1 X50.632 Y78.399 E0.01228
G1 X50.72 Y77.953 E0.01814
G1 X50.881 Y77.34 E0.0253
