;FLAVOR:Marlin
;TIME:3367
;Filament used: 3.6233m
;Layer height: 0.2
;MINX:42.419
;MINY:47.168
;MINZ:0.2
;MAXX:123.338
;MAXY:120.237
;MAXZ:29.8
;Generated with Cura_SteamEngine 5.2.1
M82 ;absolute extrusion mode


; Pre-Processed for Cancel-Object support by preprocess_cancellation v0.2.0
; 3 known objects
EXCLUDE_OBJECT_DEFINE NAME=LGX_Lite_cable_door_v1_1_0_stl CENTER=99.280,70.588 POLYGON=[[54.246,52.881],[54.246,88.686],[115.929,88.686],[115.929,52.881]]
EXCLUDE_OBJECT_DEFINE NAME=Tension_rocker_LGX_Lite_Stealthburner_ERCF_rev01_stl CENTER=78.504,78.296 POLYGON=[[55.155,55.18],[55.155,82.05],[85.8,82.05],[85.8,55.18]]
EXCLUDE_OBJECT_DEFINE NAME=Motor_bridge_LGX_Lite_v1_1_0_stl CENTER=64.110,91.674 POLYGON=[[50.448,55.18],[50.448,112.207],[110.317,112.207],[110.317,55.18]]
PRINT_START BED=110 EXTRUDER=255 STANDBY=200 CHAMBER=36
G92 E0
G92 E0
G1 F7200 E-0.4
;LAYER_COUNT:149
;LAYER:0
M107
G1 F600 Z0.6
G0 F7200 X49.81 Y49.334 Z0.6
;TYPE:SKIRT
G1 F600 Z0.2
G1 F2880 E0
G1 F1800 X50.409 Y48.817 E0.03073
G1 X51.058 Y48.364 E0.06146
G1 X51.748 Y47.978 E0.09217
G1 X52.474 Y47.664 E0.12289
G1 X53.229 Y47.424 E0.15365
G1 X54.003 Y47.263 E0.18436
G1 X54.79 Y47.18 E0.21509
G1 X55.216 Y47.168 E0.23164
G1 X60.223 Y47.168 E0.42609
G1 X61.013 Y47.208 E0.4568
G1 X61.795 Y47.327 E0.48752
G1 X62.561 Y47.525 E0.51825
G1 X63.304 Y47.799 E0.549
G1 X64.014 Y48.147 E0.57971
G1 X64.686 Y48.565 E0.61044
G1 X65.313 Y49.048 E0.64118
G1 X65.887 Y49.592 E0.67189
G1 X66.404 Y50.191 E0.70262
G1 X66.857 Y50.84 E0.73336
G1 X67.243 Y51.53 E0.76406
G1 X67.557 Y52.256 E0.79478
G1 X67.797 Y53.011 E0.82554
G1 X67.958 Y53.785 E0.85625
G1 X67.975 Y53.948 E0.86261
G1 X68.498 Y53.695 E0.88517
G1 X69.242 Y53.424 E0.91592
G1 X70.081 Y53.216 E0.94949
G1 X90.433 Y49.342 E1.75405
G1 X91.217 Y49.234 E1.78479
G1 X91.897 Y49.204 E1.81122
G1 X99.633 Y49.204 E2.11165
G1 X100.423 Y49.244 E2.14237
G1 X101.205 Y49.363 E2.17309
G1 X101.971 Y49.561 E2.20381
G1 X103.07 Y49.999 E2.24976
G1 X107.301 Y52.066 E2.43263
G1 X107.993 Y52.448 E2.46332
G1 X108.644 Y52.899 E2.49408
G1 X109.245 Y53.413 E2.52479
G1 X109.91 Y54.125 E2.56263
G1 X120.042 Y66.435 E3.18179
G1 X120.513 Y67.071 E3.21253
G1 X120.918 Y67.75 E3.24323
G1 X121.36 Y68.749 E3.28565
G1 X122.872 Y72.932 E3.45839
G1 X123.103 Y73.689 E3.48912
G1 X123.256 Y74.465 E3.51984
G1 X123.338 Y75.594 E3.5638
G1 X123.338 Y84.076 E3.8932
G1 X123.298 Y84.866 E3.92392
G1 X123.179 Y85.648 E3.95464
G1 X122.981 Y86.414 E3.98536
G1 X122.707 Y87.157 E4.01612
G1 X122.359 Y87.867 E4.04682
G1 X121.941 Y88.539 E4.07756
G1 X121.213 Y89.439 E4.12251
G1 X118.761 Y92.047 E4.26153
G1 X118.19 Y92.596 E4.29229
G1 X117.956 Y92.78 E4.30385
G1 X117.65 Y93.172 E4.32316
G1 X117.14 Y93.709 E4.35192
G1 X116.786 Y94.048 E4.37096
G1 X116.187 Y94.566 E4.40171
G1 X115.621 Y94.969 E4.42869
G1 X115.208 Y95.236 E4.44779
G1 X114.523 Y95.631 E4.4785
G1 X113.917 Y95.909 E4.50439
G1 X113.459 Y96.096 E4.5236
G1 X112.712 Y96.358 E4.55435
G1 X112.047 Y96.523 E4.58096
G1 X111.561 Y96.621 E4.60021
G1 X110.778 Y96.738 E4.63095
G1 X110.159 Y96.774 E4.65503
G1 X109.677 Y96.783 E4.67376
G1 X108.886 Y96.757 E4.70449
G1 X108.203 Y96.671 E4.73122
G1 X107.715 Y96.587 E4.75045
G1 X106.943 Y96.413 E4.78119
G1 X106.326 Y96.214 E4.80636
G1 X105.853 Y96.039 E4.82595
G1 X105.126 Y95.727 E4.85667
G1 X104.513 Y95.392 E4.8838
G1 X104.097 Y95.14 E4.90269
G1 X103.442 Y94.696 E4.93342
G1 X102.924 Y94.27 E4.95947
G1 X102.563 Y93.946 E4.9783
G1 X102.002 Y93.389 E5.00901
G1 X101.552 Y92.847 E5.03636
G1 X101.252 Y92.451 E5.05566
G1 X100.806 Y91.797 E5.0864
G1 X100.467 Y91.179 E5.11377
G1 X100.255 Y90.748 E5.13243
G1 X99.942 Y90.021 E5.16316
G1 X99.722 Y89.333 E5.19121
G1 X99.594 Y88.859 E5.21028
G1 X99.426 Y88.086 E5.241
G1 X99.343 Y87.382 E5.26853
G1 X99.308 Y86.897 E5.28742
G1 X99.291 Y86.106 E5.31814
G1 X99.347 Y85.37 E5.34681
G1 X99.407 Y84.886 E5.36575
G1 X99.544 Y84.106 E5.3965
G1 X99.735 Y83.417 E5.42427
G1 X99.883 Y82.964 E5.44278
G1 X100.167 Y82.226 E5.47348
G1 X100.478 Y81.599 E5.50066
G1 X100.712 Y81.177 E5.5194
G1 X101.13 Y80.505 E5.55014
G1 X101.55 Y79.955 E5.57701
G1 X101.864 Y79.579 E5.59604
G1 X102.401 Y78.998 E5.62676
G1 X102.924 Y78.531 E5.65399
G1 X103.304 Y78.221 E5.67304
G1 X103.988 Y77.724 E5.70587
G1 X103.872 Y74.761 E5.82103
G1 X97.39 Y67.478 E6.19966
G1 X97.238 Y67.347 E6.20745
G1 X97.187 Y67.325 E6.20961
G1 X93.916 Y67.329 E6.33664
G1 X93.509 Y67.344 E6.35246
G1 X93.166 Y67.368 E6.36581
G1 X92.787 Y67.409 E6.38061
G1 X92.432 Y67.46 E6.39454
G1 X91.859 Y67.562 E6.41714
G1 X78.023 Y70.203 E6.96417
G1 X77.902 Y70.22 E6.96891
G1 X83.957 Y70.219 E7.20406
G1 X84.747 Y70.259 E7.23478
G1 X85.529 Y70.378 E7.2655
G1 X86.295 Y70.576 E7.29622
G1 X87.038 Y70.85 E7.32697
G1 X87.748 Y71.198 E7.35768
G1 X88.496 Y71.668 E7.39199
G1 X88.638 Y71.769 E7.39876
G1 X89.259 Y72.26 E7.4295
G1 X89.827 Y72.811 E7.46023
G1 X90.337 Y73.416 E7.49096
G1 X90.783 Y74.069 E7.52167
G1 X91.16 Y74.765 E7.55241
G1 X91.466 Y75.495 E7.58315
G1 X91.696 Y76.251 E7.61384
G1 X91.849 Y77.028 E7.64459
G1 X91.93 Y78.15 E7.68828
G1 X91.93 Y81.85 E7.83197
G1 X91.89 Y82.64 E7.86269
G1 X91.771 Y83.422 E7.89341
G1 X91.573 Y84.188 E7.92413
G1 X91.299 Y84.931 E7.95488
G1 X90.951 Y85.641 E7.98559
G1 X90.533 Y86.313 E8.01633
G1 X90.05 Y86.94 E8.04706
G1 X89.506 Y87.514 E8.07777
G1 X88.63 Y88.237 E8.12188
G1 X88.489 Y88.337 E8.1286
G1 X87.821 Y88.761 E8.15932
G1 X87.114 Y89.116 E8.19005
G1 X86.375 Y89.398 E8.22076
G1 X85.611 Y89.604 E8.25149
G1 X84.83 Y89.731 E8.28222
G1 X83.96 Y89.78 E8.31606
G1 X76.043 Y89.781 E8.62352
G1 X75.253 Y89.741 E8.65424
G1 X74.471 Y89.622 E8.68496
G1 X73.705 Y89.424 E8.71568
G1 X72.962 Y89.15 E8.74644
G1 X72.252 Y88.802 E8.77714
G1 X71.504 Y88.332 E8.81145
G1 X71.362 Y88.231 E8.81822
G1 X70.741 Y87.74 E8.84896
G1 X70.173 Y87.189 E8.87969
G1 X69.663 Y86.584 E8.91042
G1 X69.217 Y85.931 E8.94113
G1 X68.84 Y85.235 E8.97187
G1 X68.534 Y84.505 E9.00261
G1 X68.304 Y83.749 E9.0333
G1 X68.151 Y82.972 E9.06405
G1 X68.07 Y81.85 E9.10774
G1 X68.07 Y78.15 E9.25143
G1 X68.11 Y77.36 E9.28215
G1 X68.229 Y76.578 E9.31287
G1 X68.427 Y75.812 E9.34359
G1 X68.701 Y75.069 E9.37435
G1 X69.049 Y74.359 E9.40505
G1 X69.467 Y73.687 E9.43579
G1 X69.95 Y73.06 E9.46652
G1 X70.494 Y72.486 E9.49724
G1 X71.37 Y71.763 E9.54135
G1 X71.511 Y71.663 E9.54806
G1 X72.179 Y71.239 E9.57879
G1 X72.886 Y70.884 E9.60951
G1 X73.625 Y70.602 E9.64023
G1 X74.389 Y70.396 E9.67096
G1 X74.723 Y70.342 E9.6841
G1 X69.853 Y70.341 E9.87322
G1 X69.063 Y70.301 E9.90394
G1 X68.281 Y70.181 E9.93467
G1 X67.662 Y70.021 E9.95949
G1 X67.713 Y70.647 E9.98389
G1 X67.722 Y70.897 E9.9936
G1 X67.71 Y71.688 E10.02432
G1 X67.66 Y72.204 E10.04446
G1 X67.627 Y72.454 E10.05425
G1 X67.484 Y73.232 E10.08497
G1 X67.298 Y73.887 E10.11141
G1 X67.218 Y74.129 E10.12131
G1 X66.932 Y74.866 E10.15201
G1 X66.705 Y75.333 E10.17217
G1 X66.587 Y75.556 E10.18197
G1 X66.182 Y76.236 E10.21271
G1 X65.813 Y76.744 E10.23709
G1 X65.656 Y76.943 E10.24694
G1 X65.135 Y77.538 E10.27765
G1 X64.663 Y77.988 E10.30298
G1 X64.212 Y78.372 E10.32598
G1 X63.852 Y78.66 E10.34388
G1 X63.456 Y79.009 E10.36438
G1 X63.08 Y79.376 E10.38479
G1 X62.732 Y79.749 E10.4046
G1 X62.393 Y80.151 E10.42502
G1 X62.079 Y80.563 E10.44514
G1 X61.789 Y80.983 E10.46496
G1 X61.522 Y81.416 E10.48471
G1 X61.271 Y81.871 E10.50489
G1 X61.041 Y82.34 E10.52518
G1 X60.837 Y82.815 E10.54525
G1 X60.658 Y83.293 E10.56508
G1 X60.503 Y83.78 E10.58492
G1 X60.372 Y84.277 E10.60488
G1 X60.258 Y84.809 E10.62601
G1 X60.179 Y85.297 E10.64521
G1 X60.119 Y85.821 E10.66569
G1 X60.087 Y86.339 E10.68585
G1 X60.08 Y86.847 E10.70558
G1 X60.098 Y87.365 E10.72571
G1 X60.141 Y87.867 E10.74527
G1 X60.214 Y88.411 E10.76659
G1 X60.3 Y88.885 E10.7853
G1 X60.421 Y89.398 E10.80577
G1 X60.566 Y89.903 E10.82617
G1 X60.73 Y90.379 E10.84572
G1 X60.929 Y90.88 E10.86666
G1 X61.141 Y91.345 E10.88651
G1 X61.377 Y91.803 E10.90651
G1 X61.631 Y92.24 E10.92614
G1 X61.925 Y92.692 E10.94708
G1 X62.214 Y93.094 E10.96631
G1 X62.548 Y93.513 E10.98712
G1 X62.875 Y93.884 E11.00633
G1 X63.251 Y94.27 E11.02725
G1 X63.624 Y94.617 E11.04704
G1 X64.009 Y94.942 E11.0666
G1 X64.429 Y95.264 E11.08716
G1 X64.871 Y95.567 E11.10797
G1 X65.293 Y95.829 E11.12726
G1 X65.745 Y96.079 E11.14732
G1 X66.19 Y96.296 E11.16654
G1 X67.322 Y96.776 E11.21429
G1 X67.644 Y96.879 E11.22742
G1 X68.156 Y97.014 E11.24799
G1 X68.666 Y97.123 E11.26824
G1 X69.168 Y97.204 E11.28799
G1 X69.704 Y97.265 E11.30894
G1 X70.215 Y97.297 E11.32882
G1 X70.734 Y97.304 E11.34898
G1 X71.255 Y97.286 E11.36922
G1 X71.743 Y97.244 E11.38824
G1 X72.288 Y97.17 E11.4096
G1 X72.774 Y97.081 E11.42879
G1 X73.295 Y96.958 E11.44958
G1 X73.805 Y96.811 E11.47019
G1 X73.935 Y96.766 E11.47553
G1 X74.695 Y96.548 E11.50624
G1 X75.474 Y96.408 E11.53698
G1 X76.263 Y96.348 E11.56771
G1 X77.054 Y96.367 E11.59843
G1 X77.839 Y96.466 E11.62916
G1 X78.272 Y96.566 E11.64642
G1 X78.733 Y95.987 E11.67516
G1 X79.382 Y95.332 E11.71097
G1 X82.294 Y92.723 E11.86281
G1 X82.909 Y92.226 E11.89351
G1 X83.572 Y91.793 E11.92427
G1 X84.274 Y91.429 E11.95498
G1 X85.01 Y91.138 E11.98571
G1 X85.771 Y90.923 E12.01642
G1 X86.55 Y90.785 E12.04714
G1 X87.339 Y90.727 E12.07787
G1 X88.13 Y90.749 E12.1086
G1 X88.915 Y90.85 E12.13934
G1 X89.685 Y91.031 E12.17005
G1 X90.434 Y91.288 E12.20081
G1 X91.152 Y91.619 E12.23151
G1 X91.834 Y92.021 E12.26225
G1 X92.471 Y92.49 E12.29297
G1 X93.058 Y93.02 E12.32369
G1 X93.588 Y93.608 E12.35443
G1 X94.056 Y94.245 E12.38513
G1 X94.502 Y95.012 E12.41958
G1 X95.277 Y96.54 E12.48612
G1 X95.452 Y96.865 E12.50045
G1 X96.868 Y99.658 E12.62206
G1 X97.189 Y100.381 E12.65278
G1 X97.436 Y101.133 E12.68352
G1 X97.606 Y101.906 E12.71426
G1 X97.698 Y102.692 E12.74499
G1 X97.709 Y103.483 E12.77571
G1 X97.64 Y104.271 E12.80643
G1 X97.493 Y105.048 E12.83714
G1 X97.267 Y105.807 E12.8679
G1 X96.966 Y106.538 E12.8986
G1 X96.593 Y107.236 E12.92933
G1 X96.151 Y107.892 E12.96005
G1 X95.646 Y108.501 E12.99078
G1 X95.081 Y109.055 E13.02151
G1 X94.464 Y109.55 E13.05222
G1 X93.799 Y109.98 E13.08298
G1 X93.095 Y110.34 E13.11369
G1 X92.358 Y110.628 E13.14441
G1 X91.767 Y110.799 E13.16831
G1 X88.131 Y111.7 E13.31378
G1 X87.355 Y111.851 E13.34448
G1 X86.567 Y111.924 E13.37522
G1 X85.776 Y111.916 E13.40594
G1 X84.989 Y111.828 E13.43669
G1 X84.216 Y111.662 E13.46739
G1 X83.463 Y111.418 E13.49813
G1 X83.165 Y111.287 E13.51078
G1 X82.666 Y111.78 E13.53802
G1 X82.592 Y112.058 E13.54919
G1 X82.35 Y112.811 E13.57991
G1 X82.122 Y113.35 E13.60263
G1 X81.855 Y113.922 E13.62715
G1 X81.485 Y114.621 E13.65786
G1 X81.173 Y115.103 E13.68016
G1 X80.815 Y115.614 E13.70439
G1 X80.329 Y116.238 E13.73511
G1 X79.939 Y116.658 E13.75736
G1 X79.493 Y117.104 E13.78186
G1 X78.906 Y117.634 E13.81257
G1 X78.44 Y117.986 E13.83525
G1 X77.929 Y118.343 E13.85946
G1 X77.259 Y118.762 E13.89015
G1 X76.772 Y119.012 E13.91141
G1 X76.201 Y119.28 E13.9359
G1 X75.469 Y119.58 E13.96662
G1 X74.888 Y119.759 E13.99023
G1 X74.283 Y119.92 E14.01455
G1 X73.509 Y120.084 E14.04527
G1 X72.954 Y120.153 E14.06699
G1 X72.328 Y120.208 E14.0914
G1 X71.538 Y120.237 E14.1221
G1 X70.972 Y120.209 E14.1441
G1 X70.356 Y120.156 E14.16812
G1 X69.572 Y120.049 E14.19884
G1 X69.021 Y119.924 E14.22079
G1 X68.406 Y119.761 E14.24549
G1 X67.652 Y119.52 E14.27624
G1 X67.085 Y119.28 E14.30015
G1 X66.514 Y119.012 E14.32464
G1 X65.816 Y118.64 E14.35536
G1 X65.357 Y118.343 E14.37659
G1 X64.846 Y117.986 E14.4008
G1 X64.221 Y117.5 E14.43154
G1 X63.793 Y117.104 E14.45419
G1 X63.347 Y116.658 E14.47868
G1 X62.817 Y116.071 E14.5094
G1 X62.471 Y115.614 E14.53166
G1 X62.113 Y115.103 E14.55589
G1 X61.693 Y114.433 E14.5866
G1 X61.408 Y113.873 E14.611
G1 X61.074 Y114.029 E14.62531
G1 X60.341 Y114.327 E14.65604
G1 X59.777 Y114.5 E14.67895
G1 X59.172 Y114.661 E14.70327
G1 X58.398 Y114.825 E14.73399
G1 X57.843 Y114.894 E14.75571
G1 X57.217 Y114.949 E14.78012
G1 X56.427 Y114.978 E14.81082
G1 X55.861 Y114.95 E14.83282
G1 X55.245 Y114.897 E14.85683
G1 X54.461 Y114.79 E14.88756
G1 X53.91 Y114.665 E14.90951
G1 X53.295 Y114.502 E14.93421
G1 X52.541 Y114.261 E14.96495
G1 X51.984 Y114.026 E14.98843
G1 X51.413 Y113.759 E15.01291
G1 X50.714 Y113.388 E15.04364
G1 X50.237 Y113.079 E15.06571
G1 X49.726 Y112.721 E15.08995
G1 X49.102 Y112.235 E15.12066
G1 X48.682 Y111.845 E15.14292
G1 X48.236 Y111.399 E15.16741
G1 X47.706 Y110.812 E15.19813
G1 X47.36 Y110.355 E15.22039
G1 X47.002 Y109.844 E15.24462
G1 X46.582 Y109.174 E15.27533
G1 X46.32 Y108.663 E15.29763
G1 X46.053 Y108.091 E15.32214
G1 X45.755 Y107.358 E15.35287
G1 X45.582 Y106.796 E15.37571
G1 X45.421 Y106.192 E15.39998
G1 X45.256 Y105.418 E15.43072
G1 X45.187 Y104.862 E15.45247
G1 X45.132 Y104.238 E15.4768
G1 X45.103 Y103.448 E15.5075
G1 X45.131 Y102.882 E15.52951
G1 X45.184 Y102.264 E15.5536
G1 X45.291 Y101.48 E15.58433
G1 X45.418 Y100.921 E15.60659
G1 X45.581 Y100.308 E15.63122
G1 X45.701 Y99.934 E15.64647
G1 X45.339 Y99.235 E15.67704
G1 X45.163 Y98.872 E15.69271
G1 X44.75 Y97.962 E15.73152
G1 X44.607 Y97.627 E15.74567
G1 X44.236 Y96.697 E15.78455
G1 X44.1 Y96.328 E15.79982
G1 X43.777 Y95.383 E15.83861
G1 X43.66 Y95.012 E15.85371
G1 X43.384 Y94.051 E15.89254
G1 X43.288 Y93.684 E15.90728
G1 X43.059 Y92.711 E15.94609
G1 X42.982 Y92.342 E15.96073
G1 X42.8 Y91.359 E15.99956
G1 X42.738 Y90.969 E16.01489
G1 X42.606 Y89.979 E16.05368
G1 X42.565 Y89.601 E16.06844
G1 X42.481 Y88.604 E16.1073
G1 X42.458 Y88.221 E16.1222
G1 X42.423 Y87.223 E16.16098
G1 X42.419 Y86.847 E16.17559
G1 X42.432 Y85.848 E16.21438
G1 X42.447 Y85.449 E16.22989
G1 X42.511 Y84.451 E16.26873
G1 X42.544 Y84.074 E16.28342
G1 X42.656 Y83.081 E16.32223
G1 X42.708 Y82.706 E16.33693
G1 X42.868 Y81.719 E16.37577
G1 X42.941 Y81.328 E16.39121
G1 X43.151 Y80.35 E16.43006
G1 X43.239 Y79.984 E16.44468
G1 X43.495 Y79.02 E16.48341
G1 X43.6 Y78.66 E16.49797
G1 X43.903 Y77.706 E16.53685
G1 X44.029 Y77.34 E16.55188
G1 X44.408 Y76.322 E16.59406
G1 X44.581 Y74.182 E16.67744
G1 X44.46 Y73.737 E16.69535
G1 X44.357 Y73.293 E16.71305
G1 X44.217 Y72.515 E16.74375
G1 X44.173 Y72.07 E16.76112
G1 X44.141 Y71.612 E16.77895
G1 X44.147 Y70.44 E16.82446
G1 X44.184 Y69.979 E16.84242
G1 X44.287 Y69.194 E16.87317
G1 X44.374 Y68.783 E16.88948
G1 X44.48 Y68.34 E16.90717
G1 X44.842 Y67.213 E16.95314
G1 X45.016 Y66.785 E16.97109
G1 X45.35 Y66.068 E17.0018
G1 X45.556 Y65.703 E17.01808
G1 X45.789 Y65.315 E17.03566
G1 X46.23 Y64.658 E17.06639
G1 X46.481 Y64.34 E17.08212
G1 X46.777 Y63.984 E17.1001
G1 X47.313 Y63.402 E17.13083
G1 X47.913 Y62.871 E17.16194
G1 X48.039 Y62.77 E17.16821
G1 X47.972 Y62.638 E17.17396
G1 X47.686 Y61.9 E17.2047
G1 X47.477 Y61.137 E17.23542
G1 X47.346 Y60.357 E17.26614
G1 X47.293 Y59.45 E17.30142
G1 X47.293 Y58.302 E17.346
G1 X47.333 Y57.512 E17.37672
G1 X47.386 Y57.17 E17.39016
G1 X47.386 Y54.998 E17.47451
G1 X47.426 Y54.208 E17.50523
G1 X47.545 Y53.426 E17.53595
G1 X47.743 Y52.66 E17.56667
G1 X48.017 Y51.917 E17.59743
G1 X48.365 Y51.207 E17.62814
G1 X48.783 Y50.535 E17.65887
G1 X49.266 Y49.908 E17.68961
G1 X49.81 Y49.334 E17.72032
G0 F7200 X50.34 Y49.579
G1 F1800 X50.934 Y49.098 E17.75
G1 X51.574 Y48.683 E17.77962
G1 X52.254 Y48.337 E17.80925
G1 X52.967 Y48.063 E17.83892
G1 X53.705 Y47.866 E17.86858
G1 X54.459 Y47.747 E17.89822
G1 X55.216 Y47.708 E17.92766
G1 X60.223 Y47.708 E18.12211
G1 X60.985 Y47.748 E18.15174
G1 X61.739 Y47.867 E18.18138
G1 X62.477 Y48.065 E18.21106
G1 X63.189 Y48.339 E18.24069
G1 X63.87 Y48.686 E18.27037
G1 X64.51 Y49.102 E18.30001
G1 X65.103 Y49.582 E18.32964
G1 X65.642 Y50.122 E18.35927
G1 X66.123 Y50.716 E18.38895
G1 X66.538 Y51.356 E18.41857
G1 X66.884 Y52.036 E18.4482
G1 X67.158 Y52.749 E18.47787
G1 X67.355 Y53.487 E18.50753
G1 X67.474 Y54.241 E18.53718
G1 X67.503 Y54.809 E18.55926
G1 X68.045 Y54.513 E18.58325
G1 X68.733 Y54.182 E18.6129
G1 X69.452 Y53.925 E18.64255
G1 X70.182 Y53.747 E18.67173
G1 X90.534 Y49.873 E19.47629
G1 X91.29 Y49.769 E19.50593
G1 X91.897 Y49.744 E19.52952
G1 X99.633 Y49.744 E19.82995
G1 X100.395 Y49.784 E19.85958
G1 X101.149 Y49.903 E19.88922
G1 X101.887 Y50.101 E19.9189
G1 X102.833 Y50.484 E19.95853
G1 X107.064 Y52.551 E20.1414
G1 X107.731 Y52.921 E20.17102
G1 X108.356 Y53.36 E20.20069
