;FLAVOR:RepRap
;TIME:3642
;Filament used: 4.72306m
;Layer height: 0.2
;MINX:55.648
;MINY:55.714
;MINZ:0.26
;MAXX:105.065
;MAXY:104.286
;MAXZ:13.46
;Generated with Cura_SteamEngine 5.2.1
T0


; Pre-Processed for Cancel-Object support by preprocess_cancellation v0.2.0
; 8 known objects
EXCLUDE_OBJECT_DEFINE NAME=V0_Press_Fit_Daybreak_Mount_55_v3_stl_4 CENTER=63.420,80.312 POLYGON=[[56.0,72.488],[56.0,87.452],[70.6,87.452],[70.6,72.488]]
EXCLUDE_OBJECT_DEFINE NAME=V0_Press_Fit_Daybreak_Mount_55_v3_stl CENTER=79.740,79.900 POLYGON=[[72.548,72.7],[72.548,87.3],[87.513,87.3],[87.513,72.7]]
EXCLUDE_OBJECT_DEFINE NAME=V0_Press_Fit_Daybreak_Mount_55_v3_stl_1 CENTER=79.749,63.400 POLYGON=[[72.548,56.2],[72.548,70.8],[87.513,70.8],[87.513,56.2]]
EXCLUDE_OBJECT_DEFINE NAME=V0_Press_Fit_Daybreak_Mount_55_v3_stl_7 CENTER=96.645,63.199 POLYGON=[[89.448,56.0],[89.448,70.6],[104.413,70.6],[104.413,56.0]]
EXCLUDE_OBJECT_DEFINE NAME=V0_Press_Fit_Daybreak_Mount_55_v3_stl_3 CENTER=96.811,80.308 POLYGON=[[89.4,72.488],[89.4,87.452],[104.0,87.452],[104.0,72.488]]
EXCLUDE_OBJECT_DEFINE NAME=V0_Press_Fit_Daybreak_Mount_55_v3_stl_6 CENTER=96.646,96.604 POLYGON=[[89.448,89.4],[89.448,104.0],[104.413,104.0],[104.413,89.4]]
EXCLUDE_OBJECT_DEFINE NAME=V0_Press_Fit_Daybreak_Mount_55_v3_stl_2 CENTER=79.747,96.394 POLYGON=[[72.548,89.2],[72.548,103.8],[87.513,103.8],[87.513,89.2]]
EXCLUDE_OBJECT_DEFINE NAME=V0_Press_Fit_Daybreak_Mount_55_v3_stl_5 CENTER=66.384,94.135 POLYGON=[[55.648,55.894],[55.648,104.107],[104.797,104.107],[104.797,55.894]]
M82 ;absolute extrusion mode
PRINT_START BED=110 EXTRUDER=255 STANDBY=200 CHAMBER=36
M83 ;relative extrusion mode
G1 F2100 E-0.4
;LAYER_COUNT:65
;LAYER:0
M107
G1 F600 Z0.66
G0 F7200 X57 Y72.733 Z0.66
;TYPE:SUPPORT
G1 F600 Z0.26
G1 F840 E0.4
G1 F1200 X57 Y75.27 E0.13085
G1 F2100 E-0.4
G1 F600 Z0.66
G0 F7200 X55.713 Y75 Z0.66
G1 F600 Z0.26
G1 F840 E0.4
G1 F1200 X70.886 Y75 E0.78258
G1 F2100 E-0.4
G1 F600 Z0.66
G0 F7200 X69 Y75.27 Z0.66
G1 F600 Z0.26
G1 F840 E0.4
G1 F1200 X69 Y72.733 E0.13085
G1 F2100 E-0.4
G1 F600 Z0.66
G0 F7200 X66 Y72.733 Z0.66
G1 F600 Z0.26
G1 F840 E0.4
G1 F1200 X66 Y75.27 E0.13085
G1 F2100 E-0.4
G1 F600 Z0.66
G0 F7200 X63 Y75.27 Z0.66
G1 F600 Z0.26
G1 F840 E0.4
G1 F1200 X63 Y71.834 E0.17722
G1 F2100 E-0.4
G1 F600 Z0.66
G0 F7200 X61.713 Y72 Z0.66
G1 F600 Z0.26
G1 F840 E0.4
G1 F1200 X64.885 Y72 E0.1636
G1 F2100 E-0.4
G1 F600 Z0.66
G0 F7200 X60 Y72.733 Z0.66
G1 F600 Z0.26
G1 F840 E0.4
G1 F1200 X60 Y75.27 E0.13085
G1 F2100 E-0.4
G1 F600 Z0.66
G0 F7200 X67.13 Y90 Z0.66
G1 F600 Z0.26
G1 F840 E0.4
G1 F1200 X70.367 Y90 E0.16696
G1 F2100 E-0.4
G1 F600 Z0.66
G0 F7200 X69 Y89.114 Z0.66
G1 F600 Z0.26
G1 F840 E0.4
G1 F1200 X69 Y104.286 E0.78253
G1 F2100 E-0.4
G1 F600 Z0.66
G0 F7200 X67.83 Y102 Z0.66
G1 F600 Z0.26
G1 F840 E0.4
G1 F1200 X70.367 Y102 E0.13085
G1 F2100 E-0.4
G1 F600 Z0.66
G0 F7200 X70.367 Y99 Z0.66
G1 F600 Z0.26
G1 F840 E0.4
G1 F1200 X67.83 Y99 E0.13085
G1 F2100 E-0.4
G1 F600 Z0.66
G0 F7200 X67.83 Y96 Z0.66
G1 F600 Z0.26
G1 F840 E0.4
G1 F1200 X71.265 Y96 E0.17717
G1 F2100 E-0.4
G1 F600 Z0.66
G0 F7200 X70.367 Y93 Z0.66
G1 F600 Z0.26
G1 F840 E0.4
G1 F1200 X67.83 Y93 E0.13085
G1 F2100 E-0.4
G1 F600 Z0.66
G0 F7200 X84.03 Y90 Z0.66
G1 F600 Z0.26
G1 F840 E0.4
G1 F1200 X87.267 Y90 E0.16696
G1 F2100 E-0.4
G1 F600 Z0.66
G0 F7200 X87 Y88.914 Z0.66
G1 F600 Z0.26
G1 F840 E0.4
G1 F1200 X87 Y104.086 E0.78253
G1 F2100 E-0.4
G1 F600 Z0.66
G0 F7200 X87.267 Y102 Z0.66
G1 F600 Z0.26
G1 F840 E0.4
G1 F1200 X84.73 Y102 E0.13085
G1 F2100 E-0.4
G1 F600 Z0.66
G0 F7200 X84.73 Y99 Z0.66
G1 F600 Z0.26
G1 F840 E0.4
G1 F1200 X87.267 Y99 E0.13085
G1 F2100 E-0.4
G1 F600 Z0.66
G0 F7200 X88.165 Y96 Z0.66
G1 F600 Z0.26
G1 F840 E0.4
G1 F1200 X84.73 Y96 E0.17717
G1 F2100 E-0.4
G1 F600 Z0.66
G0 F7200 X84.73 Y93 Z0.66
G1 F600 Z0.26
G1 F840 E0.4
G1 F1200 X87.267 Y93 E0.13085
G1 F2100 E-0.4
G1 F600 Z0.66
G0 F7200 X87 Y87.586 Z0.66
G1 F600 Z0.26
G1 F840 E0.4
G1 F1200 X87 Y72.414 E0.78253
G1 F2100 E-0.4
G1 F600 Z0.66
G0 F7200 X87.267 Y75 Z0.66
G1 F600 Z0.26
G1 F840 E0.4
G1 F1200 X84.73 Y75 E0.13085
G1 F2100 E-0.4
G1 F600 Z0.66
G0 F7200 X84.73 Y78 Z0.66
G1 F600 Z0.26
G1 F840 E0.4
G1 F1200 X87.267 Y78 E0.13085
G1 F2100 E-0.4
G1 F600 Z0.66
G0 F7200 X88.165 Y81 Z0.66
G1 F600 Z0.26
G1 F840 E0.4
G1 F1200 X84.73 Y81 E0.17717
G1 F2100 E-0.4
G1 F600 Z0.66
G0 F7200 X84.73 Y84 Z0.66
G1 F600 Z0.26
G1 F840 E0.4
G1 F1200 X87.267 Y84 E0.13085
G1 F2100 E-0.4
G1 F600 Z0.66
G0 F7200 X87.267 Y87 Z0.66
G1 F600 Z0.26
G1 F840 E0.4
G1 F1200 X84.03 Y87 E0.16696
G1 F2100 E-0.4
G1 F600 Z0.66
G0 F7200 X90 Y75.97 Z0.66
G1 F600 Z0.26
G1 F840 E0.4
G1 F1200 X90 Y72.733 E0.16696
G1 F2100 E-0.4
G1 F600 Z0.66
G0 F7200 X89.114 Y75 Z0.66
G1 F600 Z0.26
G1 F840 E0.4
G1 F1200 X104.286 Y75 E0.78253
G1 F2100 E-0.4
G1 F600 Z0.66
G0 F7200 X102 Y75.27 Z0.66
G1 F600 Z0.26
G1 F840 E0.4
G1 F1200 X102 Y72.733 E0.13085
G1 F2100 E-0.4
G1 F600 Z0.66
G0 F7200 X99 Y72.733 Z0.66
G1 F600 Z0.26
G1 F840 E0.4
G1 F1200 X99 Y75.27 E0.13085
G1 F2100 E-0.4
G1 F600 Z0.66
G0 F7200 X96 Y75.27 Z0.66
G1 F600 Z0.26
G1 F840 E0.4
G1 F1200 X96 Y71.834 E0.17722
G0 F7200 X95.114 Y72
G1 F1200 X98.286 Y72 E0.1636
G1 F2100 E-0.4
G1 F600 Z0.66
G0 F7200 X93 Y72.733 Z0.66
G1 F600 Z0.26
G1 F840 E0.4
G1 F1200 X93 Y75.27 E0.13085
G1 F2100 E-0.4
G1 F600 Z0.66
G0 F7200 X87 Y71.086 Z0.66
G1 F600 Z0.26
G1 F840 E0.4
G1 F1200 X87 Y55.914 E0.78253
G1 F2100 E-0.4
G1 F600 Z0.66
G0 F7200 X87.267 Y57 Z0.66
G1 F600 Z0.26
G1 F840 E0.4
G1 F1200 X84.03 Y57 E0.16696
G1 F2100 E-0.4
G1 F600 Z0.66
G0 F7200 X84.73 Y60 Z0.66
G1 F600 Z0.26
G1 F840 E0.4
G1 F1200 X87.267 Y60 E0.13085
G1 F2100 E-0.4
G1 F600 Z0.66
G0 F7200 X88.165 Y63 Z0.66
G1 F600 Z0.26
G1 F840 E0.4
G1 F1200 X84.73 Y63 E0.17717
G1 F2100 E-0.4
G1 F600 Z0.66
G0 F7200 X84.73 Y66 Z0.66
G1 F600 Z0.26
G1 F840 E0.4
G1 F1200 X87.267 Y66 E0.13085
G1 F2100 E-0.4
G1 F600 Z0.66
G0 F7200 X87.267 Y69 Z0.66
G1 F600 Z0.26
G1 F840 E0.4
G1 F1200 X84.73 Y69 E0.13085
G1 F2100 E-0.4
G1 F600 Z0.66
G0 F7200 X101.63 Y69 Z0.66
G1 F600 Z0.26
G1 F840 E0.4
G1 F1200 X104.167 Y69 E0.13085
G1 F2100 E-0.4
G1 F600 Z0.66
G0 F7200 X102 Y70.886 Z0.66
G1 F600 Z0.26
G1 F840 E0.4
G1 F1200 X102 Y55.714 E0.78253
G1 F2100 E-0.4
G1 F600 Z0.66
G0 F7200 X101.63 Y57 Z0.66
G1 F600 Z0.26
G1 F840 E0.4
G1 F1200 X104.167 Y57 E0.13085
G1 F2100 E-0.4
G1 F600 Z0.66
G0 F7200 X104.167 Y60 Z0.66
G1 F600 Z0.26
G1 F840 E0.4
G1 F1200 X101.63 Y60 E0.13085
G1 F2100 E-0.4
G1 F600 Z0.66
G0 F7200 X101.63 Y63 Z0.66
G1 F600 Z0.26
G1 F840 E0.4
G1 F1200 X105.065 Y63 E0.17717
G1 F2100 E-0.4
G1 F600 Z0.66
G0 F7200 X105 Y61.714 Z0.66
G1 F600 Z0.26
G1 F840 E0.4
G1 F1200 X105 Y64.886 E0.1636
G1 F2100 E-0.4
G1 F600 Z0.66
G0 F7200 X104.167 Y66 Z0.66
G1 F600 Z0.26
G1 F840 E0.4
G1 F1200 X101.63 Y66 E0.13085
G1 F2100 E-0.4
G1 F600 Z0.66
G0 F7200 X102 Y89.114 Z0.66
G1 F600 Z0.26
G1 F840 E0.4
G1 F1200 X102 Y104.286 E0.78253
G1 F2100 E-0.4
G1 F600 Z0.66
G0 F7200 X101.63 Y102 Z0.66
G1 F600 Z0.26
G1 F840 E0.4
G1 F1200 X104.167 Y102 E0.13085
G1 F2100 E-0.4
G1 F600 Z0.66
G0 F7200 X104.167 Y99 Z0.66
G1 F600 Z0.26
G1 F840 E0.4
G1 F1200 X101.63 Y99 E0.13085
G1 F2100 E-0.4
G1 F600 Z0.66
G0 F7200 X101.63 Y96 Z0.66
G1 F600 Z0.26
G1 F840 E0.4
G1 F1200 X105.065 Y96 E0.17717
G0 F7200 X105 Y95.114
G1 F1200 X105 Y98.286 E0.1636
G1 F2100 E-0.4
G1 F600 Z0.66
G0 F7200 X104.167 Y93 Z0.66
G1 F600 Z0.26
G1 F840 E0.4
G1 F1200 X101.63 Y93 E0.13085
G1 F2100 E-0.4
G1 F600 Z0.66
G0 F7200 X100.93 Y90 Z0.66
G1 F600 Z0.26
G1 F840 E0.4
G1 F1200 X104.167 Y90 E0.16696
G1 F2100 E-0.4
G1 F600 Z0.66
;MESH:V0 Press Fit Daybreak Mount (55) v3.stl(4)
EXCLUDE_OBJECT_START NAME=V0_Press_Fit_Daybreak_Mount_55_v3_stl_4
G0 F7200 X59.22 Y77.564 Z0.66
;TYPE:WALL-INNER
G1 F600 Z0.26
G1 F840 E0.4
G1 F1200 X59.22 Y81.842 E0.19613
G1 X67.381 Y81.841 E0.37415
G1 X67.381 Y77.564 E0.19608
G1 X59.22 Y77.564 E0.37415
G0 F7200 X58.74 Y77.084
G1 F1200 X58.74 Y82.322 E0.24014
G1 X67.861 Y82.321 E0.41816
G1 X67.861 Y77.084 E0.2401
G1 X58.74 Y77.084 E0.41816
G0 F7200 X58.26 Y76.604
G1 F1200 X58.26 Y82.802 E0.28416
G1 X68.341 Y82.801 E0.46218
G1 X68.341 Y76.604 E0.28411
G1 X58.26 Y76.604 E0.46218
G0 F7200 X57.78 Y76.124
;TYPE:WALL-OUTER
G1 F1200 X57.78 Y83.228 E0.32569
G1 X57.868 Y83.282 E0.00473
G1 X68.732 Y83.281 E0.49807
G1 X68.821 Y83.227 E0.00477
G1 X68.821 Y76.124 E0.32565
G1 X57.78 Y76.124 E0.50619
G0 F7200 X57.78 Y76.324
G0 X58.41 Y76.754
G0 X59.36 Y78.053
G0 X59.709 Y78.053
;TYPE:SKIN
G1 F1200 X59.709 Y81.353 E0.1702
G1 X66.892 Y81.352 E0.37048
G1 X66.892 Y79.703 E0.08505
G1 X66.892 Y78.053 E0.0851
G1 X59.709 Y78.053 E0.37048
G0 F7200 X59.36 Y78.053
G0 X59.432 Y81.63
G0 X60.461 Y81.702
G0 X60.461 Y81.081
G1 F1200 X59.978 Y80.598 E0.03523
G0 F7200 X59.978 Y79.834
G1 F1200 X61.225 Y81.081 E0.09096
G0 F7200 X61.989 Y81.081
G1 F1200 X59.978 Y79.07 E0.14668
G0 F7200 X59.994 Y78.322
G1 F1200 X62.752 Y81.081 E0.20121
G0 F7200 X63.516 Y81.081
G1 F1200 X60.758 Y78.322 E0.20121
G0 F7200 X61.521 Y78.322
G1 F1200 X64.28 Y81.081 E0.20124
G0 F7200 X65.043 Y81.081
G1 F1200 X62.285 Y78.322 E0.20121
G0 F7200 X63.049 Y78.322
G1 F1200 X65.807 Y81.081 E0.20121
G0 F7200 X66.571 Y81.081
G1 F1200 X63.812 Y78.322 E0.20124
G0 F7200 X64.576 Y78.322
G1 F1200 X66.622 Y80.368 E0.14924
G0 F7200 X66.622 Y79.604
G1 F1200 X65.34 Y78.322 E0.09351
G0 F7200 X66.103 Y78.322
G1 F1200 X66.622 Y78.84 E0.03782
G0 F7200 X67.621 Y78.84
G1 F2100 E-0.4
G1 F600 Z0.66
;MESH:V0 Press Fit Daybreak Mount (55) v3.stl
EXCLUDE_OBJECT_END NAME=V0_Press_Fit_Daybreak_Mount_55_v3_stl_4
EXCLUDE_OBJECT_START NAME=V0_Press_Fit_Daybreak_Mount_55_v3_stl
G0 F7200 X67.621 Y78.84 Z0.66
G0 X78.158 Y75.92
;TYPE:WALL-INNER
G1 F600 Z0.26
G1 F840 E0.4
G1 F1200 X78.159 Y84.081 E0.37415
G1 X82.436 Y84.081 E0.19608
G1 X82.436 Y78.059 E0.27609
G1 X82.436 Y75.92 E0.09807
G1 X78.158 Y75.92 E0.19613
G0 F7200 X77.678 Y75.44
G1 F1200 X77.679 Y84.561 E0.41816
G1 X82.916 Y84.561 E0.2401
G1 X82.916 Y78.059 E0.29809
G1 X82.916 Y75.44 E0.12007
G1 X77.678 Y75.44 E0.24014
G0 F7200 X77.198 Y74.96
G1 F1200 X77.199 Y85.041 E0.46218
G1 X83.396 Y85.041 E0.28411
G1 X83.396 Y78.059 E0.3201
G1 X83.396 Y74.96 E0.14208
G1 X77.198 Y74.96 E0.28416
G0 F7200 X76.772 Y74.48
;TYPE:WALL-OUTER
G1 F1200 X76.718 Y74.568 E0.00473
G1 X76.719 Y85.432 E0.49807
G1 X76.773 Y85.521 E0.00477
G1 X83.876 Y85.521 E0.32565
G1 X83.876 Y78.059 E0.34211
G1 X83.876 Y74.48 E0.16408
G1 X76.772 Y74.48 E0.32569
G0 F7200 X76.718 Y74.568
G0 X76.718 Y74.665
G0 X77.348 Y75.11
G0 X78.298 Y76.409
G0 X78.647 Y76.409
;TYPE:SKIN
G1 F1200 X78.647 Y81.942 E0.28538
G1 X78.648 Y83.592 E0.0851
G1 X81.947 Y83.592 E0.17015
G1 X81.947 Y76.409 E0.37048
G1 X78.647 Y76.409 E0.1702
G0 F7200 X78.298 Y76.409
G0 X78.37 Y76.132
G0 X82.224 Y76.132
G0 X82.296 Y77.094
G0 X81.676 Y77.094
G1 F1200 X81.26 Y76.678 E0.03034
G0 F7200 X80.497 Y76.678
G1 F1200 X81.676 Y77.858 E0.08603
G0 F7200 X81.676 Y78.621
G1 F1200 X79.733 Y76.678 E0.14172
G0 F7200 X78.969 Y76.678
G1 F1200 X81.676 Y79.385 E0.19745
G0 F7200 X81.676 Y80.149
G1 F1200 X78.915 Y77.388 E0.20139
G0 F7200 X78.915 Y78.152
G1 F1200 X81.676 Y80.912 E0.20135
G0 F7200 X81.676 Y81.676
G1 F1200 X78.916 Y78.916 E0.20132
G0 F7200 X78.916 Y79.68
G1 F1200 X81.676 Y82.44 E0.20132
G0 F7200 X81.676 Y83.203
G1 F1200 X78.916 Y80.444 E0.20128
G0 F7200 X78.917 Y81.208
G1 F1200 X81.03 Y83.321 E0.15412
G0 F7200 X80.266 Y83.321
G1 F1200 X78.917 Y81.972 E0.0984
G0 F7200 X78.917 Y82.735
G1 F1200 X79.502 Y83.321 E0.04271
G0 F7200 X79.502 Y84.321
G1 F2100 E-0.4
G1 F600 Z0.66
;MESH:V0 Press Fit Daybreak Mount (55) v3.stl(1)
EXCLUDE_OBJECT_END NAME=V0_Press_Fit_Daybreak_Mount_55_v3_stl
EXCLUDE_OBJECT_START NAME=V0_Press_Fit_Daybreak_Mount_55_v3_stl_1
G0 F7200 X79.502 Y84.321 Z0.66
G0 X78.158 Y59.42
;TYPE:WALL-INNER
G1 F600 Z0.26
G1 F840 E0.4
G1 F1200 X78.159 Y67.581 E0.37415
G1 X82.436 Y67.581 E0.19608
G1 X82.436 Y61.559 E0.27609
G1 X82.436 Y59.42 E0.09807
G1 X78.158 Y59.42 E0.19613
G0 F7200 X77.678 Y58.94
G1 F1200 X77.679 Y68.061 E0.41816
G1 X82.916 Y68.061 E0.2401
G1 X82.916 Y61.559 E0.29809
G1 X82.916 Y58.94 E0.12007
G1 X77.678 Y58.94 E0.24014
G0 F7200 X77.198 Y58.46
G1 F1200 X77.199 Y68.541 E0.46218
G1 X83.396 Y68.541 E0.28411
G1 X83.396 Y61.559 E0.3201
G1 X83.396 Y58.46 E0.14208
G1 X77.198 Y58.46 E0.28416
G0 F7200 X76.772 Y57.98
;TYPE:WALL-OUTER
G1 F1200 X76.718 Y58.068 E0.00473
G1 X76.719 Y68.932 E0.49807
G1 X76.773 Y69.021 E0.00477
G1 X83.876 Y69.021 E0.32565
G1 X83.876 Y61.559 E0.34211
G1 X83.876 Y57.98 E0.16408
G1 X76.772 Y57.98 E0.32569
G0 F7200 X76.718 Y58.068
G0 X76.718 Y58.165
G0 X77.348 Y58.61
G0 X78.298 Y59.909
G0 X78.647 Y59.909
;TYPE:SKIN
G1 F1200 X78.648 Y67.092 E0.37048
G1 X81.947 Y67.092 E0.17015
G1 X81.947 Y61.559 E0.28538
G1 X81.947 Y59.909 E0.0851
G1 X78.647 Y59.909 E0.1702
G0 F7200 X78.298 Y59.909
G0 X78.37 Y59.632
G0 X82.224 Y59.632
G0 X82.296 Y60.293
G0 X81.676 Y60.293
G1 F1200 X81.561 Y60.179 E0.00835
G0 F7200 X80.798 Y60.179
G1 F1200 X81.676 Y61.057 E0.06404
G0 F7200 X81.676 Y61.82
G1 F1200 X80.034 Y60.179 E0.11973
G0 F7200 X79.27 Y60.179
G1 F1200 X81.676 Y62.584 E0.17546
G0 F7200 X81.676 Y63.348
G1 F1200 X78.915 Y60.587 E0.20139
G0 F7200 X78.915 Y61.351
G1 F1200 X81.676 Y64.111 E0.20135
G0 F7200 X81.676 Y64.875
G1 F1200 X78.915 Y62.115 E0.20135
G0 F7200 X78.915 Y62.878
G1 F1200 X81.676 Y65.639 E0.20139
G0 F7200 X81.676 Y66.402
G1 F1200 X78.916 Y63.643 E0.20128
G0 F7200 X78.916 Y64.406
G1 F1200 X81.331 Y66.821 E0.17615
G0 F7200 X80.567 Y66.821
G1 F1200 X78.916 Y65.17 E0.12043
G0 F7200 X78.916 Y65.934
G1 F1200 X79.804 Y66.821 E0.06474
G0 F7200 X79.04 Y66.821
G1 F1200 X78.916 Y66.697 E0.00904
G0 F7200 X77.918 Y66.697
G1 F2100 E-0.4
G1 F600 Z0.66
;MESH:V0 Press Fit Daybreak Mount (55) v3.stl(7)
EXCLUDE_OBJECT_END NAME=V0_Press_Fit_Daybreak_Mount_55_v3_stl_1
EXCLUDE_OBJECT_START NAME=V0_Press_Fit_Daybreak_Mount_55_v3_stl_7
G0 F7200 X77.918 Y66.697 Z0.66
G0 X95.058 Y59.22
;TYPE:WALL-INNER
G1 F600 Z0.26
G1 F840 E0.4
G1 F1200 X95.059 Y67.381 E0.37415
G1 X99.336 Y67.381 E0.19608
G1 X99.336 Y61.359 E0.27609
G1 X99.336 Y59.22 E0.09807
G1 X95.058 Y59.22 E0.19613
G0 F7200 X94.578 Y58.74
G1 F1200 X94.579 Y67.861 E0.41816
G1 X99.816 Y67.861 E0.2401
G1 X99.816 Y61.359 E0.29809
G1 X99.816 Y58.74 E0.12007
G1 X94.578 Y58.74 E0.24014
G0 F7200 X94.098 Y58.26
G1 F1200 X94.099 Y68.341 E0.46218
G1 X100.296 Y68.341 E0.28411
G1 X100.296 Y61.359 E0.3201
G1 X100.296 Y58.26 E0.14208
G1 X94.098 Y58.26 E0.28416
G0 F7200 X93.672 Y57.78
;TYPE:WALL-OUTER
G1 F1200 X93.618 Y57.868 E0.00473
G1 X93.619 Y68.732 E0.49807
G1 X93.673 Y68.821 E0.00477
G1 X100.776 Y68.821 E0.32565
G1 X100.776 Y61.359 E0.34211
G1 X100.776 Y57.78 E0.16408
G1 X93.672 Y57.78 E0.32569
G0 F7200 X93.618 Y57.868
G0 X93.618 Y57.965
G0 X94.248 Y58.41
G0 X95.198 Y59.709
G0 X95.547 Y59.709
;TYPE:SKIN
G1 F1200 X95.548 Y66.892 E0.37048
G1 X98.847 Y66.892 E0.17015
G1 X98.847 Y61.359 E0.28538
G1 X98.847 Y59.709 E0.0851
G1 X95.547 Y59.709 E0.1702
G0 F7200 X95.198 Y59.709
G0 X95.27 Y59.432
G0 X99.124 Y59.432
G0 X99.196 Y60.392
G0 X98.576 Y60.392
G1 F1200 X98.163 Y59.979 E0.03012
G0 F7200 X97.399 Y59.979
G1 F1200 X98.576 Y61.156 E0.08585
G0 F7200 X98.576 Y61.919
G1 F1200 X96.636 Y59.979 E0.14151
G0 F7200 X95.872 Y59.979
G1 F1200 X98.576 Y62.683 E0.19723
G0 F7200 X98.576 Y63.447
G1 F1200 X95.816 Y60.687 E0.20132
G0 F7200 X95.816 Y61.451
G1 F1200 X98.576 Y64.21 E0.20128
G0 F7200 X98.576 Y64.974
G1 F1200 X95.816 Y62.214 E0.20132
G0 F7200 X95.816 Y62.978
G1 F1200 X98.576 Y65.738 E0.20132
G0 F7200 X98.576 Y66.501
G1 F1200 X95.816 Y63.742 E0.20128
G0 F7200 X95.816 Y64.505
G1 F1200 X97.932 Y66.622 E0.15438
G0 F7200 X97.169 Y66.622
G1 F1200 X95.816 Y65.269 E0.09869
G0 F7200 X95.816 Y66.033
G1 F1200 X96.405 Y66.622 E0.04296
G0 F7200 X96.405 Y67.621
G1 F2100 E-0.4
G1 F600 Z0.66
;MESH:V0 Press Fit Daybreak Mount (55) v3.stl(3)
EXCLUDE_OBJECT_END NAME=V0_Press_Fit_Daybreak_Mount_55_v3_stl_7
EXCLUDE_OBJECT_START NAME=V0_Press_Fit_Daybreak_Mount_55_v3_stl_3
G0 F7200 X96.405 Y67.621 Z0.66
G0 X92.62 Y77.564
;TYPE:WALL-INNER
G1 F600 Z0.26
G1 F840 E0.4
G1 F1200 X92.62 Y81.842 E0.19613
G1 X100.781 Y81.841 E0.37415
G1 X100.781 Y79.703 E0.09802
