;FLAVOR:RepRap
;TIME:784
;Filament used: 0.80591m
;Layer height: 0.15
;MINX:48.667
;MINY:48.662
;MINZ:0.2
;MAXX:111.341
;MAXY:111.338
;MAXZ:2.4
;Generated with Cura_SteamEngine 5.2.1
T0


; Pre-Processed for Cancel-Object support by preprocess_cancellation v0.2.0
; 1 known objects
EXCLUDE_OBJECT_DEFINE NAME=Wheel_A_outer_Beadlock_stl CENTER=79.959,80.013 POLYGON=[[53.226,53.226],[53.226,106.775],[106.774,106.775],[106.774,53.226]]
M82 ;absolute extrusion mode
PRINT_START BED=70 EXTRUDER=213 STANDBY=175 CHAMBER=28
M83 ;relative extrusion mode
G1 F7200 E-0.4
;LAYER_COUNT:13
;LAYER:0
M107
G1 F600 Z0.6
G0 F7200 X57.891 Y57.79 Z0.6
;TYPE:SKIRT
G1 F600 Z0.2
G1 F2880 E0.4
G1 F1800 X58.74 Y56.975 E0.0539
G1 X59.527 Y56.273 E0.0483
G1 X60.36 Y55.578 E0.04969
G1 X61.051 Y55.038 E0.04016
G1 X62.008 Y54.341 E0.05422
G1 X62.766 Y53.826 E0.04197
G1 X63.706 Y53.231 E0.05095
G1 X64.543 Y52.739 E0.04447
G1 X65.662 Y52.133 E0.05828
G1 X66.533 Y51.701 E0.04453
G1 X67.433 Y51.291 E0.04529
G1 X68.346 Y50.909 E0.04533
G1 X69.508 Y50.469 E0.05691
G1 X70.379 Y50.174 E0.04212
G1 X71.297 Y49.894 E0.04396
G1 X72.546 Y49.561 E0.0592
G1 X73.419 Y49.36 E0.04103
G1 X74.536 Y49.14 E0.05214
G1 X75.64 Y48.965 E0.05119
G1 X76.495 Y48.857 E0.03947
G1 X77.736 Y48.742 E0.05708
G1 X78.749 Y48.685 E0.04647
G1 X79.657 Y48.662 E0.0416
G1 X80.761 Y48.669 E0.05056
G1 X81.931 Y48.719 E0.05363
G1 X82.84 Y48.788 E0.04175
G1 X84.045 Y48.922 E0.05553
G1 X85.071 Y49.072 E0.04749
G1 X85.99 Y49.237 E0.04276
G1 X87.119 Y49.479 E0.05288
G1 X88.168 Y49.743 E0.04954
G1 X89.205 Y50.042 E0.04943
G1 X90.189 Y50.362 E0.04739
G1 X91.105 Y50.693 E0.04461
G1 X92.155 Y51.112 E0.05178
G1 X92.941 Y51.455 E0.03928
G1 X93.912 Y51.917 E0.04925
G1 X94.892 Y52.424 E0.05053
G1 X95.89 Y52.985 E0.05243
G1 X96.65 Y53.447 E0.04073
G1 X97.653 Y54.103 E0.05489
G1 X98.515 Y54.713 E0.04836
G1 X99.387 Y55.375 E0.05014
G1 X100.131 Y55.979 E0.04389
G1 X101.052 Y56.782 E0.05596
G1 X101.647 Y57.334 E0.03717
G1 X102.373 Y58.052 E0.04676
G1 X103.211 Y58.941 E0.05595
G1 X103.896 Y59.722 E0.04758
G1 X104.487 Y60.438 E0.04252
G1 X105.133 Y61.274 E0.04839
G1 X105.82 Y62.234 E0.05407
G1 X106.424 Y63.144 E0.05002
G1 X106.853 Y63.837 E0.03733
G1 X107.429 Y64.837 E0.05285
G1 X107.893 Y65.707 E0.04516
G1 X108.365 Y66.669 E0.04908
G1 X108.854 Y67.762 E0.05484
G1 X109.196 Y68.6 E0.04145
G1 X109.564 Y69.594 E0.04854
G1 X109.897 Y70.593 E0.04823
G1 X110.231 Y71.729 E0.05423
G1 X110.503 Y72.799 E0.05056
G1 X110.684 Y73.611 E0.0381
G1 X110.913 Y74.833 E0.05694
G1 X111.069 Y75.877 E0.04835
G1 X111.179 Y76.805 E0.0428
G1 X111.266 Y77.82 E0.04666
G1 X111.32 Y78.84 E0.04678
G1 X111.341 Y79.926 E0.04975
G1 X111.324 Y81.022 E0.0502
G1 X111.262 Y82.236 E0.05567
G1 X111.176 Y83.216 E0.04506
G1 X111.051 Y84.259 E0.04811
G1 X110.889 Y85.309 E0.04866
G1 X110.712 Y86.254 E0.04403
G1 X110.497 Y87.234 E0.04595
G1 X110.235 Y88.259 E0.04845
G1 X109.902 Y89.392 E0.05409
G1 X109.564 Y90.405 E0.04891
G1 X109.25 Y91.257 E0.04159
G1 X108.803 Y92.357 E0.05438
G1 X108.429 Y93.194 E0.04199
G1 X107.895 Y94.289 E0.0558
G1 X107.43 Y95.163 E0.04534
G1 X106.853 Y96.163 E0.05288
G1 X106.424 Y96.856 E0.03733
G1 X105.822 Y97.764 E0.0499
G1 X105.222 Y98.605 E0.04731
G1 X104.489 Y99.559 E0.0551
G1 X103.805 Y100.386 E0.04915
G1 X103.116 Y101.164 E0.0476
G1 X102.378 Y101.945 E0.04921
G1 X101.733 Y102.582 E0.04152
G1 X100.909 Y103.347 E0.0515
G1 X100.003 Y104.127 E0.05475
G1 X99.335 Y104.667 E0.03934
G1 X98.367 Y105.397 E0.05553
G1 X97.566 Y105.957 E0.04476
G1 X96.777 Y106.473 E0.04318
G1 X95.767 Y107.086 E0.05411
G1 X94.861 Y107.594 E0.04757
G1 X94.019 Y108.031 E0.04345
G1 X92.953 Y108.539 E0.05408
G1 X92.022 Y108.943 E0.04648
G1 X91.118 Y109.302 E0.04455
G1 X90.153 Y109.65 E0.04698
G1 X89.033 Y110.01 E0.05388
G1 X87.989 Y110.305 E0.04969
G1 X86.988 Y110.552 E0.04722
G1 X86.082 Y110.745 E0.04243
G1 X84.918 Y110.952 E0.05415
G1 X83.856 Y111.102 E0.04912
G1 X82.828 Y111.213 E0.04736
G1 X81.906 Y111.283 E0.04235
G1 X80.75 Y111.331 E0.05299
G1 X79.649 Y111.338 E0.05043
G1 X78.747 Y111.315 E0.04132
G1 X77.592 Y111.247 E0.05299
G1 X76.64 Y111.159 E0.04379
G1 X75.64 Y111.035 E0.04615
G1 X74.39 Y110.834 E0.05798
G1 X73.412 Y110.64 E0.04566
G1 X72.54 Y110.438 E0.04099
G1 X71.437 Y110.146 E0.05226
G1 X70.375 Y109.825 E0.05081
G1 X69.368 Y109.481 E0.04874
G1 X68.515 Y109.159 E0.04176
G1 X67.369 Y108.68 E0.05689
G1 X66.38 Y108.225 E0.04986
G1 X65.536 Y107.801 E0.04326
G1 X64.488 Y107.232 E0.05462
G1 X63.794 Y106.823 E0.03689
G1 X62.909 Y106.268 E0.04784
G1 X62.009 Y105.66 E0.04974
G1 X61.051 Y104.962 E0.05429
G1 X60.36 Y104.422 E0.04016
G1 X59.416 Y103.631 E0.05641
G1 X58.632 Y102.925 E0.04832
G1 X57.991 Y102.31 E0.04068
G1 X57.143 Y101.44 E0.05564
G1 X56.459 Y100.686 E0.04662
G1 X55.728 Y99.824 E0.05176
G1 X55.221 Y99.186 E0.03732
G1 X54.552 Y98.289 E0.05125
G1 X53.913 Y97.366 E0.05141
G1 X53.279 Y96.377 E0.0538
G1 X52.887 Y95.718 E0.03512
G1 X52.315 Y94.686 E0.05404
G1 X51.807 Y93.685 E0.05141
G1 X51.36 Y92.721 E0.04867
G1 X50.944 Y91.743 E0.04868
G1 X50.611 Y90.881 E0.04232
G1 X50.222 Y89.764 E0.05417
G1 X49.906 Y88.74 E0.04908
G1 X49.662 Y87.854 E0.04209
G1 X49.433 Y86.905 E0.04471
G1 X49.209 Y85.825 E0.05052
G1 X49.024 Y84.748 E0.05005
G1 X48.877 Y83.666 E0.05001
G1 X48.775 Y82.661 E0.04626
G1 X48.698 Y81.523 E0.05224
G1 X48.667 Y80.591 E0.04271
G1 X48.667 Y79.4 E0.05455
G1 X48.698 Y78.476 E0.04234
G1 X48.776 Y77.333 E0.05247
G1 X48.894 Y76.19 E0.05263
G1 X49.024 Y75.249 E0.04351
G1 X49.21 Y74.168 E0.05024
G1 X49.402 Y73.23 E0.04385
G1 X49.662 Y72.144 E0.05114
G1 X49.912 Y71.237 E0.04309
G1 X50.231 Y70.209 E0.0493
G1 X50.562 Y69.254 E0.04629
G1 X51.01 Y68.098 E0.05678
G1 X51.42 Y67.144 E0.04756
G1 X51.808 Y66.313 E0.042
G1 X52.312 Y65.32 E0.051
G1 X52.891 Y64.274 E0.05476
G1 X53.358 Y63.497 E0.04152
G1 X53.887 Y62.673 E0.04485
G1 X54.591 Y61.658 E0.05657
G1 X55.242 Y60.787 E0.0498
G1 X55.829 Y60.052 E0.04308
G1 X56.461 Y59.311 E0.0446
G1 X57.143 Y58.56 E0.04646
G1 X57.891 Y57.79 E0.04917
G0 F7200 X58.277 Y58.167
G1 F1800 X59.006 Y57.465 E0.04635
G1 X59.777 Y56.771 E0.04751
G1 X60.593 Y56.085 E0.04882
G1 X61.384 Y55.464 E0.04606
G1 X62.209 Y54.86 E0.04683
G1 X63.18 Y54.201 E0.05375
G1 X64.103 Y53.621 E0.04993
G1 X64.815 Y53.205 E0.03777
G1 X65.903 Y52.616 E0.05666
G1 X66.634 Y52.251 E0.03742
G1 X67.772 Y51.732 E0.05728
G1 X68.553 Y51.407 E0.03874
G1 X69.681 Y50.98 E0.05524
G1 X70.67 Y50.647 E0.04779
G1 X71.576 Y50.375 E0.04332
G1 X72.541 Y50.118 E0.04574
G1 X73.656 Y49.861 E0.05241
G1 X74.486 Y49.697 E0.03875
G1 X75.708 Y49.501 E0.05668
G1 X76.689 Y49.379 E0.04528
G1 X77.64 Y49.291 E0.04374
G1 X78.763 Y49.225 E0.05152
G1 X79.799 Y49.201 E0.04746
G1 X80.757 Y49.209 E0.04388
G1 X81.89 Y49.258 E0.05194
G1 X82.933 Y49.339 E0.04791
G1 X83.848 Y49.441 E0.04217
G1 X84.975 Y49.604 E0.05215
G1 X85.894 Y49.769 E0.04276
G1 X86.86 Y49.973 E0.04522
G1 X88.02 Y50.262 E0.05475
G1 X88.913 Y50.517 E0.04253
G1 X89.893 Y50.832 E0.04714
G1 X90.906 Y51.195 E0.04928
G1 X91.939 Y51.607 E0.05093
G1 X92.725 Y51.95 E0.03928
G1 X93.679 Y52.404 E0.04839
G1 X94.753 Y52.962 E0.05543
G1 X95.609 Y53.446 E0.04504
G1 X96.369 Y53.908 E0.04073
G1 X97.342 Y54.544 E0.05324
G1 X98.085 Y55.067 E0.04161
G1 X99.048 Y55.795 E0.05529
G1 X99.777 Y56.387 E0.04301
G1 X100.592 Y57.095 E0.04944
G1 X101.373 Y57.82 E0.04881
G1 X102.078 Y58.523 E0.0456
G1 X102.717 Y59.2 E0.04264
G1 X103.401 Y59.974 E0.04731
G1 X104.153 Y60.885 E0.0541
G1 X104.705 Y61.603 E0.04148
G1 X105.371 Y62.534 E0.05243
G1 X105.965 Y63.429 E0.0492
G1 X106.459 Y64.231 E0.04314
G1 X106.961 Y65.106 E0.0462
G1 X107.416 Y65.96 E0.04432
G1 X107.88 Y66.906 E0.04826
G1 X108.354 Y67.966 E0.05318
G1 X108.696 Y68.804 E0.04145
G1 X109.099 Y69.901 E0.05352
G1 X109.422 Y70.884 E0.04739
G1 X109.708 Y71.863 E0.04671
G1 X109.976 Y72.916 E0.04976
G1 X110.183 Y73.854 E0.04399
G1 X110.357 Y74.781 E0.0432
G1 X110.533 Y75.941 E0.05374
G1 X110.643 Y76.869 E0.0428
G1 X110.728 Y77.865 E0.04578
G1 X110.781 Y78.868 E0.046
G1 X110.801 Y80.069 E0.05501
G1 X110.78 Y81.138 E0.04897
G1 X110.724 Y82.19 E0.04825
G1 X110.64 Y83.153 E0.04427
G1 X110.535 Y84.047 E0.04123
G1 X110.358 Y85.209 E0.05383
G1 X110.156 Y86.278 E0.04983
G1 X109.97 Y87.117 E0.03936
G1 X109.679 Y88.244 E0.05331
G1 X109.39 Y89.222 E0.04671
G1 X109.099 Y90.1 E0.04236
G1 X108.698 Y91.188 E0.05311
G1 X108.361 Y92.017 E0.04098
G1 X107.883 Y93.087 E0.05367
G1 X107.418 Y94.037 E0.04844
G1 X107.026 Y94.778 E0.03839
G1 X106.394 Y95.878 E0.0581
G1 X105.965 Y96.571 E0.03733
G1 X105.372 Y97.465 E0.04913
G1 X104.783 Y98.291 E0.04646
G1 X104.072 Y99.216 E0.05343
G1 X103.4 Y100.029 E0.04831
G1 X102.804 Y100.705 E0.04128
G1 X101.998 Y101.561 E0.05385
G1 X101.353 Y102.198 E0.04152
G1 X100.555 Y102.939 E0.04987
G1 X99.759 Y103.627 E0.04819
G1 X98.893 Y104.327 E0.051
G1 X98.158 Y104.881 E0.04215
G1 X97.376 Y105.433 E0.04384
G1 X96.373 Y106.089 E0.05489
G1 X95.502 Y106.616 E0.04662
G1 X94.729 Y107.052 E0.04065
G1 X93.77 Y107.552 E0.04953
G1 X92.854 Y107.991 E0.04652
G1 X91.822 Y108.441 E0.05156
G1 X90.797 Y108.846 E0.05048
G1 X89.971 Y109.142 E0.04019
G1 X88.885 Y109.491 E0.05224
G1 X87.858 Y109.781 E0.04888
G1 X87.004 Y109.994 E0.04031
G1 X85.845 Y110.241 E0.05427
G1 X84.97 Y110.397 E0.04071
G1 X83.797 Y110.565 E0.05427
G1 X82.787 Y110.674 E0.04653
G1 X81.736 Y110.752 E0.04827
G1 X80.872 Y110.788 E0.0396
G1 X79.663 Y110.798 E0.05537
G1 X78.761 Y110.775 E0.04132
G1 X77.641 Y110.709 E0.05138
G1 X76.689 Y110.621 E0.04379
G1 X75.581 Y110.481 E0.05115
G1 X74.493 Y110.304 E0.05048
G1 X73.534 Y110.114 E0.04478
G1 X72.662 Y109.912 E0.04099
G1 X71.457 Y109.59 E0.05712
G1 X70.548 Y109.314 E0.04351
G1 X69.679 Y109.019 E0.04203
G1 X68.581 Y108.604 E0.05376
G1 X67.593 Y108.189 E0.04908
G1 X66.621 Y107.742 E0.049
G1 X65.902 Y107.383 E0.03681
G1 X64.886 Y106.836 E0.05285
G1 X63.974 Y106.3 E0.04845
G1 X63.085 Y105.738 E0.04817
G1 X62.312 Y105.213 E0.0428
G1 X61.486 Y104.613 E0.04676
G1 X60.693 Y103.996 E0.04602
G1 X59.874 Y103.313 E0.04884
G1 X59.006 Y102.535 E0.05339
G1 X58.276 Y101.832 E0.04642
G1 X57.542 Y101.077 E0.04823
G1 X56.955 Y100.433 E0.03991
G1 X56.233 Y99.588 E0.0509
G1 X55.568 Y98.752 E0.04892
G1 X54.985 Y97.967 E0.04478
G1 X54.437 Y97.178 E0.044
G1 X53.815 Y96.216 E0.05247
G1 X53.291 Y95.337 E0.04687
G1 X52.787 Y94.425 E0.04772
G1 X52.297 Y93.457 E0.04969
G1 X51.856 Y92.508 E0.04793
G1 X51.499 Y91.674 E0.04155
G1 X51.115 Y90.686 E0.04855
G1 X50.738 Y89.604 E0.05248
G1 X50.427 Y88.597 E0.04827
G1 X50.15 Y87.584 E0.0481
G1 X49.958 Y86.78 E0.03786
G1 X49.713 Y85.586 E0.05582
G1 X49.556 Y84.658 E0.04311
G1 X49.414 Y83.612 E0.04835
G1 X49.312 Y82.607 E0.04626
G1 X49.238 Y81.505 E0.05058
G1 X49.205 Y80.446 E0.04852
G1 X49.207 Y79.418 E0.04708
G1 X49.238 Y78.494 E0.04234
G1 X49.313 Y77.387 E0.05082
G1 X49.414 Y76.39 E0.0459
G1 X49.557 Y75.34 E0.04853
G1 X49.739 Y74.276 E0.04944
G1 X49.931 Y73.338 E0.04385
G1 X50.183 Y72.288 E0.04945
G1 X50.433 Y71.381 E0.04309
G1 X50.747 Y70.37 E0.04848
G1 X51.116 Y69.311 E0.05136
G1 X51.506 Y68.31 E0.0492
G1 X51.859 Y67.485 E0.0411
G1 X52.352 Y66.429 E0.05337
G1 X52.725 Y65.694 E0.03775
G1 X53.287 Y64.669 E0.05354
G1 X53.749 Y63.892 E0.0414
G1 X54.417 Y62.852 E0.05661
G1 X54.949 Y62.085 E0.04275
G1 X55.592 Y61.218 E0.04944
G1 X56.156 Y60.505 E0.04164
G1 X56.955 Y59.567 E0.05643
G1 X57.542 Y58.923 E0.03991
G1 X58.277 Y58.167 E0.04829
G0 F7200 X58.74 Y58.468
G1 F1800 X59.38 Y57.854 E0.04062
G1 X60.137 Y57.173 E0.04663
G1 X61.025 Y56.429 E0.05306
G1 X61.716 Y55.889 E0.04016
G1 X62.615 Y55.234 E0.05094
G1 X63.373 Y54.719 E0.04197
G1 X64.375 Y54.088 E0.05423
G1 X65.18 Y53.619 E0.04267
G1 X66.144 Y53.099 E0.05016
G1 X66.98 Y52.684 E0.04275
G1 X67.88 Y52.274 E0.04529
G1 X68.857 Y51.867 E0.04847
G1 X69.743 Y51.531 E0.0434
G1 X70.827 Y51.164 E0.05241
G1 X71.715 Y50.897 E0.04247
G1 X72.788 Y50.613 E0.05083
G1 X73.661 Y50.412 E0.04103
G1 X74.707 Y50.206 E0.04883
G1 X75.667 Y50.052 E0.04453
G1 X76.739 Y49.917 E0.04948
G1 X77.69 Y49.829 E0.04374
G1 X78.776 Y49.765 E0.04982
G1 X79.794 Y49.741 E0.04664
G1 X80.867 Y49.752 E0.04915
G1 X81.85 Y49.796 E0.04507
G1 X82.759 Y49.865 E0.04175
G1 X83.892 Y49.991 E0.05221
G1 X84.88 Y50.135 E0.04573
G1 X85.799 Y50.3 E0.04276
G1 X86.857 Y50.526 E0.04955
G1 X87.766 Y50.753 E0.04291
G1 X88.873 Y51.069 E0.05272
G1 X89.727 Y51.345 E0.0411
G1 X90.707 Y51.697 E0.04769
G1 X91.62 Y52.059 E0.04498
G1 X92.612 Y52.492 E0.04957
G1 X93.544 Y52.94 E0.04736
G1 X94.488 Y53.433 E0.04878
G1 X95.329 Y53.908 E0.04424
G1 X96.089 Y54.37 E0.04073
G1 X97.031 Y54.986 E0.05155
G1 X97.864 Y55.574 E0.0467
G1 X98.626 Y56.15 E0.04375
G1 X99.423 Y56.794 E0.04693
G1 X100.238 Y57.502 E0.04944
G1 X100.993 Y58.203 E0.04718
G1 X101.685 Y58.893 E0.04476
G1 X102.324 Y59.57 E0.04264
G1 X103.063 Y60.409 E0.05121
G1 X103.654 Y61.125 E0.04252
G1 X104.343 Y62.022 E0.0518
G1 X104.859 Y62.743 E0.04061
G1 X105.446 Y63.621 E0.04837
G1 X105.99 Y64.5 E0.04734
G1 X106.545 Y65.47 E0.05118
G1 X106.989 Y66.311 E0.04356
G1 X107.395 Y67.143 E0.0424
G1 X107.854 Y68.17 E0.05152
G1 X108.196 Y69.008 E0.04145
G1 X108.551 Y69.967 E0.04683
G1 X108.872 Y70.933 E0.04662
G1 X109.185 Y71.997 E0.0508
G1 X109.425 Y72.933 E0.04425
G1 X109.63 Y73.846 E0.04286
G1 X109.826 Y74.881 E0.04824
G1 X109.996 Y76.004 E0.05202
G1 X110.118 Y77.045 E0.048
G1 X110.197 Y78.014 E0.04453
G1 X110.246 Y79.006 E0.04549
G1 X110.262 Y79.944 E0.04297
G1 X110.241 Y81.11 E0.05341
G1 X110.194 Y82.032 E0.04228
G1 X110.104 Y83.09 E0.04863
G1 X109.984 Y84.096 E0.0464
G1 X109.846 Y85.001 E0.04193
G1 X109.65 Y86.055 E0.0491
G1 X109.416 Y87.11 E0.04949
G1 X109.161 Y88.092 E0.04647
G1 X108.911 Y88.944 E0.04067
G1 X108.586 Y89.93 E0.04755
G1 X108.236 Y90.884 E0.04654
G1 X107.817 Y91.916 E0.05101
G1 X107.443 Y92.753 E0.04199
G1 X106.99 Y93.686 E0.0475
G1 X106.493 Y94.625 E0.04866
G1 X105.934 Y95.594 E0.05123
G1 X105.447 Y96.378 E0.04227
G1 X104.923 Y97.165 E0.0433
G1 X104.279 Y98.064 E0.05065
G1 X103.656 Y98.873 E0.04676
G1 X103.066 Y99.589 E0.04249
G1 X102.399 Y100.348 E0.04628
G1 X101.619 Y101.177 E0.05213
G1 X100.903 Y101.882 E0.04602
G1 X100.291 Y102.451 E0.03827
G1 X99.324 Y103.287 E0.05854
G1 X98.656 Y103.827 E0.03934
G1 X97.833 Y104.449 E0.04725
G1 X96.975 Y105.053 E0.04806
G1 X96.186 Y105.569 E0.04318
G1 X95.327 Y106.092 E0.04606
G1 X94.463 Y106.581 E0.04547
G1 X93.423 Y107.122 E0.05369
G1 X92.622 Y107.504 E0.04064
G1 X91.623 Y107.939 E0.0499
G1 X90.719 Y108.298 E0.04455
G1 X89.687 Y108.668 E0.05021
G1 X88.738 Y108.971 E0.04563
G1 X87.727 Y109.257 E0.04812
G1 X86.873 Y109.47 E0.04031
G1 X85.75 Y109.709 E0.05258
G1 X84.765 Y109.883 E0.04581
G1 X83.844 Y110.015 E0.04261
G1 X82.747 Y110.136 E0.05055
G1 X81.825 Y110.206 E0.04235
G1 X80.74 Y110.251 E0.04973
G1 X79.677 Y110.258 E0.04869
G1 X78.775 Y110.235 E0.04132
G1 X77.691 Y110.171 E0.04973
G1 X76.63 Y110.071 E0.04881
G1 X75.667 Y109.948 E0.04446
G1 X74.708 Y109.794 E0.04448
G1 X73.656 Y109.588 E0.0491
G1 X72.68 Y109.36 E0.0459
G1 X71.716 Y109.103 E0.04569
G1 X70.828 Y108.836 E0.04247
G1 X69.749 Y108.47 E0.05218
G1 X68.79 Y108.106 E0.04698
G1 X67.818 Y107.698 E0.04828
G1 X66.862 Y107.259 E0.04818
G1 X66.143 Y106.9 E0.03681
G1 X65.143 Y106.361 E0.05203
G1 X64.261 Y105.843 E0.04685
G1 X63.484 Y105.354 E0.04205
G1 X62.527 Y104.704 E0.05298
G1 X61.716 Y104.111 E0.04601
G1 X61.025 Y103.571 E0.04016
G1 X60.137 Y102.827 E0.05306
G1 X59.38 Y102.146 E0.04663
G1 X58.739 Y101.531 E0.04068
G1 X57.941 Y100.713 E0.05234
G1 X57.354 Y100.069 E0.03991
G1 X56.644 Y99.238 E0.05006
G1 X56.002 Y98.43 E0.04726
G1 X55.355 Y97.556 E0.0498
G1 X54.821 Y96.781 E0.0431
G1 X54.269 Y95.924 E0.04669
G1 X53.764 Y95.076 E0.0452
G1 X53.205 Y94.06 E0.05311
G1 X52.786 Y93.229 E0.04262
G1 X52.353 Y92.296 E0.04711
G1 X51.996 Y91.462 E0.04155
G1 X51.581 Y90.39 E0.05265
G1 X51.253 Y89.444 E0.04586
G1 X50.977 Y88.556 E0.04259
G1 X50.675 Y87.459 E0.05211
G1 X50.483 Y86.655 E0.03786
G1 X50.267 Y85.608 E0.04896
G1 X50.089 Y84.567 E0.04837
G1 X49.952 Y83.557 E0.04668
G1 X49.84 Y82.442 E0.05132
G1 X49.783 Y81.598 E0.03874
G1 X49.745 Y80.446 E0.05279
G1 X49.745 Y79.546 E0.04122
G1 X49.778 Y78.512 E0.04738
G1 X49.851 Y77.441 E0.04916
