;FLAVOR:RepRap
;TIME:2276
;Filament used: 2.26858m
;Layer height: 0.2
;MINX:49.186
;MINY:54.74
;MINZ:0.2
;MAXX:112.339
;MAXY:104.655
;MAXZ:10.2
;Generated with Cura_SteamEngine 5.2.1
T0


; Pre-Processed for Cancel-Object support by preprocess_cancellation v0.2.0
; 8 known objects
EXCLUDE_OBJECT_DEFINE NAME=X45_fixation_1_stl_7 CENTER=77.807,64.660 POLYGON=[[68.765,59.821],[68.765,69.415],[86.709,69.415],[86.709,59.821]]
EXCLUDE_OBJECT_DEFINE NAME=X45_fixation_1_stl_4 CENTER=80.018,80.028 POLYGON=[[75.192,71.071],[75.192,89.015],[84.786,89.015],[84.786,71.071]]
EXCLUDE_OBJECT_DEFINE NAME=X45_fixation_1_stl_3 CENTER=91.117,77.725 POLYGON=[[86.302,68.772],[86.302,86.716],[95.896,86.716],[95.896,68.772]]
EXCLUDE_OBJECT_DEFINE NAME=X45_fixation_1_stl_2 CENTER=102.460,78.969 POLYGON=[[97.664,69.99],[97.664,87.934],[107.258,87.934],[107.258,69.99]]
EXCLUDE_OBJECT_DEFINE NAME=X45_fixation_1_stl_1 CENTER=94.735,92.780 POLYGON=[[85.69,87.954],[85.69,97.548],[103.634,97.548],[103.634,87.954]]
EXCLUDE_OBJECT_DEFINE NAME=X45_fixation_1_stl CENTER=75.709,94.806 POLYGON=[[66.669,89.98],[66.669,99.574],[84.613,99.574],[84.613,89.98]]
EXCLUDE_OBJECT_DEFINE NAME=X45_fixation_1_stl_5 CENTER=68.778,77.916 POLYGON=[[63.965,68.96],[63.965,86.904],[73.559,86.904],[73.559,68.96]]
EXCLUDE_OBJECT_DEFINE NAME=X45_fixation_1_stl_6 CENTER=59.076,85.885 POLYGON=[[54.267,76.921],[54.267,94.865],[63.861,94.865],[63.861,76.921]]
M82 ;absolute extrusion mode
PRINT_START BED=60 EXTRUDER=220 STANDBY=175 CHAMBER=28
M83 ;relative extrusion mode
G1 F2100 E-0.4
;LAYER_COUNT:50
;LAYER:0
M107
G1 F600 Z0.4
G0 F7200 X66.482 Y58.359 Z0.4
;TYPE:SKIRT
G1 F600 Z0.2
G1 F840 E0.4
G1 F1800 X66.928 Y57.921 E0.02807
G1 X67.427 Y57.545 E0.02805
G1 X67.97 Y57.235 E0.02807
G1 X68.548 Y56.997 E0.02807
G1 X68.874 Y56.899 E0.01528
G1 X69.486 Y56.738 E0.02841
G1 X72.085 Y56.02 E0.12107
G1 X74.397 Y55.305 E0.10866
G1 X74.804 Y55.186 E0.01904
G1 X75.335 Y55.062 E0.02448
G1 X76.348 Y54.887 E0.04616
G1 X77.033 Y54.789 E0.03107
G1 X77.657 Y54.74 E0.0281
G1 X78.418 Y54.789 E0.03424
G1 X79.292 Y54.914 E0.03964
G1 X80.116 Y55.055 E0.03754
G1 X80.722 Y55.2 E0.02798
G1 X83.209 Y55.967 E0.11686
G1 X85.878 Y56.708 E0.12437
G1 X86.609 Y56.901 E0.03395
G1 X87.202 Y57.099 E0.02807
G1 X87.821 Y57.403 E0.03096
G1 X89.097 Y58.146 E0.0663
G1 X91.445 Y59.461 E0.12084
G1 X93.832 Y60.711 E0.12099
G1 X96.223 Y61.879 E0.11948
G1 X98.711 Y63.007 E0.12266
G1 X101.152 Y64.032 E0.11887
G1 X104.111 Y65.167 E0.1423
G1 X104.558 Y65.365 E0.02195
G1 X105.59 Y65.885 E0.05189
G1 X107.349 Y66.809 E0.08922
G1 X107.787 Y67.047 E0.02238
G1 X108.316 Y67.38 E0.02807
G1 X108.798 Y67.778 E0.02807
G1 X109.226 Y68.234 E0.02808
G1 X109.592 Y68.741 E0.02808
G1 X109.89 Y69.29 E0.02805
G1 X110.183 Y70.108 E0.03901
G1 X110.329 Y70.668 E0.02599
G1 X111.066 Y73.333 E0.12415
G1 X111.879 Y75.978 E0.12425
G1 X112.025 Y76.588 E0.02816
G1 X112.192 Y77.573 E0.04486
G1 X112.29 Y78.258 E0.03107
G1 X112.339 Y78.882 E0.0281
G1 X112.29 Y79.643 E0.03424
G1 X112.143 Y80.657 E0.04601
G1 X112.025 Y81.34 E0.03112
G1 X111.879 Y81.949 E0.02812
G1 X111.109 Y84.444 E0.11724
G1 X110.378 Y87.075 E0.12261
G1 X110.281 Y87.461 E0.01787
G1 X109.846 Y89.043 E0.07367
G1 X109.72 Y89.476 E0.02025
G1 X108.904 Y92.648 E0.14706
G1 X108.618 Y93.845 E0.05526
G1 X108.434 Y94.442 E0.02805
G1 X108.231 Y94.903 E0.02262
G1 X107.734 Y95.891 E0.04966
G1 X106.815 Y97.639 E0.08867
G1 X106.577 Y98.077 E0.02238
G1 X106.244 Y98.606 E0.02807
G1 X105.846 Y99.088 E0.02807
G1 X105.39 Y99.516 E0.02808
G1 X104.883 Y99.882 E0.02808
G1 X104.334 Y100.18 E0.02805
G1 X103.521 Y100.472 E0.03879
G1 X102.903 Y100.634 E0.02869
G1 X100.271 Y101.362 E0.12262
G1 X97.65 Y102.168 E0.12312
G1 X97.042 Y102.313 E0.02807
G1 X96.051 Y102.482 E0.04514
G1 X95.353 Y102.582 E0.03166
G1 X94.784 Y102.629 E0.02564
G1 X93.413 Y102.664 E0.06158
G1 X90.652 Y102.781 E0.12408
G1 X87.958 Y102.972 E0.12127
G1 X85.288 Y103.237 E0.12048
G1 X82.652 Y103.574 E0.11932
G1 X79.953 Y103.998 E0.12267
G1 X77.181 Y104.484 E0.12636
G1 X76.345 Y104.606 E0.03793
G1 X75.721 Y104.655 E0.0281
G1 X74.96 Y104.606 E0.03424
G1 X74.086 Y104.481 E0.03964
G1 X73.262 Y104.34 E0.03754
G1 X72.659 Y104.195 E0.02785
G1 X70.18 Y103.431 E0.11648
G1 X67.489 Y102.684 E0.1254
G1 X66.775 Y102.496 E0.03315
G1 X66.457 Y102.401 E0.0149
G1 X65.282 Y102.005 E0.05567
G1 X62.662 Y101.161 E0.12359
G1 X60.097 Y100.416 E0.11993
G1 X59.166 Y100.175 E0.04318
G1 X57.846 Y99.82 E0.06138
G1 X57.254 Y99.62 E0.02806
G1 X56.916 Y99.465 E0.0167
G1 X55.924 Y98.965 E0.04988
G1 X54.176 Y98.046 E0.08867
G1 X53.738 Y97.808 E0.02238
G1 X53.209 Y97.475 E0.02807
G1 X52.727 Y97.077 E0.02807
G1 X52.299 Y96.621 E0.02808
G1 X51.933 Y96.114 E0.02808
G1 X51.635 Y95.565 E0.02805
G1 X51.342 Y94.748 E0.03897
G1 X51.182 Y94.136 E0.0284
G1 X50.469 Y91.555 E0.12023
G1 X49.649 Y88.887 E0.12533
G1 X49.505 Y88.284 E0.02784
G1 X49.333 Y87.282 E0.04565
G1 X49.235 Y86.597 E0.03107
G1 X49.186 Y85.973 E0.0281
G1 X49.235 Y85.212 E0.03424
G1 X49.36 Y84.338 E0.03964
G1 X49.501 Y83.514 E0.03754
G1 X49.646 Y82.907 E0.02802
G1 X50.415 Y80.411 E0.11727
G1 X51.157 Y77.742 E0.12439
G1 X51.343 Y77.033 E0.03291
G1 X51.54 Y76.439 E0.0281
G1 X51.811 Y75.876 E0.02806
G1 X52.151 Y75.352 E0.02805
G1 X52.643 Y74.788 E0.03361
G1 X54.857 Y72.609 E0.13948
G1 X56.725 Y70.658 E0.12128
G1 X58.515 Y68.681 E0.11975
G1 X60.295 Y66.597 E0.12306
G1 X61.951 Y64.545 E0.1184
G1 X63.604 Y62.372 E0.12259
G1 X65.155 Y60.209 E0.11951
G1 X66.094 Y58.849 E0.07421
G1 X66.482 Y58.359 E0.02806
G0 F7200 X66.906 Y58.695
G1 F1800 X67.332 Y58.287 E0.02649
G1 X67.809 Y57.941 E0.02646
G1 X68.329 Y57.663 E0.02648
G1 X69.011 Y57.421 E0.03249
G1 X69.595 Y57.267 E0.02712
G1 X72.227 Y56.54 E0.12261
G1 X74.483 Y55.842 E0.10603
G1 X74.955 Y55.704 E0.02208
G1 X75.428 Y55.594 E0.02181
G1 X76.425 Y55.422 E0.04543
G1 X77.11 Y55.324 E0.03107
G1 X77.698 Y55.28 E0.02648
G1 X78.342 Y55.324 E0.02898
G1 X79.342 Y55.469 E0.04537
G1 X80.024 Y55.587 E0.03108
G1 X80.563 Y55.716 E0.02489
G1 X83.087 Y56.494 E0.11859
G1 X85.691 Y57.217 E0.12135
G1 X86.471 Y57.423 E0.03622
G1 X87.029 Y57.612 E0.02645
G1 X87.549 Y57.87 E0.02606
G1 X88.803 Y58.6 E0.06515
G1 X91.172 Y59.927 E0.12192
G1 X93.6 Y61.199 E0.12307
G1 X96.005 Y62.373 E0.12017
G1 X98.462 Y63.487 E0.12113
G1 X100.994 Y64.55 E0.1233
G1 X103.918 Y65.672 E0.14063
G1 X104.315 Y65.847 E0.01948
G1 X105.339 Y66.363 E0.05149
G1 X107.091 Y67.284 E0.08887
G1 X107.529 Y67.522 E0.02238
G1 X108.027 Y67.838 E0.02648
G1 X108.477 Y68.218 E0.02645
G1 X108.872 Y68.656 E0.02648
G1 X109.204 Y69.143 E0.02646
G1 X109.467 Y69.671 E0.02649
G1 X109.661 Y70.245 E0.02721
G1 X109.809 Y70.812 E0.02631
G1 X110.552 Y73.497 E0.12509
G1 X111.363 Y76.137 E0.12401
G1 X111.492 Y76.679 E0.02502
G1 X111.657 Y77.65 E0.04422
G1 X111.755 Y78.335 E0.03107
G1 X111.799 Y78.923 E0.02648
G1 X111.755 Y79.567 E0.02898
G1 X111.63 Y80.441 E0.03964
G1 X111.492 Y81.249 E0.03681
G1 X111.363 Y81.79 E0.02497
G1 X110.582 Y84.321 E0.11893
G1 X109.861 Y86.919 E0.12106
G1 X109.734 Y87.418 E0.02312
G1 X109.202 Y89.322 E0.08877
G1 X108.38 Y92.519 E0.14822
G1 X108.093 Y93.719 E0.0554
G1 X107.917 Y94.282 E0.02649
G1 X107.748 Y94.661 E0.01863
G1 X107.256 Y95.639 E0.04916
G1 X106.34 Y97.381 E0.08837
G1 X106.102 Y97.819 E0.02238
G1 X105.786 Y98.317 E0.02648
G1 X105.406 Y98.767 E0.02645
G1 X104.968 Y99.162 E0.02648
G1 X104.481 Y99.494 E0.02646
G1 X103.953 Y99.757 E0.02649
G1 X103.384 Y99.95 E0.02698
G1 X102.77 Y100.111 E0.0285
G1 X100.107 Y100.848 E0.12407
G1 X97.491 Y101.652 E0.12288
G1 X96.95 Y101.781 E0.02497
G1 X95.975 Y101.947 E0.04441
G1 X95.277 Y102.047 E0.03166
G1 X94.771 Y102.09 E0.0228
G1 X93.325 Y102.127 E0.06495
G1 X90.626 Y102.241 E0.1213
G1 X87.939 Y102.432 E0.12095
G1 X85.233 Y102.7 E0.1221
G1 X82.537 Y103.045 E0.12204
G1 X79.896 Y103.46 E0.12004
G1 X77.088 Y103.952 E0.128
G1 X76.268 Y104.071 E0.0372
G1 X75.68 Y104.115 E0.02648
G1 X75.036 Y104.071 E0.02898
G1 X74.034 Y103.926 E0.04546
G1 X73.354 Y103.808 E0.03099
G1 X72.818 Y103.679 E0.02475
G1 X70.302 Y102.904 E0.11821
G1 X67.691 Y102.179 E0.12167
G1 X66.912 Y101.974 E0.03617
G1 X66.629 Y101.889 E0.01327
G1 X65.463 Y101.496 E0.05525
G1 X62.807 Y100.641 E0.12528
G1 X60.243 Y99.896 E0.11989
G1 X59.306 Y99.654 E0.04345
G1 X57.986 Y99.299 E0.06138
G1 X57.429 Y99.107 E0.02645
G1 X57.159 Y98.983 E0.01334
G1 X56.176 Y98.487 E0.04944
G1 X54.434 Y97.571 E0.08837
G1 X53.996 Y97.333 E0.02238
G1 X53.498 Y97.017 E0.02648
G1 X53.048 Y96.637 E0.02645
G1 X52.653 Y96.199 E0.02648
G1 X52.321 Y95.712 E0.02646
G1 X52.058 Y95.184 E0.02649
G1 X51.864 Y94.611 E0.02716
G1 X51.704 Y93.999 E0.0284
G1 X50.984 Y91.392 E0.12144
G1 X50.165 Y88.728 E0.12514
G1 X50.037 Y88.192 E0.02474
G1 X49.868 Y87.205 E0.04496
G1 X49.77 Y86.52 E0.03107
G1 X49.726 Y85.932 E0.02648
G1 X49.77 Y85.288 E0.02898
G1 X49.915 Y84.288 E0.04537
G1 X50.033 Y83.606 E0.03108
G1 X50.162 Y83.066 E0.02493
G1 X50.943 Y80.534 E0.11898
G1 X51.661 Y77.948 E0.12051
G1 X51.865 Y77.17 E0.03611
G1 X52.053 Y76.611 E0.02648
G1 X52.315 Y76.083 E0.02647
G1 X52.645 Y75.594 E0.02649
G1 X53.022 Y75.173 E0.02537
G1 X55.244 Y72.986 E0.13999
G1 X57.117 Y71.03 E0.1216
G1 X58.927 Y69.032 E0.12105
G1 X60.694 Y66.963 E0.12217
G1 X62.386 Y64.865 E0.12102
G1 X64.041 Y62.69 E0.12272
G1 X65.607 Y60.506 E0.12067
G1 X66.539 Y59.156 E0.07366
G1 X66.906 Y58.695 E0.02646
G0 F7200 X67.328 Y59.033
G1 F1800 X67.733 Y58.657 E0.02481
G1 X68.187 Y58.344 E0.02476
G1 X68.681 Y58.099 E0.02476
G1 X69.149 Y57.943 E0.02215
G1 X69.761 Y57.782 E0.02841
G1 X72.369 Y57.062 E0.12148
G1 X74.7 Y56.341 E0.10956
G1 X75.107 Y56.222 E0.01904
G1 X75.521 Y56.126 E0.01908
G1 X76.501 Y55.956 E0.04466
G1 X77.186 Y55.858 E0.03107
G1 X77.737 Y55.82 E0.0248
G1 X78.265 Y55.858 E0.02377
G1 X79.139 Y55.983 E0.03964
G1 X79.932 Y56.119 E0.03613
G1 X80.404 Y56.232 E0.02179
G1 X82.922 Y57.008 E0.11831
G1 X85.553 Y57.739 E0.12261
G1 X86.333 Y57.945 E0.03622
G1 X86.855 Y58.124 E0.02478
G1 X87.278 Y58.337 E0.02127
G1 X88.536 Y59.07 E0.06537
G1 X90.941 Y60.417 E0.12377
G1 X93.326 Y61.665 E0.12086
G1 X95.787 Y62.867 E0.12298
G1 X98.255 Y63.986 E0.12167
G1 X100.77 Y65.042 E0.12248
G1 X103.725 Y66.176 E0.14212
G1 X104.072 Y66.33 E0.01705
G1 X105.088 Y66.841 E0.05106
G1 X106.833 Y67.758 E0.08851
G1 X107.271 Y67.996 E0.02238
G1 X107.736 Y68.294 E0.0248
G1 X108.152 Y68.656 E0.02476
G1 X108.512 Y69.074 E0.02477
G1 X108.808 Y69.54 E0.02479
G1 X109.033 Y70.043 E0.02474
G1 X109.138 Y70.381 E0.01589
G1 X109.288 Y70.956 E0.02668
G1 X110.027 Y73.628 E0.12448
G1 X110.847 Y76.296 E0.12533
G1 X110.96 Y76.771 E0.02192
G1 X111.123 Y77.726 E0.0435
G1 X111.221 Y78.411 E0.03107
G1 X111.259 Y78.962 E0.0248
G1 X111.221 Y79.49 E0.02377
G1 X111.096 Y80.364 E0.03964
G1 X110.96 Y81.157 E0.03613
G1 X110.847 Y81.631 E0.02188
G1 X110.068 Y84.157 E0.11869
G1 X109.341 Y86.774 E0.12196
G1 X109.234 Y87.197 E0.01959
G1 X108.677 Y89.198 E0.09326
G1 X107.846 Y92.427 E0.14971
G1 X107.567 Y93.593 E0.05383
G1 X107.401 Y94.119 E0.02477
G1 X107.266 Y94.418 E0.01473
G1 X106.778 Y95.388 E0.04876
G1 X105.866 Y97.123 E0.08801
G1 X105.628 Y97.561 E0.02238
G1 X105.33 Y98.026 E0.0248
G1 X104.968 Y98.442 E0.02476
G1 X104.55 Y98.802 E0.02477
G1 X104.084 Y99.098 E0.02479
G1 X103.581 Y99.323 E0.02474
G1 X103.247 Y99.427 E0.01571
G1 X102.638 Y99.587 E0.02827
G1 X99.986 Y100.32 E0.12354
G1 X97.333 Y101.136 E0.12463
G1 X96.859 Y101.249 E0.02188
G1 X96.004 Y101.396 E0.03895
G1 X95.2 Y101.512 E0.03647
G1 X94.757 Y101.55 E0.01996
G1 X93.348 Y101.586 E0.06329
G1 X90.565 Y101.704 E0.12507
G1 X87.883 Y101.894 E0.12073
G1 X85.183 Y102.162 E0.12183
G1 X82.485 Y102.507 E0.12213
G1 X79.777 Y102.933 E0.12309
G1 X76.877 Y103.439 E0.13218
G1 X76.192 Y103.537 E0.03107
G1 X75.641 Y103.575 E0.0248
G1 X75.113 Y103.537 E0.02377
G1 X74.239 Y103.412 E0.03964
G1 X73.447 Y103.276 E0.03608
G1 X72.977 Y103.163 E0.0217
G1 X70.466 Y102.39 E0.11797
G1 X67.828 Y101.657 E0.12294
G1 X67.049 Y101.452 E0.03617
G1 X66.802 Y101.377 E0.01159
G1 X65.629 Y100.982 E0.05558
G1 X62.984 Y100.13 E0.12477
G1 X60.368 Y99.37 E0.12232
G1 X59.447 Y99.132 E0.04271
G1 X58.127 Y98.777 E0.06138
G1 X57.402 Y98.501 E0.03483
G1 X56.427 Y98.009 E0.04904
G1 X54.692 Y97.097 E0.08801
G1 X54.254 Y96.859 E0.02238
G1 X53.789 Y96.561 E0.0248
G1 X53.373 Y96.199 E0.02476
G1 X53.013 Y95.781 E0.02477
G1 X52.717 Y95.315 E0.02479
G1 X52.492 Y94.812 E0.02474
G1 X52.387 Y94.475 E0.01585
G1 X52.227 Y93.863 E0.0284
G1 X51.508 Y91.26 E0.12125
G1 X50.681 Y88.569 E0.12641
G1 X50.569 Y88.1 E0.02165
G1 X50.402 Y87.129 E0.04424
G1 X50.304 Y86.444 E0.03107
G1 X50.266 Y85.893 E0.0248
G1 X50.304 Y85.365 E0.02377
G1 X50.429 Y84.491 E0.03964
G1 X50.565 Y83.698 E0.03613
G1 X50.678 Y83.225 E0.02184
G1 X51.457 Y80.698 E0.11873
G1 X52.198 Y78.031 E0.12429
G1 X52.388 Y77.307 E0.03361
G1 X52.566 Y76.784 E0.02481
G1 X52.818 Y76.294 E0.02474
G1 X53.138 Y75.844 E0.02479
G1 X53.401 Y75.558 E0.01745
G1 X55.615 Y73.379 E0.13948
G1 X57.525 Y71.384 E0.12401
G1 X59.34 Y69.38 E0.1214
G1 X61.092 Y67.328 E0.12115
G1 X62.822 Y65.185 E0.12366
G1 X64.448 Y63.047 E0.12061
G1 X66.077 Y60.775 E0.12553
G1 X66.983 Y59.463 E0.07159
G1 X67.328 Y59.033 E0.02475
G0 F7200 X67.75 Y59.373
G1 F1800 X68.13 Y59.032 E0.02293
G1 X68.559 Y58.754 E0.02295
G1 X69.026 Y58.546 E0.02295
G1 X69.286 Y58.466 E0.01221
G1 X69.859 Y58.315 E0.02661
G1 X72.532 Y57.576 E0.12452
G1 X74.851 Y56.859 E0.10899
G1 X75.258 Y56.74 E0.01904
G1 X75.614 Y56.658 E0.0164
G1 X76.578 Y56.491 E0.04393
G1 X77.263 Y56.393 E0.03107
G1 X77.773 Y56.36 E0.02295
G1 X78.189 Y56.393 E0.01874
G1 X79.157 Y56.533 E0.04392
G1 X79.839 Y56.651 E0.03108
G1 X80.245 Y56.748 E0.01874
G1 X82.767 Y57.525 E0.11849
G1 X85.415 Y58.261 E0.12341
G1 X86.195 Y58.467 E0.03622
G1 X86.677 Y58.636 E0.02293
G1 X87.006 Y58.803 E0.01657
G1 X88.287 Y59.549 E0.06656
G1 X90.668 Y60.883 E0.12255
G1 X93.08 Y62.146 E0.12225
G1 X95.583 Y63.368 E0.12507
G1 X98.036 Y64.48 E0.12093
G1 X100.567 Y65.543 E0.12326
G1 X103.531 Y66.68 E0.14254
G1 X103.83 Y66.812 E0.01468
G1 X104.837 Y67.319 E0.05062
G1 X106.575 Y68.233 E0.08817
G1 X107.013 Y68.471 E0.02238
G1 X107.442 Y68.749 E0.02295
G1 X107.822 Y69.091 E0.02296
G1 X108.144 Y69.488 E0.02295
G1 X108.4 Y69.93 E0.02293
G1 X108.616 Y70.518 E0.02813
G1 X108.768 Y71.1 E0.02701
G1 X109.508 Y73.775 E0.12462
G1 X110.331 Y76.454 E0.12584
G1 X110.428 Y76.862 E0.01883
G1 X110.574 Y77.713 E0.03877
G1 X110.686 Y78.488 E0.03516
G1 X110.719 Y78.998 E0.02295
G1 X110.686 Y79.414 E0.01874
G1 X110.546 Y80.382 E0.04392
G1 X110.428 Y81.065 E0.03112
G1 X110.331 Y81.472 E0.01879
G1 X109.551 Y84.001 E0.11883
G1 X108.807 Y86.679 E0.1248
G1 X108.693 Y87.131 E0.02093
G1 X108.161 Y89.035 E0.08877
G1 X107.323 Y92.293 E0.15105
G1 X107.042 Y93.468 E0.05425
G1 X106.784 Y94.176 E0.03383
G1 X106.3 Y95.137 E0.04831
G1 X105.391 Y96.865 E0.08767
G1 X105.153 Y97.303 E0.02238
G1 X104.875 Y97.732 E0.02295
G1 X104.533 Y98.112 E0.02296
G1 X104.136 Y98.434 E0.02295
G1 X103.694 Y98.69 E0.02293
G1 X103.11 Y98.905 E0.02794
G1 X102.504 Y99.064 E0.02813
G1 X99.822 Y99.806 E0.12495
G1 X97.174 Y100.62 E0.12439
G1 X96.767 Y100.717 E0.01879
G1 X95.912 Y100.864 E0.03895
G1 X95.124 Y100.978 E0.03575
G1 X94.743 Y101.01 E0.01717
G1 X93.311 Y101.046 E0.06432
G1 X90.573 Y101.163 E0.12305
G1 X87.827 Y101.357 E0.12361
G1 X85.132 Y101.624 E0.1216
G1 X82.375 Y101.977 E0.1248
G1 X79.698 Y102.398 E0.12168
G1 X76.901 Y102.888 E0.1275
G1 X76.115 Y103.002 E0.03566
G1 X75.605 Y103.035 E0.02295
G1 X75.189 Y103.002 E0.01874
G1 X74.219 Y102.862 E0.04401
G1 X73.539 Y102.744 E0.03099
G1 X73.136 Y102.647 E0.01861
G1 X70.622 Y101.873 E0.11811
G1 X67.923 Y101.123 E0.12578
G1 X67.187 Y100.929 E0.03418
G1 X66.974 Y100.866 E0.00997
G1 X65.752 Y100.454 E0.0579
G1 X63.13 Y99.61 E0.12368
G1 X60.523 Y98.852 E0.1219
G1 X59.587 Y98.611 E0.0434
G1 X58.267 Y98.256 E0.06138
G1 X57.645 Y98.018 E0.0299
G1 X56.678 Y97.531 E0.04861
G1 X54.95 Y96.622 E0.08767
G1 X54.512 Y96.384 E0.02238
G1 X54.083 Y96.106 E0.02295
G1 X53.703 Y95.764 E0.02296
G1 X53.381 Y95.367 E0.02295
G1 X53.125 Y94.925 E0.02293
G1 X52.909 Y94.338 E0.02808
G1 X52.749 Y93.726 E0.0284
G1 X52.023 Y91.097 E0.12246
G1 X51.197 Y88.411 E0.12618
